<?xml version="1.0" encoding="UTF-8"?>
<map version="1.10" tiledversion="1.12.2" orientation="orthogonal" renderorder="right-down" width="122" height="64" tilewidth="64" tileheight="64" infinite="0" nextlayerid="4" nextobjectid="4">
 <tileset firstgid="1" source="Snowforest.tsx"/>
 <layer id="1" name="Tile Layer 1" width="122" height="64">
  <data encoding="csv">
3741,3741,3741,3741,3741,3741,3741,3741,3741,3741,3741,3741,3741,3741,3741,3741,3741,3741,3741,3741,3741,3741,3741,3741,3741,3741,3741,3741,3741,3741,3741,3741,3741,3741,3741,3741,3741,3741,3741,3741,3741,3741,3741,3741,3741,3741,3741,3741,3741,3741,3741,3741,3741,3741,3741,3741,3741,3741,3741,3741,3741,3741,3741,3741,3741,3741,3741,3741,3741,3741,3741,3741,3741,3741,3741,3741,3741,3741,3741,3741,3741,3741,3741,3741,3741,3741,3741,3741,3741,3741,3741,3741,3741,3741,3741,3741,3741,3741,3741,3741,3741,3741,3741,3741,3741,3741,3741,3741,3741,3741,3741,3741,3741,3741,3741,3741,3741,3741,3741,3741,3741,3741,
3741,3741,3741,3741,3741,3741,3741,3741,3741,3741,3741,3741,3741,3741,3741,3741,3741,3741,3741,3741,3741,3741,3741,3741,3741,3741,3741,3741,3741,3741,3741,3741,3741,3741,3741,3741,3741,3741,3741,3741,3741,3741,3741,3741,3741,3741,3741,3741,3741,3741,3741,3741,3741,3741,3741,3741,3741,3741,3741,3741,3741,3741,3741,3741,3741,3741,3741,3741,3741,3741,3741,3741,3741,3741,3741,3741,3741,3741,3741,3741,3741,3741,3741,3741,3741,3741,3741,3741,3741,3741,3741,3741,3741,3741,3741,3741,3741,3741,3741,3741,3741,3741,3741,3741,3741,3741,3741,3741,3741,3741,3741,3741,3741,3741,3741,3741,3741,3741,3741,3741,3741,3741,
3741,3741,3741,3741,3741,3741,3741,3741,3741,3741,3741,3741,3741,3741,3741,3741,3741,3741,3741,3741,3741,3741,3741,3741,3741,3741,3741,3741,3741,3741,3741,3741,3741,3741,3741,3741,3741,3741,3741,3741,3741,3741,3741,3741,3741,3741,3741,3741,3741,3741,3741,3741,3741,3741,3741,3741,3741,3741,3741,3741,3741,3741,3741,3741,3741,3741,3741,3741,3741,3741,3741,3741,3741,3741,3741,3741,3741,3741,3741,3741,3741,3741,3741,3741,3741,3741,3741,3741,3741,3741,3741,3741,3741,3741,3741,3741,3741,3741,3741,3741,3741,3741,3741,3741,3741,3741,3741,3741,3741,3741,3741,3741,3741,3741,3741,3741,3741,3741,3741,3741,3741,3741,
3741,3741,3741,3741,3741,3741,3741,3741,3741,3741,3741,3741,3741,3741,3741,3741,3741,3741,3741,3741,3741,3741,3741,3741,3741,3741,3741,3741,3741,3741,3741,3741,3741,3741,3741,3741,3741,3741,3741,3741,3741,3741,3741,3741,3741,3741,3741,3741,3741,3741,3741,3741,3741,3741,3741,3741,3741,3741,3741,3741,3741,3741,3741,3741,3741,3741,3741,3741,3741,3741,3741,3741,3741,3741,3741,3741,3741,3741,3741,3741,3741,3741,3741,3741,3741,3741,3741,3741,3741,3741,3741,3741,3741,3741,3741,3741,3741,3741,3741,3741,3741,3741,3741,3741,3741,3741,3741,3741,3741,3741,3741,3741,3741,3741,3741,3741,3741,3741,3741,3741,3741,3741,
3741,3741,3741,3741,3741,3741,3741,3741,3741,3741,3741,3741,3741,3741,3741,3741,3741,3741,3741,3741,3741,3741,3741,3741,3741,3741,3741,3741,3741,3741,3741,3741,3741,3741,3741,3741,3741,3741,3741,3741,3741,3741,3741,3741,3741,3741,3741,3741,3741,3741,3741,3741,3741,3741,3741,3741,3741,3741,3741,3741,3741,3741,3741,3741,3741,3741,3741,3741,3741,3741,3741,3741,3741,3741,3741,3741,3741,3741,3741,3741,3741,3741,3741,3741,3741,3741,3741,3741,3741,3741,3741,3741,3741,3741,3741,3741,3741,3741,3741,3741,3741,3741,3741,3741,3741,3741,3741,3741,3741,3741,3741,3741,3741,3741,3741,3741,3741,3741,3741,3741,3741,3741,
3741,3741,3741,3741,3741,3741,3741,3741,3741,3741,3741,3741,3741,3741,3741,3741,3741,3741,3741,3741,3741,3741,3741,3741,3741,3741,3741,3741,3741,3741,3741,3741,3741,3741,3741,3741,3741,3741,3741,3741,3741,3741,3741,3741,3741,3741,3741,3741,3741,3741,3741,3741,3741,3741,3741,3741,3741,3741,3741,3741,3741,3741,3741,3741,3741,3741,3741,3741,3741,3741,3741,3741,3741,3741,3741,3741,3741,3741,3741,3741,3741,3741,3741,3741,3741,3741,3741,3741,3741,3741,3741,3741,3741,3741,3741,3741,3741,3741,3741,3741,3741,3741,3741,3741,3741,3741,3741,3741,3741,3741,3741,3741,3741,3741,3741,3741,3741,3741,3741,3741,3741,3741,
3741,3741,3741,3741,3741,3741,3741,3741,3741,3741,3741,3741,3741,3741,3741,3741,3741,3741,3741,3741,3741,3741,3741,3741,3741,3741,3741,3741,3741,3741,3741,3741,3741,3741,3741,3741,3741,3741,3741,3741,3741,3741,3741,3741,3741,3741,3741,3741,3741,3741,3741,3741,3741,3741,3741,3741,3741,3741,3741,3741,3741,3741,3741,3741,3741,3741,3741,3741,3741,3741,3741,3741,3741,3741,3741,3741,3741,3741,3741,3741,3741,3741,3741,3741,3741,3741,3741,3741,3741,3741,3741,3741,3741,3741,3741,3741,3741,3741,3741,3741,3741,3741,3741,3741,3741,3741,3741,3741,3741,3741,3741,3741,3741,3741,3741,3741,3741,3741,3741,3741,3741,3741,
3741,3741,3741,3741,3741,3741,3741,3741,3741,3741,3741,3741,3741,3741,3741,3741,3741,3741,3741,3741,3741,3741,3741,3741,3741,3741,3741,3741,3741,3741,3741,3741,3741,3741,3741,3741,3741,3741,3741,3741,3741,3741,3741,3741,3741,3741,3741,3741,3741,3741,3741,3741,3741,3741,3741,3741,3741,3741,3741,3741,3741,3741,3741,3741,3741,3741,3741,3741,3741,3741,3741,3741,3741,3741,3741,3741,3741,3741,3741,3741,3741,3741,3741,3741,3741,3741,3741,3741,3741,3741,3741,3741,3741,3741,3741,3741,3741,3741,3741,3741,3741,3741,3741,3741,3741,3741,3741,3741,3741,3741,3741,3741,3741,3741,3741,3741,3741,3741,3741,3741,3741,3741,
3741,3741,3741,3741,3741,3741,3741,3741,3741,3741,3741,3741,3741,3741,3741,3741,3741,3741,3741,3741,3741,3741,3741,3741,3741,3741,3741,3741,3741,3741,3741,3741,3741,3741,3741,3741,3741,3741,3741,3741,3741,3741,3741,3741,3741,3741,3741,3741,3741,3741,3741,3741,3741,3741,3741,3741,3741,3741,3741,3741,3741,3741,3741,3741,3741,3741,3741,3741,3741,3741,3741,3741,3741,3741,3741,3741,3741,3741,3741,3741,3741,3741,3741,3741,3741,3741,3741,3741,3741,3741,3741,3741,3741,3741,3741,3741,3741,3741,3741,3741,3741,3741,3741,3741,3741,3741,3741,3741,3741,3741,3741,3741,3741,3741,3741,3741,3741,3741,3741,3741,3741,3741,
3741,3741,3741,3741,3741,3741,3741,3741,3741,3741,3741,3741,3741,3741,3741,3741,3741,3741,3741,3741,3741,3741,3741,3741,3741,3741,3741,3741,3741,3741,3741,3741,3741,3741,3741,3741,3741,3741,3741,3741,3741,3741,3741,3741,3741,3741,3741,3741,3741,3741,3741,3741,3741,3741,3741,3741,3741,3741,3741,3741,3741,3741,3741,3741,3741,3741,3741,3741,3741,3741,3741,3741,3741,3741,3741,3741,3741,3741,3741,3741,3741,3741,3741,3741,3741,3741,3741,3741,3741,3741,3741,3741,3741,3741,3741,3741,3741,3741,3741,3741,3741,3741,3741,3741,3741,3741,3741,3741,3741,3741,3741,3741,3741,3741,3741,3741,3741,3741,3741,3741,3741,3741,
3741,3741,3741,3741,3741,3741,3741,3741,3741,3741,3741,3741,3741,3741,3741,3741,3741,3741,3741,3741,3741,3741,3741,3741,3741,3741,3741,3741,3741,3741,3741,3741,3741,3741,3741,3741,3741,3741,3741,3741,3741,3741,3741,3741,3741,3741,3741,3741,3741,3741,3741,3741,3741,3741,3741,3741,3741,3741,3741,3741,3741,3741,3741,3741,3741,3741,3741,3741,3741,3741,3741,3741,3741,3741,3741,3741,3741,3741,3741,3741,3741,3741,3741,3741,3741,3741,3741,3741,3741,3741,3741,3741,3741,3741,3741,3741,3741,3741,3741,3741,3741,3741,3741,3741,3741,3741,3741,3741,3741,3741,3741,3741,3741,3741,3741,3741,3741,3741,3741,3741,3741,3741,
3741,3741,3741,3741,3741,3741,3741,3741,3741,3741,3741,3741,3741,3741,3741,3741,3741,3741,3741,3741,3741,3741,3741,3741,3741,3741,3741,3741,3741,3741,3741,3741,3741,3741,3741,3741,3741,3741,3741,3741,3741,3741,3741,3741,3741,3741,3741,3741,3741,3741,3741,3741,3741,3741,3741,3741,3741,3741,3741,3741,3741,3741,3741,3741,3741,3741,3741,3741,3741,3741,3741,3741,3741,3741,3741,3741,3741,3741,3741,3741,3741,3741,3741,3741,3741,3741,3741,3741,3741,3741,3741,3741,3741,3741,3741,3741,3741,3741,3741,3741,3741,3741,3741,3741,3741,3741,3741,3741,3741,3741,3741,3741,3741,3741,3741,3741,3741,3741,3741,3741,3741,3741,
3741,3741,3741,3741,3741,3741,3741,3741,3741,3741,3741,3741,3741,3741,3741,3741,3741,3741,3741,3741,3741,3741,3741,3741,3741,3741,3741,3741,3741,3741,3741,3741,3741,3741,3741,3741,3741,3741,3741,3741,3741,3741,3741,3741,3741,3741,3741,3741,3741,3741,3741,3741,3741,3741,3741,3741,3741,3741,3741,3741,3741,3741,3741,3741,3741,3741,3741,3741,3741,3741,3741,3741,3741,3741,3741,3741,3741,3741,3741,3741,3741,3741,3741,3741,3741,3741,3741,3741,3741,3741,3741,3741,3741,3741,3741,3741,3741,3741,3741,3741,3741,3741,3741,3741,3741,3741,3741,3741,3741,3741,3741,3741,3741,3741,3741,3741,3741,3741,3741,3741,3741,3741,
3741,3741,3741,3741,3741,3741,3741,3741,3741,3741,3741,3741,3741,3741,3741,3741,3741,3741,3741,3741,3741,3741,3741,3741,3741,3741,3741,3741,3741,3741,3741,3741,3741,3741,3741,3741,3741,3741,3741,3741,3741,3741,3741,3741,3741,3741,3741,3741,3741,3741,3741,3741,3741,3741,3741,3741,3741,3741,3741,3741,3741,3741,3741,3741,3741,3741,3741,3741,3741,3741,3741,3741,3741,3741,3741,3741,3741,3741,3741,3741,3741,3741,3741,3741,3741,3741,3741,3741,3741,3741,3741,3741,3741,3741,3741,3741,3741,3741,3741,3741,3741,3741,3741,3741,3741,3741,3741,3741,3741,3741,3741,3741,3741,3741,3741,3741,3741,3741,3741,3741,3741,3741,
3741,3741,3741,3741,3741,3741,3741,3741,3741,3741,3741,3741,3741,3741,3741,3741,3741,3741,3741,3741,3741,3741,3741,3741,3741,3741,3741,3741,3741,3741,3741,3741,3741,3741,3741,3741,3741,3741,3741,3741,3741,3741,3741,3741,3741,3741,3741,3741,3741,3741,3741,3741,3741,3741,3741,3741,3741,3741,3741,3741,3741,3741,3741,3741,3741,3741,3741,3741,3741,3741,3741,3741,3741,3741,3741,3741,3741,3741,3741,3741,3741,3741,3741,3741,3741,3741,3741,3741,3741,3741,3741,3741,3741,3741,3741,3741,3741,3741,3741,3741,3741,3741,3741,3741,3741,3741,3741,3741,3741,3741,3741,3741,3741,3741,3741,3741,3741,3741,3741,3741,3741,3741,
3741,3741,3741,3741,3741,3741,3741,3741,3741,3741,3741,3741,3741,3741,3741,3741,3741,3741,3741,3741,3741,3741,3741,3741,3741,3741,3741,3741,3741,3741,3741,3741,3741,3741,3741,3741,3741,3741,3741,3741,3741,3741,3741,3741,3741,3741,3741,3741,3741,3741,3741,3741,3741,3741,3741,3741,3741,3741,3741,3741,3741,3741,3741,3741,3741,3741,3741,3741,3741,3741,3741,3741,3741,3741,3741,3741,3741,3741,3741,3741,3741,3741,3741,3741,3741,3741,3741,3741,3741,3741,3741,3741,3741,3741,3741,3741,3741,3741,3741,3741,3741,3741,3741,3741,3741,3741,3741,3741,3741,3741,3741,3741,3741,3741,3741,3741,3741,3741,3741,3741,3741,3741,
3741,3741,3741,3741,3741,3741,3741,3741,3741,3741,3741,3741,3741,3741,3741,3741,3741,3741,3741,3741,3741,3741,3741,3741,3741,3741,3741,3741,3741,3741,3741,3741,3741,3741,3741,3741,3741,3741,3741,3741,3741,3741,3741,3741,3741,3741,3741,3741,3741,3741,3741,3741,3741,3741,3741,3741,3741,3741,3741,3741,3741,3741,3741,3741,3741,3741,3741,3741,3741,3741,3741,3741,3741,3741,3741,3741,3741,3741,3741,3741,3741,3741,3741,3741,3741,3741,3741,3741,3741,3741,3741,3741,3741,3741,3741,3741,3741,3741,3741,3741,3741,3741,3741,3741,3741,3741,3741,3741,3741,3741,3741,3741,3741,3741,3741,3741,3741,3741,3741,3741,3741,3741,
3741,3741,3741,3741,3741,3741,3741,3741,3741,3741,3741,3741,3741,3741,3741,3741,3741,3741,3741,3741,3741,3741,3741,3741,3741,3741,3741,3741,3741,3741,3741,3741,3741,3741,3741,3741,3741,3741,3741,3741,3741,3741,3741,3741,3741,3741,3741,3741,3741,3741,3741,3741,3741,3741,3741,3741,3741,3741,3741,3741,3741,3741,3741,3741,3741,3741,3741,3741,3741,3741,3741,3741,3741,3741,3741,3741,3741,3741,3741,3741,3741,3741,3741,3741,3741,3741,3741,3741,3741,3741,3741,3741,3741,3741,3741,3741,3741,3741,3741,3741,3741,3741,3741,3741,3741,3741,3741,3741,3741,3741,3741,3741,3741,3741,3741,3741,3741,3741,3741,3741,3741,3741,
3741,3741,3741,3741,3741,3741,3741,3741,3741,3741,3741,3741,3741,3741,3741,3741,3741,3741,3741,3741,3741,3741,3741,3741,3741,3741,3741,3741,3741,3741,3741,3741,3741,3741,3741,3741,3741,3741,3741,3741,3741,3741,3741,3741,3741,3741,3741,3741,3741,3741,3741,3741,3741,3741,3741,3741,3741,3741,3741,3741,3741,3741,3741,3741,3741,3741,3741,3741,3741,3741,3741,3741,3741,3741,3741,3741,3741,3741,3741,3741,3741,3741,3741,3741,3741,3741,3741,3741,3741,3741,3741,3741,3741,3741,3741,3741,3741,3741,3741,3741,3741,3741,3741,3741,3741,3741,3741,3741,3741,3741,3741,3741,3741,3741,3741,3741,3741,3741,3741,3741,3741,3741,
3741,3741,3741,3741,3741,3741,3741,3741,3741,3741,3741,3741,3741,3741,3741,3741,3741,3741,3741,3741,3741,3741,3741,3741,3741,3741,3741,3741,3741,3741,3741,3741,3741,3741,3741,3741,3741,3741,3741,3741,3741,3741,3741,3741,3741,3741,3741,3741,3741,3741,3741,3741,3741,3741,3741,3741,3741,3741,3741,3741,3741,3741,3741,3741,3741,3741,3741,3741,3741,3741,3741,3741,3741,3741,3741,3741,3741,3741,3741,3741,3741,3741,3741,3741,3741,3741,3741,3741,3741,3741,3741,3741,3741,3741,3741,3741,3741,3741,3741,3741,3741,3741,3741,3741,3741,3741,3741,3741,3741,3741,3741,3741,3741,3741,3741,3741,3741,3741,3741,3741,3741,3741,
3741,3741,3741,3741,3741,3741,3741,3741,3741,3741,3741,3741,3741,3741,3741,3741,3741,3741,3741,3741,3741,3741,3741,3741,3741,3741,3741,3741,3741,3741,3741,3741,3741,3741,3741,3741,3741,3741,3741,3741,3741,3741,3741,3741,3741,3741,3741,3741,3741,3741,3741,3741,3741,3741,3741,3741,3741,3741,3741,3741,3741,3741,3741,3741,3741,3741,3741,3741,3741,3741,3741,3741,3741,3741,3741,3741,3741,3741,3741,3741,3741,3741,3741,3741,3741,3741,3741,3741,3741,3741,3741,3741,3741,3741,3741,3741,3741,3741,3741,3741,3741,3741,3741,3741,3741,3741,3741,3741,3741,3741,3741,3741,3741,3741,3741,3741,3741,3741,3741,3741,3741,3741,
3741,3741,3741,3741,3741,3741,3741,3741,3741,3741,3741,3741,3741,3741,3741,3741,3741,3741,3741,3741,3741,3741,3741,3741,3741,3741,3741,3741,3741,3741,3741,3741,3741,3741,3741,3741,3741,3741,3741,3741,3741,3741,3741,3741,3741,3741,3741,3741,3741,3741,3741,3741,3741,3741,3741,3741,3741,3741,3741,3741,3741,3741,3741,3741,3741,3741,3741,3741,3741,3741,3741,3741,3741,3741,3741,3741,3741,3741,3741,3741,3741,3741,3741,3741,3741,3741,3741,3741,3741,3741,3741,3741,3741,3741,3741,3741,3741,3741,3741,3741,3741,3741,3741,3741,3741,3741,3741,3741,3741,3741,3741,3741,3741,3741,3741,3741,3741,3741,3741,3741,3741,3741,
3741,3741,3741,3741,3741,3741,3741,3741,3741,3741,3741,3741,3741,3741,3741,3741,3741,3741,3741,3741,3741,3741,3741,3741,3741,3741,3741,3741,3741,3741,3741,3741,3741,3741,3741,3741,3741,3741,3741,3741,3741,3741,3741,3741,3741,3741,3741,3741,3741,3741,3741,3741,3741,3741,3741,3741,3741,3741,3741,3741,3741,3741,3741,3741,3741,3741,3741,3741,3741,3741,3741,3741,3741,3741,3741,3741,3741,3741,3741,3741,3741,3741,3741,3741,3741,3741,3741,3741,3741,3741,3741,3741,3741,3741,3741,3741,3741,3741,3741,3741,3741,3741,3741,3741,3741,3741,3741,3741,3741,3741,3741,3741,3741,3741,3741,3741,3741,3741,3741,3741,3741,3741,
3741,3741,3741,3741,3741,3741,3741,3741,3741,3741,3741,3741,3741,3741,3741,3741,3741,3741,3741,3741,3741,3741,3741,3741,3741,3741,3741,3741,3741,3741,3741,3741,3741,3741,3741,3741,3741,3741,3741,3741,3741,3741,3741,3741,3741,3741,3741,3741,3741,3741,3741,3741,3741,3741,3741,3741,3741,3741,3741,3741,3741,3741,3741,3741,3741,3741,3741,3741,3741,3741,3741,3741,3741,3741,3741,3741,3741,3741,3741,3741,3741,3741,3741,3741,3741,3741,3741,3741,3741,3741,3741,3741,3741,3741,3741,3741,3741,3741,3741,3741,3741,3741,3741,3741,3741,3741,3741,3741,3741,3741,3741,3741,3741,3741,3741,3741,3741,3741,3741,3741,3741,3741,
3741,3741,3741,3741,3741,3741,3741,3741,3741,3741,3741,3741,3741,3741,3741,3741,3741,3741,3741,3741,3741,3741,3741,3741,3741,3741,3741,3741,3741,3741,3741,3741,3741,3741,3741,3741,3741,3741,3741,3741,3741,3741,3741,3741,3741,3741,3741,3741,3741,3741,3741,3741,3741,3741,3741,3741,3741,3741,3741,3741,3741,3741,3741,3741,3741,3741,3741,3741,3741,3741,3741,3741,3741,3741,3741,3741,3741,3741,3741,3741,3741,3741,3741,3741,3741,3741,3741,3741,3741,3741,3741,3741,3741,3741,3741,3741,3741,3741,3741,3741,3741,3741,3741,3741,3741,3741,3741,3741,3741,3741,3741,3741,3741,3741,3741,3741,3741,3741,3741,3741,3741,3741,
3741,3741,3741,3741,3741,3741,3741,3741,3741,3741,3741,3741,3741,3741,3741,3741,3741,3741,3741,3741,3741,3741,3741,3741,3741,3741,3741,3741,3741,3741,3741,3741,3741,3741,3741,3741,3741,3741,3741,3741,3741,3741,3741,3741,3741,3741,3741,3741,3741,3741,3741,3741,3741,3741,3741,3741,3741,3741,3741,3741,3741,3741,3741,3741,3741,3741,3741,3741,3741,3741,3741,3741,3741,3741,3741,3741,3741,3741,3741,3741,3741,3741,3741,3741,3741,3741,3741,3741,3741,3741,3741,3741,3741,3741,3741,3741,3741,3741,3741,3741,3741,3741,3741,3741,3741,3741,3741,3741,3741,3741,3741,3741,3741,3741,3741,3741,3741,3741,3741,3741,3741,3741,
3741,3741,3741,3741,3741,3741,3741,3741,3741,3741,3741,3741,3741,3741,3741,3741,3741,3741,3741,3741,3741,3741,3741,3741,3741,3741,3741,3741,3741,3741,3741,3741,3741,3741,3741,3741,3741,3741,3741,3741,3741,3741,3741,3741,3741,3741,3741,3741,3741,3741,3741,3741,3741,3741,3741,3741,3741,3741,3741,3741,3741,3741,3741,3741,3741,3741,3741,3741,3741,3741,3741,3741,3741,3741,3741,3741,3741,3741,3741,3741,3741,3741,3741,3741,3741,3741,3741,3741,3741,3741,3741,3741,3741,3741,3741,3741,3741,3741,3741,3741,3741,3741,3741,3741,3741,3741,3741,3741,3741,3741,3741,3741,3741,3741,3741,3741,3741,3741,3741,3741,3741,3741,
3741,3741,3741,3741,3741,3741,3741,3741,3741,3741,3741,3741,3741,3741,3741,3741,3741,3741,3741,3741,3741,3741,3741,3741,3741,3741,3741,3741,3741,3741,3741,3741,3741,3741,3741,3741,3741,3741,3741,3741,3741,3741,3741,3741,3741,3741,3741,3741,3741,3741,3741,3741,3741,3741,3741,3741,3741,3741,3741,3741,3741,3741,3741,3741,3741,3741,3741,3741,3741,3741,3741,3741,3741,3741,3741,3741,3741,3741,3741,3741,3741,3741,3741,3741,3741,3741,3741,3741,3741,3741,3741,3741,3741,3741,3741,3741,3741,3741,3741,3741,3741,3741,3741,3741,3741,3741,3741,3741,3741,3741,3741,3741,3741,3741,3741,3741,3741,3741,3741,3741,3741,3741,
3741,3741,3741,3741,3741,3741,3741,3741,3741,3741,3741,3741,3741,3741,3741,3741,3741,3741,3741,3741,3741,3741,3741,3741,3741,3741,3741,3741,3741,3741,3741,3741,3741,3741,3741,3741,3741,3741,3741,3741,3741,3741,3741,3741,3741,3741,3741,3741,3741,3741,3741,3741,3741,3741,3741,3741,3741,3741,3741,3741,3741,3741,3741,3741,3741,3741,3741,3741,3741,3741,3741,3741,3741,3741,3741,3741,3741,3741,3741,3741,3741,3741,3741,3741,3741,3741,3741,3741,3741,3741,3741,3741,3741,3741,3741,3741,3741,3741,3741,3741,3741,3741,3741,3741,3741,3741,3741,3741,3741,3741,3741,3741,3741,3741,3741,3741,3741,3741,3741,3741,3741,3741,
3741,3741,3741,3741,3741,3741,3741,3741,3741,3741,3741,3741,3741,3741,3741,3741,3741,3741,3741,3741,3741,3741,3741,3741,3741,3741,3741,3741,3741,3741,3741,3741,3741,3741,3741,3741,3741,3741,3741,3741,3741,3741,3741,3741,3741,3741,3741,3741,3741,3741,3741,3741,3741,3741,3741,3741,3741,3741,3741,3741,3741,3741,3741,3741,3741,3741,3741,3741,3741,3741,3741,3741,3741,3741,3741,3741,3741,3741,3741,3741,3741,3741,3741,3741,3741,3741,3741,3741,3741,3741,3741,3741,3741,3741,3741,3741,3741,3741,3741,3741,3741,3741,3741,3741,3741,3741,3741,3741,3741,3741,3741,3741,3741,3741,3741,3741,3741,3741,3741,3741,3741,3741,
3741,3741,3741,3741,3741,3741,3741,3741,3741,3741,3741,3741,3741,3741,3741,3741,3741,3741,3741,3741,3741,3741,3741,3741,3741,3741,3741,3741,3741,3741,3741,3741,3741,3741,3741,3741,3741,3741,3741,3741,3741,3741,3741,3741,3741,3741,3741,3741,3741,3741,3741,3741,3741,3741,3741,3741,3741,3741,3741,3741,3741,3741,3741,3741,3741,3741,3741,3741,3741,3741,3741,3741,3741,3741,3741,3741,3741,3741,3741,3741,3741,3741,3741,3741,3741,3741,3741,3741,3741,3741,3741,3741,3741,3741,3741,3741,3741,3741,3741,3741,3741,3741,3741,3741,3741,3741,3741,3741,3741,3741,3741,3741,3741,3741,3741,3741,3741,3741,3741,3741,3741,3741,
3741,3741,3741,3741,3741,3741,3741,3741,3741,3741,3741,3741,3741,3741,3741,3741,3741,3741,3741,3741,3741,3741,3741,3741,3741,3741,3741,3741,3741,3741,3741,3741,3741,3741,3741,3741,3741,3741,3741,3741,3741,3741,3741,3741,3741,3741,3741,3741,3741,3741,3741,3741,3741,3741,3741,3741,3741,3741,3741,3741,3741,3741,3741,3741,3741,3741,3741,3741,3741,3741,3741,3741,3741,3741,3741,3741,3741,3741,3741,3741,3741,3741,3741,3741,3741,3741,3741,3741,3741,3741,3741,3741,3741,3741,3741,3741,3741,3741,3741,3741,3741,3741,3741,3741,3741,3741,3741,3741,3741,3741,3741,3741,3741,3741,3741,3741,3741,3741,3741,3741,3741,3741,
3741,3741,3741,3741,3741,3741,3741,3741,3741,3741,3741,3741,3741,3741,3741,3741,3741,3741,3741,3741,3741,3741,3741,3741,3741,3741,3741,3741,3741,3741,3741,3741,3741,3741,3741,3741,3741,3741,3741,3741,3741,3741,3741,3741,3741,3741,3741,3741,3741,3741,3741,3741,3741,3741,3741,3741,3741,3741,3741,3741,3741,3741,3741,3741,3741,3741,3741,3741,3741,3741,3741,3741,3741,3741,3741,3741,3741,3741,3741,3741,3741,3741,3741,3741,3741,3741,3741,3741,3741,3741,3741,3741,3741,3741,3741,3741,3741,3741,3741,3741,3741,3741,3741,3741,3741,3741,3741,3741,3741,3741,3741,3741,3741,3741,3741,3741,3741,3741,3741,3741,3741,3741,
3741,3741,3741,3741,3741,3741,3741,3741,3741,3741,3741,3741,3741,3741,3741,3741,3741,3741,3741,3741,3741,3741,3741,3741,3741,3741,3741,3741,3741,3741,3741,3741,3741,3741,3741,3741,3741,3741,3741,3741,3741,3741,3741,3741,3741,3741,3741,3741,3741,3741,3741,3741,3741,3741,3741,3741,3741,3741,3741,3741,3741,3741,3741,3741,3741,3741,3741,3741,3741,3741,3741,3741,3741,3741,3741,3741,3741,3741,3741,3741,3741,3741,3741,3741,3741,3741,3741,3741,3741,3741,3741,3741,3741,3741,3741,3741,3741,3741,3741,3741,3741,3741,3741,3741,3741,3741,3741,3741,3741,3741,3741,3741,3741,3741,3741,3741,3741,3741,3741,3741,3741,3741,
3741,3741,3741,3741,3741,3741,3741,3741,3741,3741,3741,3741,3741,3741,3741,3741,3741,3741,3741,3741,3741,3741,3741,3741,3741,3741,3741,3741,3741,3741,3741,3741,3741,3741,3741,3741,3741,3741,3741,3741,3741,3741,3741,3741,3741,3741,3741,3741,3741,3741,3741,3741,3741,3741,3741,3741,3741,3741,3741,3741,3741,3741,3741,3741,3741,3741,3741,3741,3741,3741,3741,3741,3741,3741,3741,3741,3741,3741,3741,3741,3741,3741,3741,3741,3741,3741,3741,3741,3741,3741,3741,3741,3741,3741,3741,3741,3741,3741,3741,3741,3741,3741,3741,3741,3741,3741,3741,3741,3741,3741,3741,3741,3741,3741,3741,3741,3741,3741,3741,3741,3741,3741,
3741,3741,3741,3741,3741,3741,3741,3741,3741,3741,3741,3741,3741,3741,3741,3741,3741,3741,3741,3741,3741,3741,3741,3741,3741,3741,3741,3741,3741,3741,3741,3741,3741,3741,3741,3741,3741,3741,3741,3741,3741,3741,3741,3741,3741,3741,3741,3741,3741,3741,3741,3741,3741,3741,3741,3741,3741,3741,3741,3741,3741,3741,3741,3741,3741,3741,3741,3741,3741,3741,3741,3741,3741,3741,3741,3741,3741,3741,3741,3741,3741,3741,3741,3741,3741,3741,3741,3741,3741,3741,3741,3741,3741,3741,3741,3741,3741,3741,3741,3741,3741,3741,3741,3741,3741,3741,3741,3741,3741,3741,3741,3741,3741,3741,3741,3741,3741,3741,3741,3741,3741,3741,
3741,3741,3741,3741,3741,3741,3741,3741,3741,3741,3741,3741,3741,3741,3741,3741,3741,3741,3741,3741,3741,3741,3741,3741,3741,3741,3741,3741,3741,3741,3741,3741,3741,3741,3741,3741,3741,3741,3741,3741,3741,3741,3741,3741,3741,3741,3741,3741,3741,3741,3741,3741,3741,3741,3741,3741,3741,3741,3741,3741,3741,3741,3741,3741,3741,3741,3741,3741,3741,3741,3741,3741,3741,3741,3741,3741,3741,3741,3741,3741,3741,3741,3741,3741,3741,3741,3741,3741,3741,3741,3741,3741,3741,3741,3741,3741,3741,3741,3741,3741,3741,3741,3741,3741,3741,3741,3741,3741,3741,3741,3741,3741,3741,3741,3741,3741,3741,3741,3741,3741,3741,3741,
3741,3741,3741,3741,3741,3741,3741,3741,3741,3741,3741,3741,3741,3741,3741,3741,3741,3741,3741,3741,3741,3741,3741,3741,3741,3741,3741,3741,3741,3741,3741,3741,3741,3741,3741,3741,3741,3741,3741,3741,3741,3741,3741,3741,3741,3741,3741,3741,3741,3741,3741,3741,3741,3741,3741,3741,3741,3741,3741,3741,3741,3741,3741,3741,3741,3741,3741,3741,3741,3741,3741,3741,3741,3741,3741,3741,3741,3741,3741,3741,3741,3741,3741,3741,3741,3741,3741,3741,3741,3741,3741,3741,3741,3741,3741,3741,3741,3741,3741,3741,3741,3741,3741,3741,3741,3741,3741,3741,3741,3741,3741,3741,3741,3741,3741,3741,3741,3741,3741,3741,3741,3741,
3741,3741,3741,3741,3741,3741,3741,3741,3741,3741,3741,3741,3741,3741,3741,3741,3741,3741,3741,3741,3741,3741,3741,3741,3741,3741,3741,3741,3741,3741,3741,3741,3741,3741,3741,3741,3741,3741,3741,3741,3741,3741,3741,3741,3741,3741,3741,3741,3741,3741,3741,3741,3741,3741,3741,3741,3741,3741,3741,3741,3741,3741,3741,3741,3741,3741,3741,3741,3741,3741,3741,3741,3741,3741,3741,3741,3741,3741,3741,3741,3741,3741,3741,3741,3741,3741,3741,3741,3741,3741,3741,3741,3741,3741,3741,3741,3741,3741,3741,3741,3741,3741,3741,3741,3741,3741,3741,3741,3741,3741,3741,3741,3741,3741,3741,3741,3741,3741,3741,3741,3741,3741,
3741,3741,3741,3741,3741,3741,3741,3741,3741,3741,3741,3741,3741,3741,3741,3741,3741,3741,3741,3741,3741,3741,3741,3741,3741,3741,3741,3741,3741,3741,3741,3741,3741,3741,3741,3741,3741,3741,3741,3741,3741,3741,3741,3741,3741,3741,3741,3741,3741,3741,3741,3741,3741,3741,3741,3741,3741,3741,3741,3741,3741,3741,3741,3741,3741,3741,3741,3741,3741,3741,3741,3741,3741,3741,3741,3741,3741,3741,3741,3741,3741,3741,3741,3741,3741,3741,3741,3741,3741,3741,3741,3741,3741,3741,3741,3741,3741,3741,3741,3741,3741,3741,3741,3741,3741,3741,3741,3741,3741,3741,3741,3741,3741,3741,3741,3741,3741,3741,3741,3741,3741,3741,
3741,3741,3741,3741,3741,3741,3741,3741,3741,3741,3741,3741,3741,3741,3741,3741,3741,3741,3741,3741,3741,3741,3741,3741,3741,3741,3741,3741,3741,3741,3741,3741,3741,3741,3741,3741,3741,3741,3741,3741,3741,3741,3741,3741,3741,3741,3741,3741,3741,3741,3741,3741,3741,3741,3741,3741,3741,3741,3741,3741,3741,3741,3741,3741,3741,3741,3741,3741,3741,3741,3741,3741,3741,3741,3741,3741,3741,3741,3741,3741,3741,3741,3741,3741,3741,3741,3741,3741,3741,3741,3741,3741,3741,3741,3741,3741,3741,3741,3741,3741,3741,3741,3741,3741,3741,3741,3741,3741,3741,3741,3741,3741,3741,3741,3741,3741,3741,3741,3741,3741,3741,3741,
3741,3741,3741,3741,3741,3741,3741,3741,3741,3741,3741,3741,3741,3741,3741,3741,3741,3741,3741,3741,3741,3741,3741,3741,3741,3741,3741,3741,3741,3741,3741,3741,3741,3741,3741,3741,3741,3741,3741,3741,3741,3741,3741,3741,3741,3741,3741,3741,3741,3741,3741,3741,3741,3741,3741,3741,3741,3741,3741,3741,3741,3741,3741,3741,3741,3741,3741,3741,3741,3741,3741,3741,3741,3741,3741,3741,3741,3741,3741,3741,3741,3741,3741,3741,3741,3741,3741,3741,3741,3741,3741,3741,3741,3741,3741,3741,3741,3741,3741,3741,3741,3741,3741,3741,3741,3741,3741,3741,3741,3741,3741,3741,3741,3741,3741,3741,3741,3741,3741,3741,3741,3741,
3741,3741,3741,3741,3741,3741,3741,3741,3741,3741,3741,3741,3741,3741,3741,3741,3741,3741,3741,3741,3741,3741,3741,3741,3741,3741,3741,3741,3741,3741,3741,3741,3741,3741,3741,3741,3741,3741,3741,3741,3741,3741,3741,3741,3741,3741,3741,3741,3741,3741,3741,3741,3741,3741,3741,3741,3741,3741,3741,3741,3741,3741,3741,3741,3741,3741,3741,3741,3741,3741,3741,3741,3741,3741,3741,3741,3741,3741,3741,3741,3741,3741,3741,3741,3741,3741,3741,3741,3741,3741,3741,3741,3741,3741,3741,3741,3741,3741,3741,3741,3741,3741,3741,3741,3741,3741,3741,3741,3741,3741,3741,3741,3741,3741,3741,3741,3741,3741,3741,3741,3741,3741,
3741,3741,3741,3741,3741,3741,3741,3741,3741,3741,3741,3741,3741,3741,3741,3741,3741,3741,3741,3741,3741,3741,3741,3741,3741,3741,3741,3741,3741,3741,3741,3741,3741,3741,3741,3741,3741,3741,3741,3741,3741,3741,3741,3741,3741,3741,3741,3741,3741,3741,3741,3741,3741,3741,3741,3741,3741,3741,3741,3741,3741,3741,3741,3741,3741,3741,3741,3741,3741,3741,3741,3741,3741,3741,3741,3741,3741,3741,3741,3741,3741,3741,3741,3741,3741,3741,3741,3741,3741,3741,3741,3741,3741,3741,3741,3741,3741,3741,3741,3741,3741,3741,3741,3741,3741,3741,3741,3741,3741,3741,3741,3741,3741,3741,3741,3741,3741,3741,3741,3741,3741,3741,
3741,3741,3741,3741,3741,3741,3741,3741,3741,3741,3741,3741,3741,3741,3741,3741,3741,3741,3741,3741,3741,3741,3741,3741,3741,3741,3741,3741,3741,3741,3741,3741,3741,3741,3741,3741,3741,3741,3741,3741,3741,3741,3741,3741,3741,3741,3741,3741,3741,3741,3741,3741,3741,3741,3741,3741,3741,3741,3741,3741,3741,3741,3741,3741,3741,3741,3741,3741,3741,3741,3741,3741,3741,3741,3741,3741,3741,3741,3741,3741,3741,3741,3741,3741,3741,3741,3741,3741,3741,3741,3741,3741,3741,3741,3741,3741,3741,3741,3741,3741,3741,3741,3741,3741,3741,3741,3741,3741,3741,3741,3741,3741,3741,3741,3741,3741,3741,3741,3741,3741,3741,3741,
3741,3741,3741,3741,3741,3741,3741,3741,3741,3741,3741,3741,3741,3741,3741,3741,3741,3741,3741,3741,3741,3741,3741,3741,3741,3741,3741,3741,3741,3741,3741,3741,3741,3741,3741,3741,3741,3741,3741,3741,3741,3741,3741,3741,3741,3741,3741,3741,3741,3741,3741,3741,3741,3741,3741,3741,3741,3741,3741,3741,3741,3741,3741,3741,3741,3741,3741,3741,3741,3741,3741,3741,3741,3741,3741,3741,3741,3741,3741,3741,3741,3741,3741,3741,3741,3741,3741,3741,3741,3741,3741,3741,3741,3741,3741,3741,3741,3741,3741,3741,3741,3741,3741,3741,3741,3741,3741,3741,3741,3741,3741,3741,3741,3741,3741,3741,3741,3741,3741,3741,3741,3741,
3741,3741,3741,3741,3741,3741,3741,3741,3741,3741,3741,3741,3741,3741,3741,3741,3741,3741,3741,3741,3741,3741,3741,3741,3741,3741,3741,3741,3741,3741,3741,3741,3741,3741,3741,3741,3741,3741,3741,3741,3741,3741,3741,3741,3741,3741,3741,3741,3741,3741,3741,3741,3741,3741,3741,3741,3741,3741,3741,3741,3741,3741,3741,3741,3741,3741,3741,3741,3741,3741,3741,3741,3741,3741,3741,3741,3741,3741,3741,3741,3741,3741,3741,3741,3741,3741,3741,3741,3741,3741,3741,3741,3741,3741,3741,3741,3741,3741,3741,3741,3741,3741,3741,3741,3741,3741,3741,3741,3741,3741,3741,3741,3741,3741,3741,3741,3741,3741,3741,3741,3741,3741,
3741,3741,3741,3741,3741,3741,3741,3741,3741,3741,3741,3741,3741,3741,3741,3741,3741,3741,3741,3741,3741,3741,3741,3741,3741,3741,3741,3741,3741,3741,3741,3741,3741,3741,3741,3741,3741,3741,3741,3741,3741,3741,3741,3741,3741,3741,3741,3741,3741,3741,3741,3741,3741,3741,3741,3741,3741,3741,3741,3741,3741,3741,3741,3741,3741,3741,3741,3741,3741,3741,3741,3741,3741,3741,3741,3741,3741,3741,3741,3741,3741,3741,3741,3741,3741,3741,3741,3741,3741,3741,3741,3741,3741,3741,3741,3741,3741,3741,3741,3741,3741,3741,3741,3741,3741,3741,3741,3741,3741,3741,3741,3741,3741,3741,3741,3741,3741,3741,3741,3741,3741,3741,
3741,3741,3741,3741,3741,3741,3741,3741,3741,3741,3741,3741,3741,3741,3741,3741,3741,3741,3741,3741,3741,3741,3741,3741,3741,3741,3741,3741,3741,3741,3741,3741,3741,3741,3741,3741,3741,3741,3741,3741,3741,3741,3741,3741,3741,3741,3741,3741,3741,3741,3741,3741,3741,3741,3741,3741,3741,3741,3741,3741,3741,3741,3741,3741,3741,3741,3741,3741,3741,3741,3741,3741,3741,3741,3741,3741,3741,3741,3741,3741,3741,3741,3741,3741,3741,3741,3741,3741,3741,3741,3741,3741,3741,3741,3741,3741,3741,3741,3741,3741,3741,3741,3741,3741,3741,3741,3741,3741,3741,3741,3741,3741,3741,3741,3741,3741,3741,3741,3741,3741,3741,3741,
3741,3741,3741,3741,3741,3741,3741,3741,3741,3741,3741,3741,3741,3741,3741,3741,3741,3741,3741,3741,3741,3741,3741,3741,3741,3741,3741,3741,3741,3741,3741,3741,3741,3741,3741,3741,3741,3741,3741,3741,3741,3741,3741,3741,3741,3741,3741,3741,3741,3741,3741,3741,3741,3741,3741,3741,3741,3741,3741,3741,3741,3741,3741,3741,3741,3741,3741,3741,3741,3741,3741,3741,3741,3741,3741,3741,3741,3741,3741,3741,3741,3741,3741,3741,3741,3741,3741,3741,3741,3741,3741,3741,3741,3741,3741,3741,3741,3741,3741,3741,3741,3741,3741,3741,3741,3741,3741,3741,3741,3741,3741,3741,3741,3741,3741,3741,3741,3741,3741,3741,3741,3741,
3741,3741,3741,3741,3741,3741,3741,3741,3741,3741,3741,3741,3741,3741,3741,3741,3741,3741,3741,3741,3741,3741,3741,3741,3741,3741,3741,3741,3741,3741,3741,3741,3741,3741,3741,3741,3741,3741,3741,3741,3741,3741,3741,3741,3741,3741,3741,3741,3741,3741,3741,3741,3741,3741,3741,3741,3741,3741,3741,3741,3741,3741,3741,3741,3741,3741,3741,3741,3741,3741,3741,3741,3741,3741,3741,3741,3741,3741,3741,3741,3741,3741,3741,3741,3741,3741,3741,3741,3741,3741,3741,3741,3741,3741,3741,3741,3741,3741,3741,3741,3741,3741,3741,3741,3741,3741,3741,3741,3741,3741,3741,3741,3741,3741,3741,3741,3741,3741,3741,3741,3741,3741,
3741,3741,3741,3741,3741,3741,3741,3741,3741,3741,3741,3741,3741,3741,3741,3741,3741,3741,3741,3741,3741,3741,3741,3741,3741,3741,3741,3741,3741,3741,3741,3741,3741,3741,3741,3741,3741,3741,3741,3741,3741,3741,3741,3741,3741,3741,3741,3741,3741,3741,3741,3741,3741,3741,3741,3741,3741,3741,3741,3741,3741,3741,3741,3741,3741,3741,3741,3741,3741,3741,3741,3741,3741,3741,3741,3741,3741,3741,3741,3741,3741,3741,3741,3741,3741,3741,3741,3741,3741,3741,3741,3741,3741,3741,3741,3741,3741,3741,3741,3741,3741,3741,3741,3741,3741,3741,3741,3741,3741,3741,3741,3741,3741,3741,3741,3741,3741,3741,3741,3741,3741,3741,
3741,3741,3741,3741,3741,3741,3741,3741,3741,3741,3741,3741,3741,3741,3741,3741,3741,3741,3741,3741,3741,3741,3741,3741,3741,3741,3741,3741,3741,3741,3741,3741,3741,3741,3741,3741,3741,3741,3741,3741,3741,3741,3741,3741,3741,3741,3741,3741,3741,3741,3741,3741,3741,3741,3741,3741,3741,3741,3741,3741,3741,3741,3741,3741,3741,3741,3741,3741,3741,3741,3741,3741,3741,3741,3741,3741,3741,3741,3741,3741,3741,3741,3741,3741,3741,3741,3741,3741,3741,3741,3741,3741,3741,3741,3741,3741,3741,3741,3741,3741,3741,3741,3741,3741,3741,3741,3741,3741,3741,3741,3741,3741,3741,3741,3741,3741,3741,3741,3741,3741,3741,3741,
3741,3741,3741,3741,3741,3741,3741,3741,3741,3741,3741,3741,3741,3741,3741,3741,3741,3741,3741,3741,3741,3741,3741,3741,3741,3741,3741,3741,3741,3741,3741,3741,3741,3741,3741,3741,3741,3741,3741,3741,3741,3741,3741,3741,3741,3741,3741,3741,3741,3741,3741,3741,3741,3741,3741,3741,3741,3741,3741,3741,3741,3741,3741,3741,3741,3741,3741,3741,3741,3741,3741,3741,3741,3741,3741,3741,3741,3741,3741,3741,3741,3741,3741,3741,3741,3741,3741,3741,3741,3741,3741,3741,3741,3741,3741,3741,3741,3741,3741,3741,3741,3741,3741,3741,3741,3741,3741,3741,3741,3741,3741,3741,3741,3741,3741,3741,3741,3741,3741,3741,3741,3741,
3741,3741,3741,3741,3741,3741,3741,3741,3741,3741,3741,3741,3741,3741,3741,3741,3741,3741,3741,3741,3741,3741,3741,3741,3741,3741,3741,3741,3741,3741,3741,3741,3741,3741,3741,3741,3741,3741,3741,3741,3741,3741,3741,3741,3741,3741,3741,3741,3741,3741,3741,3741,3741,3741,3741,3741,3741,3741,3741,3741,3741,3741,3741,3741,3741,3741,3741,3741,3741,3741,3741,3741,3741,3741,3741,3741,3741,3741,3741,3741,3741,3741,3741,3741,3741,3741,3741,3741,3741,3741,3741,3741,3741,3741,3741,3741,3741,3741,3741,3741,3741,3741,3741,3741,3741,3741,3741,3741,3741,3741,3741,3741,3741,3741,3741,3741,3741,3741,3741,3741,3741,3741,
3741,3741,3741,3741,3741,3741,3741,3741,3741,3741,3741,3741,3741,3741,3741,3741,3741,3741,3741,3741,3741,3741,3741,3741,3741,3741,3741,3741,3741,3741,3741,3741,3741,3741,3741,3741,3741,3741,3741,3741,3741,3741,3741,3741,3741,3741,3741,3741,3741,3741,3741,3741,3741,3741,3741,3741,3741,3741,3741,3741,3741,3741,3741,3741,3741,3741,3741,3741,3741,3741,3741,3741,3741,3741,3741,3741,3741,3741,3741,3741,3741,3741,3741,3741,3741,3741,3741,3741,3741,3741,3741,3741,3741,3741,3741,3741,3741,3741,3741,3741,3741,3741,3741,3741,3741,3741,3741,3741,3741,3741,3741,3741,3741,3741,3741,3741,3741,3741,3741,3741,3741,3741,
3741,3741,3741,3741,3741,3741,3741,3741,3741,3741,3741,3741,3741,3741,3741,3741,3741,3741,3741,3741,3741,3741,3741,3741,3741,3741,3741,3741,3741,3741,3741,3741,3741,3741,3741,3741,3741,3741,3741,3741,3741,3741,3741,3741,3741,3741,3741,3741,3741,3741,3741,3741,3741,3741,3741,3741,3741,3741,3741,3741,3741,3741,3741,3741,3741,3741,3741,3741,3741,3741,3741,3741,3741,3741,3741,3741,3741,3741,3741,3741,3741,3741,3741,3741,3741,3741,3741,3741,3741,3741,3741,3741,3741,3741,3741,3741,3741,3741,3741,3741,3741,3741,3741,3741,3741,3741,3741,3741,3741,3741,3741,3741,3741,3741,3741,3741,3741,3741,3741,3741,3741,3741,
3741,3741,3741,3741,3741,3741,3741,3741,3741,3741,3741,3741,3741,3741,3741,3741,3741,3741,3741,3741,3741,3741,3741,3741,3741,3741,3741,3741,3741,3741,3741,3741,3741,3741,3741,3741,3741,3741,3741,3741,3741,3741,3741,3741,3741,3741,3741,3741,3741,3741,3741,3741,3741,3741,3741,3741,3741,3741,3741,3741,3741,3741,3741,3741,3741,3741,3741,3741,3741,3741,3741,3741,3741,3741,3741,3741,3741,3741,3741,3741,3741,3741,3741,3741,3741,3741,3741,3741,3741,3741,3741,3741,3741,3741,3741,3741,3741,3741,3741,3741,3741,3741,3741,3741,3741,3741,3741,3741,3741,3741,3741,3741,3741,3741,3741,3741,3741,3741,3741,3741,3741,3741,
3741,3741,3741,3741,3741,3741,3741,3741,3741,3741,3741,3741,3741,3741,3741,3741,3741,3741,3741,3741,3741,3741,3741,3741,3741,3741,3741,3741,3741,3741,3741,3741,3741,3741,3741,3741,3741,3741,3741,3741,3741,3741,3741,3741,3741,3741,3741,3741,3741,3741,3741,3741,3741,3741,3741,3741,3741,3741,3741,3741,3741,3741,3741,3741,3741,3741,3741,3741,3741,3741,3741,3741,3741,3741,3741,3741,3741,3741,3741,3741,3741,3741,3741,3741,3741,3741,3741,3741,3741,3741,3741,3741,3741,3741,3741,3741,3741,3741,3741,3741,3741,3741,3741,3741,3741,3741,3741,3741,3741,3741,3741,3741,3741,3741,3741,3741,3741,3741,3741,3741,3741,3741,
3741,3741,3741,3741,3741,3741,3741,3741,3741,3741,3741,3741,3741,3741,3741,3741,3741,3741,3741,3741,3741,3741,3741,3741,3741,3741,3741,3741,3741,3741,3741,3741,3741,3741,3741,3741,3741,3741,3741,3741,3741,3741,3741,3741,3741,3741,3741,3741,3741,3741,3741,3741,3741,3741,3741,3741,3741,3741,3741,3741,3741,3741,3741,3741,3741,3741,3741,3741,3741,3741,3741,3741,3741,3741,3741,3741,3741,3741,3741,3741,3741,3741,3741,3741,3741,3741,3741,3741,3741,3741,3741,3741,3741,3741,3741,3741,3741,3741,3741,3741,3741,3741,3741,3741,3741,3741,3741,3741,3741,3741,3741,3741,3741,3741,3741,3741,3741,3741,3741,3741,3741,3741,
3741,3741,3741,3741,3741,3741,3741,3741,3741,3741,3741,3741,3741,3741,3741,3741,3741,3741,3741,3741,3741,3741,3741,3741,3741,3741,3741,3741,3741,3741,3741,3741,3741,3741,3741,3741,3741,3741,3741,3741,3741,3741,3741,3741,3741,3741,3741,3741,3741,3741,3741,3741,3741,3741,3741,3741,3741,3741,3741,3741,3741,3741,3741,3741,3741,3741,3741,3741,3741,3741,3741,3741,3741,3741,3741,3741,3741,3741,3741,3741,3741,3741,3741,3741,3741,3741,3741,3741,3741,3741,3741,3741,3741,3741,3741,3741,3741,3741,3741,3741,3741,3741,3741,3741,3741,3741,3741,3741,3741,3741,3741,3741,3741,3741,3741,3741,3741,3741,3741,3741,3741,3741,
3741,3741,3741,3741,3741,3741,3741,3741,3741,3741,3741,3741,3741,3741,3741,3741,3741,3741,3741,3741,3741,3741,3741,3741,3741,3741,3741,3741,3741,3741,3741,3741,3741,3741,3741,3741,3741,3741,3741,3741,3741,3741,3741,3741,3741,3741,3741,3741,3741,3741,3741,3741,3741,3741,3741,3741,3741,3741,3741,3741,3741,3741,3741,3741,3741,3741,3741,3741,3741,3741,3741,3741,3741,3741,3741,3741,3741,3741,3741,3741,3741,3741,3741,3741,3741,3741,3741,3741,3741,3741,3741,3741,3741,3741,3741,3741,3741,3741,3741,3741,3741,3741,3741,3741,3741,3741,3741,3741,3741,3741,3741,3741,3741,3741,3741,3741,3741,3741,3741,3741,3741,3741,
3741,3741,3741,3741,3741,3741,3741,3741,3741,3741,3741,3741,3741,3741,3741,3741,3741,3741,3741,3741,3741,3741,3741,3741,3741,3741,3741,3741,3741,3741,3741,3741,3741,3741,3741,3741,3741,3741,3741,3741,3741,3741,3741,3741,3741,3741,3741,3741,3741,3741,3741,3741,3741,3741,3741,3741,3741,3741,3741,3741,3741,3741,3741,3741,3741,3741,3741,3741,3741,3741,3741,3741,3741,3741,3741,3741,3741,3741,3741,3741,3741,3741,3741,3741,3741,3741,3741,3741,3741,3741,3741,3741,3741,3741,3741,3741,3741,3741,3741,3741,3741,3741,3741,3741,3741,3741,3741,3741,3741,3741,3741,3741,3741,3741,3741,3741,3741,3741,3741,3741,3741,3741,
3741,3741,3741,3741,3741,3741,3741,3741,3741,3741,3741,3741,3741,3741,3741,3741,3741,3741,3741,3741,3741,3741,3741,3741,3741,3741,3741,3741,3741,3741,3741,3741,3741,3741,3741,3741,3741,3741,3741,3741,3741,3741,3741,3741,3741,3741,3741,3741,3741,3741,3741,3741,3741,3741,3741,3741,3741,3741,3741,3741,3741,3741,3741,3741,3741,3741,3741,3741,3741,3741,3741,3741,3741,3741,3741,3741,3741,3741,3741,3741,3741,3741,3741,3741,3741,3741,3741,3741,3741,3741,3741,3741,3741,3741,3741,3741,3741,3741,3741,3741,3741,3741,3741,3741,3741,3741,3741,3741,3741,3741,3741,3741,3741,3741,3741,3741,3741,3741,3741,3741,3741,3741
</data>
 </layer>
 <layer id="2" name="Tree" width="122" height="64">
  <data encoding="csv">
0,0,0,0,0,0,0,0,0,0,0,0,0,0,0,0,0,0,0,0,0,0,0,0,0,0,0,0,0,0,0,0,0,0,0,0,0,0,0,0,0,0,0,0,0,0,0,0,0,0,0,0,0,0,0,0,0,0,0,0,0,0,0,0,0,0,0,0,0,0,0,0,0,0,0,0,0,0,0,0,0,0,0,0,0,0,0,0,0,0,0,0,0,0,0,0,0,0,0,0,0,0,0,0,0,0,0,0,0,0,0,0,0,0,0,0,0,0,0,0,0,0,
0,0,0,0,0,0,0,0,0,0,0,0,0,0,0,0,0,0,0,0,0,0,0,0,0,0,0,0,0,0,0,0,0,0,0,0,0,0,0,0,0,0,0,0,0,0,0,0,0,0,0,3490,3491,3492,3493,3494,3495,3496,3497,3498,3499,3500,3501,3502,0,0,0,0,0,0,0,0,0,0,0,0,0,0,0,0,0,0,0,0,0,0,0,0,0,0,0,0,0,0,0,0,0,0,0,0,0,0,0,0,0,0,0,0,0,0,0,0,0,0,0,0,0,0,0,0,0,0,
0,0,0,0,0,0,0,0,0,0,0,0,0,0,0,0,0,0,0,0,0,0,0,0,0,0,0,0,0,0,0,0,0,0,0,0,0,0,0,0,0,0,0,0,0,0,0,0,0,0,0,3618,3619,3620,3621,3622,3623,3624,3625,3626,3627,3628,3629,3630,0,0,0,0,0,0,0,0,0,0,0,0,0,0,0,0,0,0,0,0,0,0,0,0,0,0,0,0,0,0,0,0,0,0,0,0,0,0,0,0,0,0,0,0,0,0,0,0,0,0,0,0,0,0,0,0,0,0,
0,0,0,0,0,0,0,0,0,0,0,0,0,0,0,0,0,0,0,0,0,0,0,0,0,0,0,0,0,0,0,0,0,0,0,0,0,0,0,0,0,0,0,0,0,0,0,0,0,0,0,3746,3747,3748,3749,3750,3751,3752,3753,3754,3755,3756,3757,3758,0,0,0,0,0,0,0,0,0,0,0,0,0,0,0,0,0,0,0,0,0,0,0,0,0,0,0,0,0,0,0,0,0,0,0,0,0,0,0,0,0,0,0,0,0,0,0,0,0,0,0,0,0,0,0,0,0,0,
0,0,0,0,0,0,0,0,0,0,0,0,0,0,0,0,0,0,0,0,0,0,0,0,0,0,0,0,0,0,0,0,0,0,0,0,0,0,0,0,0,0,0,0,0,0,0,0,0,0,0,3874,3875,3876,3877,3878,3879,3880,3881,3882,3883,3884,3885,3886,0,0,0,0,0,0,0,0,0,0,0,0,0,0,0,0,0,0,0,0,0,0,0,0,0,0,0,0,0,0,0,0,0,0,0,0,0,0,0,0,0,0,0,0,0,0,0,0,0,0,0,0,0,0,0,0,0,0,
0,0,0,0,0,0,0,0,0,0,0,0,0,0,0,0,0,0,0,0,0,0,0,0,0,0,0,0,0,0,0,0,0,0,0,0,0,0,0,0,0,0,0,0,0,0,0,0,0,0,0,4002,4003,4004,4005,4006,4007,4008,4009,4010,4011,4012,4013,4014,0,0,0,0,0,0,0,0,0,0,0,0,0,0,0,0,0,0,0,0,0,0,0,0,0,0,0,0,0,0,0,0,0,0,0,0,0,0,0,0,0,0,0,0,0,0,0,0,0,0,0,0,0,0,0,0,0,0,
0,0,0,0,0,0,0,0,0,0,0,0,0,0,0,0,0,0,0,0,0,0,0,0,0,0,0,0,0,0,0,0,0,0,0,0,0,0,0,0,0,0,0,0,0,0,0,0,0,0,0,4130,4131,4132,4133,4134,4135,4136,4137,4138,4139,4140,4141,4142,0,0,0,0,0,0,0,0,0,0,0,0,0,0,0,0,0,0,0,0,0,0,0,0,0,0,0,0,0,0,0,0,0,0,0,0,0,0,0,0,0,0,0,0,0,0,0,0,0,0,0,0,0,0,0,0,0,0,
0,0,0,0,0,0,0,0,0,0,0,0,0,0,0,0,0,0,0,0,0,0,0,0,0,0,0,0,0,0,0,0,0,0,0,0,0,0,0,0,0,0,0,0,0,0,0,0,0,0,0,4258,4259,4260,4261,4262,4263,4264,4265,4266,4267,4268,4269,4270,0,0,0,0,0,0,0,0,0,0,0,0,0,0,0,0,0,0,0,0,0,0,0,0,0,0,0,0,0,0,0,0,0,0,0,0,0,0,0,0,0,0,0,0,0,0,0,0,0,0,0,0,0,0,0,0,0,0,
0,0,0,0,0,0,0,0,0,0,0,0,0,0,0,0,0,0,0,0,0,0,0,0,0,0,0,0,0,0,0,0,0,0,0,0,0,0,0,0,0,0,0,0,0,0,0,0,0,0,0,4386,4387,4388,4389,4390,4391,4392,4393,4394,4395,4396,4397,4398,0,0,0,0,0,0,0,0,0,0,0,0,0,0,0,0,0,0,0,0,0,0,0,0,0,0,0,0,0,0,0,0,0,0,0,0,0,0,0,0,0,0,0,0,0,0,0,0,0,0,0,0,0,0,0,0,0,0,
0,0,0,0,0,0,0,0,0,0,0,0,0,0,0,0,0,0,0,0,0,0,0,0,0,0,0,0,0,0,0,0,0,0,0,0,0,0,0,0,0,0,0,0,0,0,0,0,0,0,0,4514,4515,4516,4517,4518,4519,4520,4521,4522,4523,4524,4525,4526,0,0,0,0,0,0,0,0,0,0,0,0,0,0,0,0,0,0,0,0,0,0,0,0,0,0,0,0,0,0,0,0,0,0,0,0,0,0,0,0,0,0,0,0,0,0,0,0,0,0,0,0,0,0,0,0,0,0,
0,0,0,0,0,0,0,0,0,0,0,0,0,0,0,0,0,0,0,0,0,0,0,0,0,0,0,0,0,0,0,0,0,0,0,0,0,0,0,0,0,0,0,0,0,0,0,0,0,0,0,4642,4643,4644,4645,4646,4647,4648,4649,4650,4651,4652,4653,4654,0,0,0,0,0,0,0,0,0,0,0,0,0,0,0,0,0,0,0,0,0,0,0,0,0,0,0,0,0,0,0,0,0,0,0,0,0,0,0,0,0,0,0,0,0,0,0,0,0,0,0,0,0,0,0,0,0,0,
0,0,0,0,0,0,0,0,0,0,0,0,0,0,0,0,0,0,0,0,0,0,0,0,0,0,0,0,0,0,0,0,0,0,0,0,0,0,0,0,0,0,0,0,0,0,0,0,0,0,0,4770,4771,4772,4773,4774,4775,4776,4777,4778,4779,4780,4781,4782,0,0,0,0,0,0,0,0,0,0,0,0,0,0,0,0,0,0,0,0,0,0,0,0,0,0,0,0,0,0,0,0,0,0,0,0,0,0,0,0,0,0,0,0,0,0,0,0,0,0,0,0,0,0,0,0,0,0,
0,0,0,0,0,0,0,0,0,0,0,0,0,0,0,0,0,0,0,0,0,0,0,0,0,0,0,0,0,0,0,0,0,0,0,0,0,0,0,0,0,0,0,0,0,0,0,0,0,0,0,4898,4899,4900,4901,4902,4903,4904,4905,4906,4907,4908,4909,4910,0,0,0,0,0,0,0,0,0,0,0,0,0,0,0,0,0,0,0,0,0,0,0,0,0,0,0,0,0,0,0,0,0,0,0,0,0,0,0,0,0,0,0,0,0,0,0,0,0,0,0,0,0,0,0,0,0,0,
0,0,0,0,0,0,0,0,0,0,0,0,0,0,0,0,0,0,0,0,0,0,0,0,0,0,0,0,0,0,0,0,0,0,0,0,0,0,0,0,0,0,0,0,0,0,0,0,0,0,0,5026,5027,5028,5029,5030,5031,5032,5033,5034,5035,5036,5037,5038,0,0,0,0,0,0,0,0,0,0,0,0,0,0,0,0,0,0,0,0,0,0,0,0,0,0,0,0,0,0,0,0,0,0,0,0,0,0,0,0,0,0,0,0,0,0,0,0,0,0,0,0,0,0,0,0,0,0,
0,0,0,0,0,0,0,0,0,0,0,0,0,0,0,0,0,0,0,0,0,0,0,0,0,0,0,0,0,0,0,0,0,0,0,0,0,0,0,0,0,0,0,0,0,0,0,0,0,0,0,5154,5155,5156,5157,5158,5159,5160,5161,5162,5163,5164,5165,5166,0,0,0,0,0,0,0,0,0,0,0,0,0,0,0,0,0,0,0,0,0,0,0,0,0,0,0,0,0,0,0,0,0,0,0,0,0,0,0,0,0,0,0,0,0,0,0,0,0,0,0,0,0,0,0,0,0,0,
0,0,0,0,0,0,0,0,0,0,0,0,0,0,0,0,0,0,0,0,0,0,0,0,0,0,0,0,0,0,0,0,0,0,0,0,0,0,0,0,0,0,0,0,0,0,0,0,0,0,0,5282,5283,5284,5285,5286,5287,5288,5289,5290,5291,5292,5293,5294,0,0,0,0,0,0,0,0,0,0,0,0,0,0,0,0,0,0,0,0,0,0,0,0,0,0,0,0,0,0,0,0,0,0,0,0,0,0,0,0,0,0,0,0,0,0,0,0,0,0,0,0,0,0,0,0,0,0,
0,0,0,0,0,0,0,0,0,0,0,0,0,0,0,0,0,0,0,0,0,0,0,0,0,0,0,0,0,0,0,0,0,0,0,0,0,0,0,0,0,0,0,0,0,0,0,0,0,0,0,5410,5411,5412,5413,5414,5415,5416,5417,5418,5419,5420,5421,5422,0,0,0,0,0,0,0,0,0,0,0,0,0,0,0,0,0,0,0,0,0,0,0,0,0,0,0,0,0,0,0,0,0,0,0,0,0,0,0,0,0,0,0,0,0,0,0,0,0,0,0,0,0,0,0,0,0,0,
0,0,0,0,0,0,0,0,0,0,0,0,0,0,0,0,0,0,0,0,0,0,0,0,0,0,0,0,0,0,0,0,0,0,0,0,0,0,0,0,0,0,0,0,0,0,0,0,0,0,0,0,0,0,0,0,0,0,0,0,0,0,0,0,0,0,0,0,0,0,0,0,0,0,0,0,0,0,0,0,0,0,0,0,0,0,0,0,0,0,0,0,0,0,0,0,0,0,0,0,0,0,0,0,0,0,0,0,0,0,0,0,0,0,0,0,0,0,0,0,0,0,
0,0,0,0,0,0,0,0,0,0,0,0,0,0,0,0,0,0,0,0,0,0,0,0,0,0,0,0,0,0,0,0,0,0,0,0,0,0,0,0,0,0,0,0,0,0,0,0,0,0,0,0,0,0,0,0,0,0,0,0,0,0,0,0,0,0,0,0,0,0,0,0,0,0,0,0,0,0,0,0,0,0,0,0,0,0,0,0,0,0,0,0,0,0,0,0,0,0,0,0,0,0,0,0,0,0,0,0,0,0,0,0,0,0,0,0,0,0,0,0,0,0,
0,0,0,0,0,0,0,0,0,0,0,0,0,0,0,0,0,0,0,0,0,0,0,0,0,0,0,0,0,0,0,0,0,0,0,0,0,0,0,0,0,0,0,0,0,0,0,0,0,0,0,0,0,0,0,0,0,0,0,0,0,0,0,0,0,0,0,0,0,0,0,0,0,0,0,0,0,0,0,0,0,0,0,0,0,0,0,0,0,0,0,0,0,0,0,0,0,0,0,0,0,0,0,0,0,0,0,0,0,0,0,0,0,0,0,0,0,0,0,0,0,0,
0,0,0,0,0,0,0,0,0,0,0,0,0,0,0,0,0,0,0,0,0,0,0,0,0,0,0,0,0,0,3490,3491,3492,3493,3494,3495,3496,3497,3498,3499,3500,3501,3502,0,0,0,0,0,0,0,0,0,0,0,0,0,0,0,0,0,0,0,0,0,0,0,0,0,0,0,0,0,0,0,0,0,0,3490,3491,3492,3493,3494,3495,3496,3497,3498,3499,3500,3501,3502,0,0,0,0,0,0,0,0,0,0,0,0,0,0,0,0,0,0,0,0,0,0,0,0,0,0,0,0,0,0,0,0,
0,0,0,0,0,0,0,0,0,0,0,0,0,0,0,0,0,0,0,0,0,0,0,0,0,0,0,0,0,0,3618,3619,3620,3621,3622,3623,3624,3625,3626,3627,3628,3629,3630,0,0,0,0,0,0,0,0,0,0,0,0,0,0,0,0,0,0,0,0,0,0,0,0,0,0,0,0,0,0,0,0,0,0,3618,3619,3620,3621,3622,3623,3624,3625,3626,3627,3628,3629,3630,0,0,0,0,0,0,0,0,0,0,0,0,0,0,0,0,0,0,0,0,0,0,0,0,0,0,0,0,0,0,0,0,
0,0,0,0,0,0,0,0,0,0,0,0,0,0,0,0,0,0,0,0,0,0,0,0,0,0,0,0,0,0,3746,3747,3748,3749,3750,3751,3752,3753,3754,3755,3756,3757,3758,0,0,0,0,0,0,0,0,0,0,0,0,0,0,0,0,0,0,0,0,0,0,0,0,0,0,0,0,0,0,0,0,0,0,3746,3747,3748,3749,3750,3751,3752,3753,3754,3755,3756,3757,3758,0,0,0,0,0,0,0,0,0,0,0,0,0,0,0,0,0,0,0,0,0,0,0,0,0,0,0,0,0,0,0,0,
0,0,0,0,0,0,0,0,0,0,0,0,0,0,0,0,0,0,0,0,0,0,0,0,0,0,0,0,0,0,3874,3875,3876,3877,3878,3879,3880,3881,3882,3883,3884,3885,3886,0,0,0,0,0,0,0,0,0,0,0,0,0,0,0,0,0,0,0,0,0,0,0,0,0,0,0,0,0,0,0,0,0,0,3874,3875,3876,3877,3878,3879,3880,3881,3882,3883,3884,3885,3886,0,0,0,0,0,0,0,0,0,0,0,0,0,0,0,0,0,0,0,0,0,0,0,0,0,0,0,0,0,0,0,0,
0,0,0,0,0,0,0,0,0,0,0,0,0,0,0,0,0,0,0,0,0,0,0,0,0,0,0,0,0,0,4002,4003,4004,4005,4006,4007,4008,4009,4010,4011,4012,4013,4014,0,0,0,0,0,0,0,0,0,0,0,0,0,0,0,0,0,0,0,0,0,0,0,0,0,0,0,0,0,0,0,0,0,0,4002,4003,4004,4005,4006,4007,4008,4009,4010,4011,4012,4013,4014,0,0,0,0,0,0,0,0,0,0,0,0,0,0,0,0,0,0,0,0,0,0,0,0,0,0,0,0,0,0,0,0,
0,0,0,0,0,0,0,0,0,0,0,0,0,0,0,0,0,0,0,0,0,0,0,0,0,0,0,0,0,0,4130,4131,4132,4133,4134,4135,4136,4137,4138,4139,4140,4141,4142,0,0,0,0,0,0,0,0,0,0,0,0,0,0,0,0,0,0,0,0,0,0,0,0,0,0,0,0,0,0,0,0,0,0,4130,4131,4132,4133,4134,4135,4136,4137,4138,4139,4140,4141,4142,0,0,0,0,0,0,0,0,0,0,0,0,0,0,0,0,0,0,0,0,0,0,0,0,0,0,0,0,0,0,0,0,
0,0,0,0,0,0,0,0,0,0,0,0,0,0,0,0,0,0,0,0,0,0,0,0,0,0,0,0,0,0,4258,4259,4260,4261,4262,4263,4264,4265,4266,4267,4268,4269,4270,0,0,0,0,0,0,0,0,0,0,0,0,0,0,0,0,0,0,0,0,0,0,0,0,0,0,0,0,0,0,0,0,0,0,4258,4259,4260,4261,4262,4263,4264,4265,4266,4267,4268,4269,4270,0,0,0,0,0,0,0,0,0,0,0,0,0,0,0,0,0,0,0,0,0,0,0,0,0,0,0,0,0,0,0,0,
0,0,0,0,0,0,0,0,0,0,0,0,0,0,0,0,0,0,0,0,0,0,0,0,0,0,0,0,0,0,4386,4387,4388,4389,4390,4391,4392,4393,4394,4395,4396,4397,4398,0,0,0,0,0,0,0,0,0,0,0,0,0,0,0,0,0,0,0,0,0,0,0,0,0,0,0,0,0,0,0,0,0,0,4386,4387,4388,4389,4390,4391,4392,4393,4394,4395,4396,4397,4398,0,0,0,0,0,0,0,0,0,0,0,0,0,0,0,0,0,0,0,0,0,0,0,0,0,0,0,0,0,0,0,0,
0,0,0,0,0,0,0,0,0,0,0,0,0,0,0,0,0,0,0,0,0,0,0,0,0,0,0,0,0,0,4514,4515,4516,4517,4518,4519,4520,4521,4522,4523,4524,4525,4526,0,0,0,0,0,0,0,0,0,0,0,0,0,0,0,0,0,0,0,0,0,0,0,0,0,0,0,0,0,0,0,0,0,0,4514,4515,4516,4517,4518,4519,4520,4521,4522,4523,4524,4525,4526,0,0,0,0,0,0,0,0,0,0,0,0,0,0,0,0,0,0,0,0,0,0,0,0,0,0,0,0,0,0,0,0,
0,0,0,0,0,0,0,0,0,0,0,0,0,0,0,0,0,0,0,0,0,0,0,0,0,0,0,0,0,0,4642,4643,4644,4645,4646,4647,4648,4649,4650,4651,4652,4653,4654,0,0,0,0,0,0,0,0,0,0,0,0,0,0,0,0,0,0,0,0,0,0,0,0,0,0,0,0,0,0,0,0,0,0,4642,4643,4644,4645,4646,4647,4648,4649,4650,4651,4652,4653,4654,0,0,0,0,0,0,0,0,0,0,0,0,0,0,0,0,0,0,0,0,0,0,0,0,0,0,0,0,0,0,0,0,
0,0,0,0,0,0,0,0,0,0,0,0,0,0,0,0,0,0,0,0,0,0,0,0,0,0,0,0,0,0,4770,4771,4772,4773,4774,4775,4776,4777,4778,4779,4780,4781,4782,0,0,0,0,0,0,0,0,0,0,0,0,0,0,0,0,0,0,0,0,0,0,0,0,0,0,0,0,0,0,0,0,0,0,4770,4771,4772,4773,4774,4775,4776,4777,4778,4779,4780,4781,4782,0,0,0,0,0,0,0,0,0,0,0,0,0,0,0,0,0,0,0,0,0,0,0,0,0,0,0,0,0,0,0,0,
0,0,0,0,0,0,0,0,0,0,0,0,0,0,0,0,0,0,0,0,0,0,0,0,0,0,0,0,0,0,4898,4899,4900,4901,4902,4903,4904,4905,4906,4907,4908,4909,4910,0,0,0,0,0,0,0,0,0,0,0,0,0,0,0,0,0,0,0,0,0,0,0,0,0,0,0,0,0,0,0,0,0,0,4898,4899,4900,4901,4902,4903,4904,4905,4906,4907,4908,4909,4910,0,0,0,0,0,0,0,0,0,0,0,0,0,0,0,0,0,0,0,0,0,0,0,0,0,0,0,0,0,0,0,0,
0,0,0,0,0,0,0,0,0,0,0,0,0,0,0,0,0,0,0,0,0,0,0,0,0,0,0,0,0,0,5026,5027,5028,5029,5030,5031,5032,5033,5034,5035,5036,5037,5038,0,0,0,0,0,0,0,0,0,0,0,0,0,0,0,0,0,0,0,0,0,0,0,0,0,0,0,0,0,0,0,0,0,0,5026,5027,5028,5029,5030,5031,5032,5033,5034,5035,5036,5037,5038,0,0,0,0,0,0,0,0,0,0,0,0,0,0,0,0,0,0,0,0,0,0,0,0,0,0,0,0,0,0,0,0,
0,0,0,0,0,0,0,0,0,0,0,0,0,0,0,0,0,0,0,0,0,0,0,0,0,0,0,0,0,0,5154,5155,5156,5157,5158,5159,5160,5161,5162,5163,5164,5165,5166,0,0,0,0,0,0,0,0,0,0,0,0,0,0,0,0,0,0,0,0,0,0,0,0,0,0,0,0,0,0,0,0,0,0,5154,5155,5156,5157,5158,5159,5160,5161,5162,5163,5164,5165,5166,0,0,0,0,0,0,0,0,0,0,0,0,0,0,0,0,0,0,0,0,0,0,0,0,0,0,0,0,0,0,0,0,
0,0,0,0,0,0,0,0,0,0,0,0,0,0,0,0,0,0,0,0,0,0,0,0,0,0,0,0,0,0,5282,5283,5284,5285,5286,5287,5288,5289,5290,5291,5292,5293,5294,0,0,0,0,0,0,0,0,0,0,0,0,0,0,0,0,0,0,0,0,0,0,0,0,0,0,0,0,0,0,0,0,0,0,5282,5283,5284,5285,5286,5287,5288,5289,5290,5291,5292,5293,5294,0,0,0,0,0,0,0,0,0,0,0,0,0,0,0,0,0,0,0,0,0,0,0,0,0,0,0,0,0,0,0,0,
0,0,0,0,0,0,0,0,0,0,0,0,0,0,0,0,0,0,0,0,0,0,0,0,0,0,0,0,0,0,5410,5411,5412,5413,5414,5415,5416,5417,5418,5419,5420,5421,5422,0,0,0,0,0,0,0,0,0,0,0,0,0,0,0,0,0,0,0,0,0,0,0,0,0,0,0,0,0,0,0,0,0,0,5410,5411,5412,5413,5414,5415,5416,5417,5418,5419,5420,5421,5422,0,0,0,0,0,0,0,0,0,0,0,0,0,0,0,0,0,0,0,0,0,0,0,0,0,0,0,0,0,0,0,0,
0,0,0,0,0,0,0,0,0,0,0,0,0,0,0,0,0,0,0,0,0,0,0,0,0,0,0,0,0,0,0,0,0,0,0,0,0,0,0,0,0,0,0,0,0,0,0,0,0,0,0,0,0,0,0,0,0,0,0,0,0,0,0,0,0,0,0,0,0,0,0,0,0,0,0,0,0,0,0,0,0,0,0,0,0,0,0,0,0,0,0,0,0,0,0,0,0,0,0,0,0,0,0,0,0,0,0,0,0,0,0,0,0,0,0,0,0,0,0,0,0,0,
0,0,0,0,0,0,0,0,0,0,0,0,0,0,0,0,0,0,0,0,0,0,0,0,0,0,0,0,0,0,0,0,0,0,0,0,0,0,0,0,0,0,0,0,0,0,0,0,0,0,0,0,0,0,0,0,0,0,0,0,0,0,0,0,0,0,0,0,0,0,0,0,0,0,0,0,0,0,0,0,0,0,0,0,0,0,0,0,0,0,0,0,0,0,0,0,0,0,0,0,0,0,0,0,0,0,0,0,0,0,0,0,0,0,0,0,0,0,0,0,0,0,
0,0,0,0,0,0,0,0,0,0,0,0,0,0,0,0,0,0,0,0,0,0,0,0,0,0,0,0,0,0,0,0,0,0,0,0,0,0,0,0,0,0,0,0,0,0,0,0,0,0,0,0,0,0,0,0,0,0,0,0,0,0,0,0,0,0,0,0,0,0,0,0,0,0,0,0,0,0,0,0,0,0,0,0,0,0,0,0,0,0,0,0,0,0,0,0,0,0,0,0,0,0,0,0,0,0,0,0,0,0,0,0,0,0,0,0,0,0,0,0,0,0,
0,0,0,0,0,0,0,0,0,0,0,0,0,0,0,0,0,0,0,0,0,0,0,0,0,0,0,0,0,0,0,0,0,0,0,0,0,0,0,0,0,0,0,0,0,0,0,0,0,0,0,0,0,0,0,0,0,0,0,0,0,0,0,0,0,0,0,0,0,0,0,0,0,0,0,0,0,0,0,0,0,0,0,0,0,0,0,0,0,0,0,0,0,0,0,0,0,0,0,0,0,0,0,0,0,0,0,0,0,0,0,0,0,0,0,0,0,0,0,0,0,0,
0,0,0,0,0,0,0,0,0,0,0,0,0,0,0,0,0,0,0,0,0,0,0,0,0,0,0,0,0,0,0,0,0,0,0,0,0,0,0,0,0,0,0,0,0,0,0,0,0,0,0,0,0,0,0,0,0,0,0,0,0,0,0,0,0,0,0,0,0,0,0,0,0,0,0,0,0,0,0,0,0,0,0,0,0,0,0,0,0,0,0,0,0,0,0,0,0,0,0,0,0,0,0,0,0,0,0,0,0,0,0,0,0,0,0,0,0,0,0,0,0,0,
0,0,0,0,0,0,0,0,0,0,0,0,0,0,0,0,0,0,0,0,0,0,0,0,0,0,0,0,0,0,0,0,0,0,0,0,0,0,0,0,0,0,0,0,0,0,0,0,0,0,0,0,0,0,0,0,0,0,0,0,0,0,0,0,0,0,0,0,0,0,0,0,0,0,0,0,0,0,0,0,0,0,0,0,0,0,0,0,0,0,0,0,0,0,0,0,0,0,0,0,0,0,0,0,0,0,0,0,0,0,0,0,0,0,0,0,0,0,0,0,0,0,
0,0,0,0,0,0,0,0,0,0,0,0,0,0,0,0,0,0,0,0,0,0,0,0,0,0,0,0,0,0,0,0,0,0,0,0,0,0,0,0,0,0,0,0,0,0,0,0,0,0,0,0,0,0,0,0,0,0,0,0,0,0,0,0,0,0,0,0,0,0,0,0,0,0,0,0,0,0,0,0,0,0,0,0,0,0,0,0,0,0,0,0,0,0,0,0,0,0,0,0,0,0,0,0,0,0,0,0,0,0,0,0,0,0,0,0,0,0,0,0,0,0,
0,0,0,0,0,0,0,0,0,0,0,0,0,0,0,0,0,0,0,0,0,0,0,0,0,0,0,0,0,0,0,0,0,0,0,0,0,0,0,0,0,0,0,0,0,0,0,0,0,0,0,0,0,0,0,0,0,0,0,0,0,0,0,0,0,0,0,0,0,0,0,0,0,0,0,0,0,0,0,0,0,0,0,0,0,0,0,0,0,0,0,0,0,0,0,0,0,0,0,0,0,0,0,0,0,0,0,0,0,0,0,0,0,0,0,0,0,0,0,0,0,0,
0,0,0,0,0,0,0,0,0,0,0,0,0,0,0,0,0,0,0,0,0,0,0,0,0,0,0,0,0,0,0,0,0,0,0,0,0,0,0,0,0,0,0,0,0,0,0,0,0,0,0,0,0,0,0,0,0,0,0,0,0,0,0,0,0,0,0,0,0,0,0,0,0,0,0,0,0,0,0,0,0,0,0,0,0,0,0,0,0,0,0,0,0,0,0,0,0,0,0,0,0,0,0,0,0,0,0,0,0,0,0,0,0,0,0,0,0,0,0,0,0,0,
0,0,0,0,0,0,0,0,0,0,0,0,0,0,0,0,0,0,0,0,0,0,0,0,0,0,0,0,0,0,0,0,0,0,0,0,0,0,0,0,0,0,0,0,0,0,0,0,0,0,0,0,0,0,0,0,0,0,0,0,0,0,0,0,0,0,0,0,0,0,0,0,0,0,0,0,0,0,0,0,0,0,0,0,0,0,0,0,0,0,0,0,0,0,0,0,0,0,0,0,0,0,0,0,0,0,0,0,0,0,0,0,0,0,0,0,0,0,0,0,0,0,
0,0,0,0,0,0,0,0,0,0,0,0,0,0,0,0,0,0,0,0,0,0,0,0,0,0,0,0,0,0,0,0,0,0,0,0,0,0,0,0,0,0,0,0,0,0,0,0,0,0,0,0,0,0,0,0,0,0,0,0,0,0,0,0,0,0,0,0,0,0,0,0,0,0,0,0,0,0,0,0,0,0,0,0,0,0,0,0,0,0,0,0,0,0,0,0,0,0,0,0,0,0,0,0,0,0,0,0,0,0,0,0,0,0,0,0,0,0,0,0,0,0,
0,0,0,0,0,0,0,0,0,0,0,0,0,0,0,0,0,0,0,0,0,0,0,0,0,0,0,0,0,0,0,0,0,0,0,0,0,0,0,0,0,0,0,0,0,0,0,0,0,0,0,0,0,0,0,0,0,0,0,0,0,0,0,0,0,0,0,0,0,0,0,0,0,0,0,0,0,0,0,0,0,0,0,0,0,0,0,0,0,0,0,0,0,0,0,0,0,0,0,0,0,0,0,0,0,0,0,0,0,0,0,0,0,0,0,0,0,0,0,0,0,0,
0,0,0,0,0,0,0,0,0,0,0,0,0,0,0,0,0,0,0,0,0,0,0,0,0,0,0,0,0,0,0,0,0,0,0,0,0,0,0,0,0,0,0,0,0,0,0,0,0,0,0,0,0,0,0,0,0,0,0,0,0,0,0,0,0,0,0,0,0,0,0,0,0,0,0,0,0,0,0,0,0,0,0,0,0,0,0,0,0,0,0,0,0,0,0,0,0,0,0,0,0,0,0,0,0,0,0,0,0,0,0,0,0,0,0,0,0,0,0,0,0,0,
0,0,0,0,0,0,0,0,0,0,0,0,0,0,0,0,0,0,0,0,0,0,0,0,0,0,0,0,0,0,0,0,0,0,0,0,0,0,0,0,0,0,0,0,0,0,0,0,0,0,0,0,0,0,0,0,0,0,0,0,0,0,0,0,0,0,0,0,0,0,0,0,0,0,0,0,0,0,0,0,0,0,0,0,0,0,0,0,0,0,0,0,0,0,0,0,0,0,0,0,0,0,0,0,0,0,0,0,0,0,0,0,0,0,0,0,0,0,0,0,0,0,
0,0,0,0,0,0,0,0,0,0,0,0,0,0,0,0,0,0,0,0,0,0,0,0,0,0,0,0,0,0,0,0,0,0,0,0,0,0,0,0,0,0,0,0,0,0,0,0,0,0,0,0,0,0,0,0,0,0,0,0,0,0,0,0,0,0,0,0,0,0,0,0,0,0,0,0,0,0,0,0,0,0,0,0,0,0,0,0,0,0,0,0,0,0,0,0,0,0,0,0,0,0,0,0,0,0,0,0,0,0,0,0,0,0,0,0,0,0,0,0,0,0,
0,0,0,0,0,0,0,0,0,0,0,0,0,0,0,0,0,0,0,0,0,0,0,0,0,0,0,0,0,0,0,0,0,0,0,0,0,0,0,0,0,0,0,0,0,0,0,0,0,0,0,0,0,0,0,0,0,0,0,0,0,0,0,0,0,0,0,0,0,0,0,0,0,0,0,0,0,0,0,0,0,0,0,0,0,0,0,0,0,0,0,0,0,0,0,0,0,0,0,0,0,0,0,0,0,0,0,0,0,0,0,0,0,0,0,0,0,0,0,0,0,0,
0,0,0,0,0,0,0,0,0,0,0,0,0,0,0,0,0,0,0,0,0,0,0,0,0,0,0,0,0,0,0,0,0,0,0,0,0,0,0,0,0,0,0,0,0,0,0,0,0,0,0,0,0,0,0,0,0,0,0,0,0,0,0,0,0,0,0,0,0,0,0,0,0,0,0,0,0,0,0,0,0,0,0,0,0,0,0,0,0,0,0,0,0,0,0,0,0,0,0,0,0,0,0,0,0,0,0,0,0,0,0,0,0,0,0,0,0,0,0,0,0,0,
0,0,0,0,0,0,0,0,0,0,0,0,0,0,0,0,0,0,0,0,0,0,0,0,0,0,0,0,0,0,0,0,0,0,0,0,0,0,0,0,0,0,0,0,0,0,0,0,0,0,0,0,0,0,0,0,0,0,0,0,0,0,0,0,0,0,0,0,0,0,0,0,0,0,0,0,0,0,0,0,0,0,0,0,0,0,0,0,0,0,0,0,0,0,0,0,0,0,0,0,0,0,0,0,0,0,0,0,0,0,0,0,0,0,0,0,0,0,0,0,0,0,
0,0,0,0,0,0,0,0,0,0,0,0,0,0,0,0,0,0,0,0,0,0,0,0,0,0,0,0,0,0,0,0,0,0,0,0,0,0,0,0,0,0,0,0,0,0,0,0,0,0,0,0,0,0,0,0,0,0,0,0,0,0,0,0,0,0,0,0,0,0,0,0,0,0,0,0,0,0,0,0,0,0,0,0,0,0,0,0,0,0,0,0,0,0,0,0,0,0,0,0,0,0,0,0,0,0,0,0,0,0,0,0,0,0,0,0,0,0,0,0,0,0,
0,0,0,0,0,0,0,0,0,0,0,0,0,0,0,0,0,0,0,0,0,0,0,0,0,0,0,0,0,0,0,0,0,0,0,0,0,0,0,0,0,0,0,0,0,0,0,0,0,0,0,0,0,0,0,0,0,0,0,0,0,0,0,0,0,0,0,0,0,0,0,0,0,0,0,0,0,0,0,0,0,0,0,0,0,0,0,0,0,0,0,0,0,0,0,0,0,0,0,0,0,0,0,0,0,0,0,0,0,0,0,0,0,0,0,0,0,0,0,0,0,0,
0,0,0,0,0,0,0,0,0,0,0,0,0,0,0,0,0,0,0,0,0,0,0,0,0,0,0,0,0,0,0,0,0,0,0,0,0,0,0,0,0,0,0,0,0,0,0,0,0,0,0,0,0,0,0,0,0,0,0,0,0,0,0,0,0,0,0,0,0,0,0,0,0,0,0,0,0,0,0,0,0,0,0,0,0,0,0,0,0,0,0,0,0,0,0,0,0,0,0,0,0,0,0,0,0,0,0,0,0,0,0,0,0,0,0,0,0,0,0,0,0,0,
0,0,0,0,0,0,0,0,0,0,0,0,0,0,0,0,0,0,0,0,0,0,0,0,0,0,0,0,0,0,0,0,0,0,0,0,0,0,0,0,0,0,0,0,0,0,0,0,0,0,0,0,0,0,0,0,0,0,0,0,0,0,0,0,0,0,0,0,0,0,0,0,0,0,0,0,0,0,0,0,0,0,0,0,0,0,0,0,0,0,0,0,0,0,0,0,0,0,0,0,0,0,0,0,0,0,0,0,0,0,0,0,0,0,0,0,0,0,0,0,0,0,
0,0,0,0,0,0,0,0,0,0,0,0,0,0,0,0,0,0,0,0,0,0,0,0,0,0,0,0,0,0,0,0,0,0,0,0,0,0,0,0,0,0,0,0,0,0,0,0,0,0,0,0,0,0,0,0,0,0,0,0,0,0,0,0,0,0,0,0,0,0,0,0,0,0,0,0,0,0,0,0,0,0,0,0,0,0,0,0,0,0,0,0,0,0,0,0,0,0,0,0,0,0,0,0,0,0,0,0,0,0,0,0,0,0,0,0,0,0,0,0,0,0,
0,0,0,0,0,0,0,0,0,0,0,0,0,0,0,0,0,0,0,0,0,0,0,0,0,0,0,0,0,0,0,0,0,0,0,0,0,0,0,0,0,0,0,0,0,0,0,0,0,0,0,0,0,0,0,0,0,0,0,0,0,0,0,0,0,0,0,0,0,0,0,0,0,0,0,0,0,0,0,0,0,0,0,0,0,0,0,0,0,0,0,0,0,0,0,0,0,0,0,0,0,0,0,0,0,0,0,0,0,0,0,0,0,0,0,0,0,0,0,0,0,0,
0,0,0,0,0,0,0,0,0,0,0,0,0,0,0,0,0,0,0,0,0,0,0,0,0,0,0,0,0,0,0,0,0,0,0,0,0,0,0,0,0,0,0,0,0,0,0,0,0,0,0,0,0,0,0,0,0,0,0,0,0,0,0,0,0,0,0,0,0,0,0,0,0,0,0,0,0,0,0,0,0,0,0,0,0,0,0,0,0,0,0,0,0,0,0,0,0,0,0,0,0,0,0,0,0,0,0,0,0,0,0,0,0,0,0,0,0,0,0,0,0,0,
0,0,0,0,0,0,0,0,0,0,0,0,0,0,0,0,0,0,0,0,0,0,0,0,0,0,0,0,0,0,0,0,0,0,0,0,0,0,0,0,0,0,0,0,0,0,0,0,0,0,0,0,0,0,0,0,0,0,0,0,0,0,0,0,0,0,0,0,0,0,0,0,0,0,0,0,0,0,0,0,0,0,0,0,0,0,0,0,0,0,0,0,0,0,0,0,0,0,0,0,0,0,0,0,0,0,0,0,0,0,0,0,0,0,0,0,0,0,0,0,0,0,
0,0,0,0,0,0,0,0,0,0,0,0,0,0,0,0,0,0,0,0,0,0,0,0,0,0,0,0,0,0,0,0,0,0,0,0,0,0,0,0,0,0,0,0,0,0,0,0,0,0,0,0,0,0,0,0,0,0,0,0,0,0,0,0,0,0,0,0,0,0,0,0,0,0,0,0,0,0,0,0,0,0,0,0,0,0,0,0,0,0,0,0,0,0,0,0,0,0,0,0,0,0,0,0,0,0,0,0,0,0,0,0,0,0,0,0,0,0,0,0,0,0,
0,0,0,0,0,0,0,0,0,0,0,0,0,0,0,0,0,0,0,0,0,0,0,0,0,0,0,0,0,0,0,0,0,0,0,0,0,0,0,0,0,0,0,0,0,0,0,0,0,0,0,0,0,0,0,0,0,0,0,0,0,0,0,0,0,0,0,0,0,0,0,0,0,0,0,0,0,0,0,0,0,0,0,0,0,0,0,0,0,0,0,0,0,0,0,0,0,0,0,0,0,0,0,0,0,0,0,0,0,0,0,0,0,0,0,0,0,0,0,0,0,0
</data>
 </layer>
 <objectgroup id="3" name="collision">
  <object id="1" x="2292" y="1816">
   <polygon points="0,0 -46,194 -86,196 -104,220 -94,224 -62,220 -82,262 -32,300 16,268 34,310 150,300 180,270 160,226 216,212 108,106 96,-6"/>
  </object>
  <object id="2" x="3634" y="602">
   <polygon points="0,0 -46,194 -86,196 -104,220 -94,224 -62,220 -82,262 -32,300 16,268 34,310 150,300 180,270 160,226 216,212 108,106 96,-6"/>
  </object>
  <object id="3" x="5302" y="1820.67">
   <polygon points="0,0 -46,194 -86,196 -104,220 -94,224 -62,220 -82,262 -32,300 16,268 34,310 150,300 180,270 160,226 216,212 108,106 96,-6"/>
  </object>
 </objectgroup>
</map>
