<?xml version="1.0" encoding="UTF-8"?>
<map version="1.10" tiledversion="1.12.2" orientation="orthogonal" renderorder="right-down" width="200" height="112" tilewidth="32" tileheight="32" infinite="0" nextlayerid="8" nextobjectid="13">
 <tileset firstgid="1" source="MasterDetail_Iso_Sheet4of4.tsx"/>
 <layer id="1" name="Tile Layer 1" width="200" height="112">
  <data encoding="csv">
49503,49502,49503,49502,49503,49502,49503,49502,49503,49502,49503,49502,49503,49502,49503,49502,49503,49502,49503,49502,49503,49502,49503,49502,49503,49502,49503,49502,49503,49502,49503,49502,49503,49502,49503,49502,49503,49502,49503,49502,49503,49502,49503,49502,49503,49502,49503,49502,49503,49502,49503,49502,49503,49502,49503,49502,49503,49502,49503,49502,49503,49502,49503,49502,49503,49502,49503,49502,49503,49502,49503,49502,49503,49502,49503,49502,49503,49502,49503,49502,49503,49502,49503,49502,49503,49502,49503,49502,49503,49502,49503,49502,49503,49502,49503,49502,49503,49502,49503,49502,49503,49502,49503,49502,49503,49502,49503,49502,49503,49502,49503,49502,49503,49502,49503,49502,49503,49502,49503,49502,49503,49502,49503,49502,49503,49502,49503,49502,49503,49502,49503,49502,49503,49502,49503,49502,49503,49502,49503,49502,49503,49502,49503,49502,49503,49502,49503,49502,49503,49502,49503,49502,49503,49502,49503,49502,49503,49502,49503,49502,49503,49502,49503,49502,49503,49502,49503,49502,49503,49502,49503,49502,49503,49502,49503,49502,49503,49502,49503,49502,49503,49502,49503,49502,49503,49502,49503,49502,49503,49502,49503,49502,49503,49502,49503,49502,49503,49502,49503,49502,
49759,49758,49759,49758,49759,49758,49759,49758,49759,49758,49759,49758,49759,49758,49759,49758,49759,49758,49759,49758,49759,49758,49759,49758,49759,49758,49759,49758,49759,49758,49759,49758,49759,49758,49759,49758,49759,49758,49759,49758,49759,49758,49759,49758,49759,49758,49759,49758,49759,49758,49759,49758,49759,49758,49759,49758,49759,49758,49759,49758,49759,49758,49759,49758,49759,49758,49759,49758,49759,49758,49759,49758,49759,49758,49759,49758,49759,49758,49759,49758,49759,49758,49759,49758,49759,49758,49759,49758,49759,49758,49759,49758,49759,49758,49759,49758,49759,49758,49759,49758,49759,49758,49759,49758,49759,49758,49759,49758,49759,49758,49759,49758,49759,49758,49759,49758,49759,49758,49759,49758,49759,49758,49759,49758,49759,49758,49759,49758,49759,49758,49759,49758,49759,49758,49759,49758,49759,49758,49759,49758,49759,49758,49759,49758,49759,49758,49759,49758,49759,49758,49759,49758,49759,49758,49759,49758,49759,49758,49759,49758,49759,49758,49759,49758,49759,49758,49759,49758,49759,49758,49759,49758,49759,49758,49759,49758,49759,49758,49759,49758,49759,49758,49759,49758,49759,49758,49759,49758,49759,49758,49759,49758,49759,49758,49759,49758,49759,49758,49759,49758,
49503,49502,49503,49502,49503,49502,49503,49502,49503,49502,49503,49502,49503,49502,49503,49502,49503,49502,49503,49502,49503,49502,49503,49502,49503,49502,49503,49502,49503,49502,49503,49502,49503,49502,49503,49502,49503,49502,49503,49502,49503,49502,49503,49502,49503,49502,49503,49502,49503,49502,49503,49502,49503,49502,49503,49502,49503,49502,49503,49502,49503,49502,49503,49502,49503,49502,49503,49502,49503,49502,49503,49502,49503,49502,49503,49502,49503,49502,49503,49502,49503,49502,49503,49502,49503,49502,49503,49502,49503,49502,49503,49502,49503,49502,49503,49502,49503,49502,49503,49502,49503,49502,49503,49502,49503,49502,49503,49502,49503,49502,49503,49502,49503,49502,49503,49502,49503,49502,49503,49502,49503,49502,49503,49502,49503,49502,49503,49502,49503,49502,49503,49502,49503,49502,49503,49502,49503,49502,49503,49502,49503,49502,49503,49502,49503,49502,49503,49502,49503,49502,49503,49502,49503,49502,49503,49502,49503,49502,49503,49502,49503,49502,49503,49502,49503,49502,49503,49502,49503,49502,49503,49502,49503,49502,49503,49502,49503,49502,49503,49502,49503,49502,49503,49502,49503,49502,49503,49502,49503,49502,49503,49502,49503,49502,49503,49502,49503,49502,49503,49502,
49759,49758,49759,49758,49759,49758,49759,49758,49759,49758,49759,49758,49759,49758,49759,49758,49759,49758,49759,49758,49759,49758,49759,49758,49759,49758,49759,49758,49759,49758,49759,49758,49759,49758,49759,49758,49759,49758,49759,49758,49759,49758,49759,49758,49759,49758,49759,49758,49759,49758,49759,49758,49759,49758,49759,49758,49759,49758,49759,49758,49759,49758,49759,49758,49759,49758,49759,49758,49759,49758,49759,49758,49759,49758,49759,49758,49759,49758,49759,49758,49759,49758,49759,49758,49759,49758,49759,49758,49759,49758,49759,49758,49759,49758,49759,49758,49759,49758,49759,49758,49759,49758,49759,49758,49759,49758,49759,49758,49759,49758,49759,49758,49759,49758,49759,49758,49759,49758,49759,49758,49759,49758,49759,49758,49759,49758,49759,49758,49759,49758,49759,49758,49759,49758,49759,49758,49759,49758,49759,49758,49759,49758,49759,49758,49759,49758,49759,49758,49759,49758,49759,49758,49759,49758,49759,49758,49759,49758,49759,49758,49759,49758,49759,49758,49759,49758,49759,49758,49759,49758,49759,49758,49759,49758,49759,49758,49759,49758,49759,49758,49759,49758,49759,49758,49759,49758,49759,49758,49759,49758,49759,49758,49759,49758,49759,49758,49759,49758,49759,49758,
49503,49502,49503,49502,49503,49502,49503,49502,49503,49502,49503,49502,49503,49502,49503,49502,49503,49502,49503,49502,49503,49502,49503,49502,49503,49502,49503,49502,49503,49502,49503,49502,49503,49502,49503,49502,49503,49502,49503,49502,49503,49502,49503,49502,49503,49502,49503,49502,49503,49502,49503,49502,49503,49502,49503,49502,49503,49502,49503,49502,49503,49502,49503,49502,49503,49502,49503,49502,49503,49502,49503,49502,49503,49502,49503,49502,49503,49502,49503,49502,49503,49502,49503,49502,49503,49502,49503,49502,49503,49502,49503,49502,49503,49502,49503,49502,49503,49502,49503,49502,49503,49502,49503,49502,49503,49502,49503,49502,49503,49502,49503,49502,49503,49502,49503,49502,49503,49502,49503,49502,49503,49502,49503,49502,49503,49502,49503,49502,49503,49502,49503,49502,49503,49502,49503,49502,49503,49502,49503,49502,49503,49502,49503,49502,49503,49502,49503,49502,49503,49502,49503,49502,49503,49502,49503,49502,49503,49502,49503,49502,49503,49502,49503,49502,49503,49502,49503,49502,49503,49502,49503,49502,49503,49502,49503,49502,49503,49502,49503,49502,49503,49502,49503,49502,49503,49502,49503,49502,49503,49502,49503,49502,49503,49502,49503,49502,49503,49502,49503,49502,
49759,49758,49759,49758,49759,49758,49759,49758,49759,49758,49759,49758,49759,49758,49759,49758,49759,49758,49759,49758,49759,49758,49759,49758,49759,49758,49759,49758,49759,49758,49759,49758,49759,49758,49759,49758,49759,49758,49759,49758,49759,49758,49759,49758,49759,49758,49759,49758,49759,49758,49759,49758,49759,49758,49759,49758,49759,49758,49759,49758,49759,49758,49759,49758,49759,49758,49759,49758,49759,49758,49759,49758,49759,49758,49759,49758,49759,49758,49759,49758,49759,49758,49759,49758,49759,49758,49759,49758,49759,49758,49759,49758,49759,49758,49759,49758,49759,49758,49759,49758,49759,49758,49759,49758,49759,49758,49759,49758,49759,49758,49759,49758,49759,49758,49759,49758,49759,49758,49759,49758,49759,49758,49759,49758,49759,49758,49759,49758,49759,49758,49759,49758,49759,49758,49759,49758,49759,49758,49759,49758,49759,49758,49759,49758,49759,49758,49759,49758,49759,49758,49759,49758,49759,49758,49759,49758,49759,49758,49759,49758,49759,49758,49759,49758,49759,49758,49759,49758,49759,49758,49759,49758,49759,49758,49759,49758,49759,49758,49759,49758,49759,49758,49759,49758,49759,49758,49759,49758,49759,49758,49759,49758,49759,49758,49759,49758,49759,49758,49759,49758,
49503,49502,49503,49502,49503,49502,49503,49502,49503,49502,49503,49502,49503,49502,49503,49502,49503,49502,49503,49502,49503,49502,49503,49502,49503,49502,49503,49502,49503,49502,49503,49502,49503,49502,49503,49502,49503,49502,49503,49502,49503,49502,49503,49502,49503,49502,49503,49502,49503,49502,49503,49502,49503,49502,49503,49502,49503,49502,49503,49502,49503,49502,49503,49502,49503,49502,49503,49502,49503,49502,49503,49502,49503,49502,49503,49502,49503,49502,49503,49502,49503,49502,49503,49502,49503,49502,49503,49502,49503,49502,49503,49502,49503,49502,49503,49502,49503,49502,49503,49502,49503,49502,49503,49502,49503,49502,49503,49502,49503,49502,49503,49502,49503,49502,49503,49502,49503,49502,49503,49502,49503,49502,49503,49502,49503,49502,49503,49502,49503,49502,49503,49502,49503,49502,49503,49502,49503,49502,49503,49502,49503,49502,49503,49502,49503,49502,49503,49502,49503,49502,49503,49502,49503,49502,49503,49502,49503,49502,49503,49502,49503,49502,49503,49502,49503,49502,49503,49502,49503,49502,49503,49502,49503,49502,49503,49502,49503,49502,49503,49502,49503,49502,49503,49502,49503,49502,49503,49502,49503,49502,49503,49502,49503,49502,49503,49502,49503,49502,49503,49502,
49759,49758,49759,49758,49759,49758,49759,49758,49759,49758,49759,49758,49759,49758,49759,49758,49759,49758,49759,49758,49759,49758,49759,49758,49759,49758,49759,49758,49759,49758,49759,49758,49759,49758,49759,49758,49759,49758,49759,49758,49759,49758,49759,49758,49759,49758,49759,49758,49759,49758,49759,49758,49759,49758,49759,49758,49759,49758,49759,49758,49759,49758,49759,49758,49759,49758,49759,49758,49759,49758,49759,49758,49759,49758,49759,49758,49759,49758,49759,49758,49759,49758,49759,49758,49759,49758,49759,49758,49759,49758,49759,49758,49759,49758,49759,49758,49759,49758,49759,49758,49759,49758,49759,49758,49759,49758,49759,49758,49759,49758,49759,49758,49759,49758,49759,49758,49759,49758,49759,49758,49759,49758,49759,49758,49759,49758,49759,49758,49759,49758,49759,49758,49759,49758,49759,49758,49759,49758,49759,49758,49759,49758,49759,49758,49759,49758,49759,49758,49759,49758,49759,49758,49759,49758,49759,49758,49759,49758,49759,49758,49759,49758,49759,49758,49759,49758,49759,49758,49759,49758,49759,49758,49759,49758,49759,49758,49759,49758,49759,49758,49759,49758,49759,49758,49759,49758,49759,49758,49759,49758,49759,49758,49759,49758,49759,49758,49759,49758,49759,49758,
49503,49502,49503,49502,49503,49502,49503,49502,49503,49502,49503,49502,49503,49502,49503,49502,49503,49502,49503,49502,49503,49502,49503,49502,49503,49502,49503,49502,49503,49502,49503,49502,49503,49502,49503,49502,49503,49502,49503,49502,49503,49502,49503,49502,49503,49502,49503,49502,49503,49502,49503,49502,49503,49502,49503,49502,49503,49502,49503,49502,49503,49502,49503,49502,49503,49502,49503,49502,49503,49502,49503,49502,49503,49502,49503,49502,49503,49502,49503,49502,49503,49502,49503,49502,49503,49502,49503,49502,49503,49502,49503,49502,49503,49502,49503,49502,49503,49502,49503,49502,49503,49502,49503,49502,49503,49502,49503,49502,49503,49502,49503,49502,49503,49502,49503,49502,49503,49502,49503,49502,49503,49502,49503,49502,49503,49502,49503,49502,49503,49502,49503,49502,49503,49502,49503,49502,49503,49502,49503,49502,49503,49502,49503,49502,49503,49502,49503,49502,49503,49502,49503,49502,49503,49502,49503,49502,49503,49502,49503,49502,49503,49502,49503,49502,49503,49502,49503,49502,49503,49502,49503,49502,49503,49502,49503,49502,49503,49502,49503,49502,49503,49502,49503,49502,49503,49502,49503,49502,49503,49502,49503,49502,49503,49502,49503,49502,49503,49502,49503,49502,
49759,49758,49759,49758,49759,49758,49759,49758,49759,49758,49759,49758,49759,49758,49759,49758,49759,49758,49759,49758,49759,49758,49759,49758,49759,49758,49759,49758,49759,49758,49759,49758,49759,49758,49759,49758,49759,49758,49759,49758,49759,49758,49759,49758,49759,49758,49759,49758,49759,49758,49759,49758,49759,49758,49759,49758,49759,49758,49759,49758,49759,49758,49759,49758,49759,49758,49759,49758,49759,49758,49759,49758,49759,49758,49759,49758,49759,49758,49759,49758,49759,49758,49759,49758,49759,49758,49759,49758,49759,49758,49759,49758,49759,49758,49759,49758,49759,49758,49759,49758,49759,49758,49759,49758,49759,49758,49759,49758,49759,49758,49759,49758,49759,49758,49759,49758,49759,49758,49759,49758,49759,49758,49759,49758,49759,49758,49759,49758,49759,49758,49759,49758,49759,49758,49759,49758,49759,49758,49759,49758,49759,49758,49759,49758,49759,49758,49759,49758,49759,49758,49759,49758,49759,49758,49759,49758,49759,49758,49759,49758,49759,49758,49759,49758,49759,49758,49759,49758,49759,49758,49759,49758,49759,49758,49759,49758,49759,49758,49759,49758,49759,49758,49759,49758,49759,49758,49759,49758,49759,49758,49759,49758,49759,49758,49759,49758,49759,49758,49759,49758,
49503,49502,49503,49502,49503,49502,49503,49502,49503,49502,49503,49502,49503,49502,49503,49502,49503,49502,49503,49502,49503,49502,49503,49502,49503,49502,49503,49502,49503,49502,49503,49502,49503,49502,49503,49502,49503,49502,49503,49502,49503,49502,49503,49502,49503,49502,49503,49502,49503,49502,49503,49502,49503,49502,49503,49502,49503,49502,49503,49502,49503,49502,49503,49502,49503,49502,49503,49502,49503,49502,49503,49502,49503,49502,49503,49502,49503,49502,49503,49502,49503,49502,49503,49502,49503,49502,49503,49502,49503,49502,49503,49502,49503,49502,49503,49502,49503,49502,49503,49502,49503,49502,49503,49502,49503,49502,49503,49502,49503,49502,49503,49502,49503,49502,49503,49502,49503,49502,49503,49502,49503,49502,49503,49502,49503,49502,49503,49502,49503,49502,49503,49502,49503,49502,49503,49502,49503,49502,49503,49502,49503,49502,49503,49502,49503,49502,49503,49502,49503,49502,49503,49502,49503,49502,49503,49502,49503,49502,49503,49502,49503,49502,49503,49502,49503,49502,49503,49502,49503,49502,49503,49502,49503,49502,49503,49502,49503,49502,49503,49502,49503,49502,49503,49502,49503,49502,49503,49502,49503,49502,49503,49502,49503,49502,49503,49502,49503,49502,49503,49502,
49759,49758,49759,49758,49759,49758,49759,49758,49759,49758,49759,49758,49759,49758,49759,49758,49759,49758,49759,49758,49759,49758,49759,49758,49759,49758,49759,49758,49759,49758,49759,49758,49759,49758,49759,49758,49759,49758,49759,49758,49759,49758,49759,49758,49759,49758,49759,49758,49759,49758,49759,49758,49759,49758,49759,49758,49759,49758,49759,49758,49759,49758,49759,49758,49759,49758,49759,49758,49759,49758,49759,49758,49759,49758,49759,49758,49759,49758,49759,49758,49759,49758,49759,49758,49759,49758,49759,49758,49759,49758,49759,49758,49759,49758,49759,49758,49759,49758,49759,49758,49759,49758,49759,49758,49759,49758,49759,49758,49759,49758,49759,49758,49759,49758,49759,49758,49759,49758,49759,49758,49759,49758,49759,49758,49759,49758,49759,49758,49759,49758,49759,49758,49759,49758,49759,49758,49759,49758,49759,49758,49759,49758,49759,49758,49759,49758,49759,49758,49759,49758,49759,49758,49759,49758,49759,49758,49759,49758,49759,49758,49759,49758,49759,49758,49759,49758,49759,49758,49759,49758,49759,49758,49759,49758,49759,49758,49759,49758,49759,49758,49759,49758,49759,49758,49759,49758,49759,49758,49759,49758,49759,49758,49759,49758,49759,49758,49759,49758,49759,49758,
49503,49502,49503,49502,49503,49502,49503,49502,49503,49502,49503,49502,49503,49502,49503,49502,49503,49502,49503,49502,49503,49502,49503,49502,49503,49502,49503,49502,49503,49502,49503,49502,49503,49502,49503,49502,49503,49502,49503,49502,49503,49502,49503,49502,49503,49502,49503,49502,49503,49502,49503,49502,49503,49502,49503,49502,49503,49502,49503,49502,49503,49502,49503,49502,49503,49502,49503,49502,49503,49502,49503,49502,49503,49502,49503,49502,49503,49502,49503,49502,49503,49502,49503,49502,49503,49502,49503,49502,49503,49502,49503,49502,49503,49502,49503,49502,49503,49502,49503,49502,49503,49502,49503,49502,49503,49502,49503,49502,49503,49502,49503,49502,49503,49502,49503,49502,49503,49502,49503,49502,49503,49502,49503,49502,49503,49502,49503,49502,49503,49502,49503,49502,49503,49502,49503,49502,49503,49502,49503,49502,49503,49502,49503,49502,49503,49502,49503,49502,49503,49502,49503,49502,49503,49502,49503,49502,49503,49502,49503,49502,49503,49502,49503,49502,49503,49502,49503,49502,49503,49502,49503,49502,49503,49502,49503,49502,49503,49502,49503,49502,49503,49502,49503,49502,49503,49502,49503,49502,49503,49502,49503,49502,49503,49502,49503,49502,49503,49502,49503,49502,
49759,49758,49759,49758,49759,49758,49759,49758,49759,49758,49759,49758,49759,49758,49759,49758,49759,49758,49759,49758,49759,49758,49759,49758,49759,49758,49759,49758,49759,49758,49759,49758,49759,49758,49759,49758,49759,49758,49759,49758,49759,49758,49759,49758,49759,49758,49759,49758,49759,49758,49759,49758,49759,49758,49759,49758,49759,49758,49759,49758,49759,49758,49759,49758,49759,49758,49759,49758,49759,49758,49759,49758,49759,49758,49759,49758,49759,49758,49759,49758,49759,49758,49759,49758,49759,49758,49759,49758,49759,49758,49759,49758,49759,49758,49759,49758,49759,49758,49759,49758,49759,49758,49759,49758,49759,49758,49759,49758,49759,49758,49759,49758,49759,49758,49759,49758,49759,49758,49759,49758,49759,49758,49759,49758,49759,49758,49759,49758,49759,49758,49759,49758,49759,49758,49759,49758,49759,49758,49759,49758,49759,49758,49759,49758,49759,49758,49759,49758,49759,49758,49759,49758,49759,49758,49759,49758,49759,49758,49759,49758,49759,49758,49759,49758,49759,49758,49759,49758,49759,49758,49759,49758,49759,49758,49759,49758,49759,49758,49759,49758,49759,49758,49759,49758,49759,49758,49759,49758,49759,49758,49759,49758,49759,49758,49759,49758,49759,49758,49759,49758,
49503,49502,49503,49502,49503,49502,49503,49502,49503,49502,49503,49502,49503,49502,49503,49502,49503,49502,49503,49502,49503,49502,49503,49502,49503,49502,49503,49502,49503,49502,49503,49502,49503,49502,49503,49502,49503,49502,49503,49502,49503,49502,49503,49502,49503,49502,49503,49502,49503,49502,49503,49502,49503,49502,49503,49502,49503,49502,49503,49502,49503,49502,49503,49502,49503,49502,49503,49502,49503,49502,49503,49502,49503,49502,49503,49502,49503,49502,49503,49502,49503,49502,49503,49502,49503,49502,49503,49502,49503,49502,49503,49502,49503,49502,49503,49502,49503,49502,49503,49502,49503,49502,49503,49502,49503,49502,49503,49502,49503,49502,49503,49502,49503,49502,49503,49502,49503,49502,49503,49502,49503,49502,49503,49502,49503,49502,49503,49502,49503,49502,49503,49502,49503,49502,49503,49502,49503,49502,49503,49502,49503,49502,49503,49502,49503,49502,49503,49502,49503,49502,49503,49502,49503,49502,49503,49502,49503,49502,49503,49502,49503,49502,49503,49502,49503,49502,49503,49502,49503,49502,49503,49502,49503,49502,49503,49502,49503,49502,49503,49502,49503,49502,49503,49502,49503,49502,49503,49502,49503,49502,49503,49502,49503,49502,49503,49502,49503,49502,49503,49502,
49759,49758,49759,49758,49759,49758,49759,49758,49759,49758,49759,49758,49759,49758,49759,49758,49759,49758,49759,49758,49759,49758,49759,49758,49759,49758,49759,49758,49759,49758,49759,49758,49759,49758,49759,49758,49759,49758,49759,49758,49759,49758,49759,49758,49759,49758,49759,49758,49759,49758,49759,49758,49759,49758,49759,49758,49759,49758,49759,49758,49759,49758,49759,49758,49759,49758,49759,49758,49759,49758,49759,49758,49759,49758,49759,49758,49759,49758,49759,49758,49759,49758,49759,49758,49759,49758,49759,49758,49759,49758,49759,49758,49759,49758,49759,49758,49759,49758,49759,49758,49759,49758,49759,49758,49759,49758,49759,49758,49759,49758,49759,49758,49759,49758,49759,49758,49759,49758,49759,49758,49759,49758,49759,49758,49759,49758,49759,49758,49759,49758,49759,49758,49759,49758,49759,49758,49759,49758,49759,49758,49759,49758,49759,49758,49759,49758,49759,49758,49759,49758,49759,49758,49759,49758,49759,49758,49759,49758,49759,49758,49759,49758,49759,49758,49759,49758,49759,49758,49759,49758,49759,49758,49759,49758,49759,49758,49759,49758,49759,49758,49759,49758,49759,49758,49759,49758,49759,49758,49759,49758,49759,49758,49759,49758,49759,49758,49759,49758,49759,49758,
49503,49502,49503,49502,49503,49502,49503,49502,49503,49502,49503,49502,49503,49502,49503,49502,49503,49502,49503,49502,49503,49502,49503,49502,49503,49502,49503,49502,49503,49502,49503,49502,49503,49502,49503,49502,49503,49502,49503,49502,49503,49502,49503,49502,49503,49502,49503,49502,49503,49502,49503,49502,49503,49502,49503,49502,49503,49502,49503,49502,49503,49502,49503,49502,49503,49502,49503,49502,49503,49502,49503,49502,49503,49502,49503,49502,49503,49502,49503,49502,49503,49502,49503,49502,49503,49502,49503,49502,49503,49502,49503,49502,49503,49502,49503,49502,49503,49502,49503,49502,49503,49502,49503,49502,49503,49502,49503,49502,49503,49502,49503,49502,49503,49502,49503,49502,49503,49502,49503,49502,49503,49502,49503,49502,49503,49502,49503,49502,49503,49502,49503,49502,49503,49502,49503,49502,49503,49502,49503,49502,49503,49502,49503,49502,49503,49502,49503,49502,49503,49502,49503,49502,49503,49502,49503,49502,49503,49502,49503,49502,49503,49502,49503,49502,49503,49502,49503,49502,49503,49502,49503,49502,49503,49502,49503,49502,49503,49502,49503,49502,49503,49502,49503,49502,49503,49502,49503,49502,49503,49502,49503,49502,49503,49502,49503,49502,49503,49502,49503,49502,
49759,49758,49759,49758,49759,49758,49759,49758,49759,49758,49759,49758,49759,49758,49759,49758,49759,49758,49759,49758,49759,49758,49759,49758,49759,49758,49759,49758,49759,49758,49759,49758,49759,49758,49759,49758,49759,49758,49759,49758,49759,49758,49759,49758,49759,49758,49759,49758,49759,49758,49759,49758,49759,49758,49759,49758,49759,49758,49759,49758,49759,49758,49759,49758,49759,49758,49759,49758,49759,49758,49759,49758,49759,49758,49759,49758,49759,49758,49759,49758,49759,49758,49759,49758,49759,49758,49759,49758,49759,49758,49759,49758,49759,49758,49759,49758,49759,49758,49759,49758,49759,49758,49759,49758,49759,49758,49759,49758,49759,49758,49759,49758,49759,49758,49759,49758,49759,49758,49759,49758,49759,49758,49759,49758,49759,49758,49759,49758,49759,49758,49759,49758,49759,49758,49759,49758,49759,49758,49759,49758,49759,49758,49759,49758,49759,49758,49759,49758,49759,49758,49759,49758,49759,49758,49759,49758,49759,49758,49759,49758,49759,49758,49759,49758,49759,49758,49759,49758,49759,49758,49759,49758,49759,49758,49759,49758,49759,49758,49759,49758,49759,49758,49759,49758,49759,49758,49759,49758,49759,49758,49759,49758,49759,49758,49759,49758,49759,49758,49759,49758,
49503,49502,49503,49502,49503,49502,49503,49502,49503,49502,49503,49502,49503,49502,49503,49502,49503,49502,49503,49502,49503,49502,49503,49502,49503,49502,49503,49502,49503,49502,49503,49502,49503,49502,49503,49502,49503,49502,49503,49502,49503,49502,49503,49502,49503,49502,49503,49502,49503,49502,49503,49502,49503,49502,49503,49502,49503,49502,49503,49502,49503,49502,49503,49502,49503,49502,49503,49502,49503,49502,49503,49502,49503,49502,49503,49502,49503,49502,49503,49502,49503,49502,49503,49502,49503,49502,49503,49502,49503,49502,49503,49502,49503,49502,49503,49502,49503,49502,49503,49502,49503,49502,49503,49502,49503,49502,49503,49502,49503,49502,49503,49502,49503,49502,49503,49502,49503,49502,49503,49502,49503,49502,49503,49502,49503,49502,49503,49502,49503,49502,49503,49502,49503,49502,49503,49502,49503,49502,49503,49502,49503,49502,49503,49502,49503,49502,49503,49502,49503,49502,49503,49502,49503,49502,49503,49502,49503,49502,49503,49502,49503,49502,49503,49502,49503,49502,49503,49502,49503,49502,49503,49502,49503,49502,49503,49502,49503,49502,49503,49502,49503,49502,49503,49502,49503,49502,49503,49502,49503,49502,49503,49502,49503,49502,49503,49502,49503,49502,49503,49502,
49759,49758,49759,49758,49759,49758,49759,49758,49759,49758,49759,49758,49759,49758,49759,49758,49759,49758,49759,49758,49759,49758,49759,49758,49759,49758,49759,49758,49759,49758,49759,49758,49759,49758,49759,49758,49759,49758,49759,49758,49759,49758,49759,49758,49759,49758,49759,49758,49759,49758,49759,49758,49759,49758,49759,49758,49759,49758,49759,49758,49759,49758,49759,49758,49759,49758,49759,49758,49759,49758,49759,49758,49759,49758,49759,49758,49759,49758,49759,49758,49759,49758,49759,49758,49759,49758,49759,49758,49759,49758,49759,49758,49759,49758,49759,49758,49759,49758,49759,49758,49759,49758,49759,49758,49759,49758,49759,49758,49759,49758,49759,49758,49759,49758,49759,49758,49759,49758,49759,49758,49759,49758,49759,49758,49759,49758,49759,49758,49759,49758,49759,49758,49759,49758,49759,49758,49759,49758,49759,49758,49759,49758,49759,49758,49759,49758,49759,49758,49759,49758,49759,49758,49759,49758,49759,49758,49759,49758,49759,49758,49759,49758,49759,49758,49759,49758,49759,49758,49759,49758,49759,49758,49759,49758,49759,49758,49759,49758,49759,49758,49759,49758,49759,49758,49759,49758,49759,49758,49759,49758,49759,49758,49759,49758,49759,49758,49759,49758,49759,49758,
49503,49502,49503,49502,49503,49502,49503,49502,49503,49502,49503,49502,49503,49502,49503,49502,49503,49502,49503,49502,49503,49502,49503,49502,49503,49502,49503,49502,49503,49502,49503,49502,49503,49502,49503,49502,49503,49502,49503,49502,49503,49502,49503,49502,49503,49502,49503,49502,49503,49502,49503,49502,49503,49502,49503,49502,49503,49502,49503,49502,49503,49502,49503,49502,49503,49502,49503,49502,49503,49502,49503,49502,49503,49502,49503,49502,49503,49502,49503,49502,49503,49502,49503,49502,49503,49502,49503,49502,49503,49502,49503,49502,49503,49502,49503,49502,49503,49502,49503,49502,49503,49502,49503,49502,49503,49502,49503,49502,49503,49502,49503,49502,49503,49502,49503,49502,49503,49502,49503,49502,49503,49502,49503,49502,49503,49502,49503,49502,49503,49502,49503,49502,49503,49502,49503,49502,49503,49502,49503,49502,49503,49502,49503,49502,49503,49502,49503,49502,49503,49502,49503,49502,49503,49502,49503,49502,49503,49502,49503,49502,49503,49502,49503,49502,49503,49502,49503,49502,49503,49502,49503,49502,49503,49502,49503,49502,49503,49502,49503,49502,49503,49502,49503,49502,49503,49502,49503,49502,49503,49502,49503,49502,49503,49502,49503,49502,49503,49502,49503,49502,
49759,49758,49759,49758,49759,49758,49759,49758,49759,49758,49759,49758,49759,49758,49759,49758,49759,49758,49759,49758,49759,49758,49759,49758,49759,49758,49759,49758,49759,49758,49759,49758,49759,49758,49759,49758,49759,49758,49759,49758,49759,49758,49759,49758,49759,49758,49759,49758,49759,49758,49759,49758,49759,49758,49759,49758,49759,49758,49759,49758,49759,49758,49759,49758,49759,49758,49759,49758,49759,49758,49759,49758,49759,49758,49759,49758,49759,49758,49759,49758,49759,49758,49759,49758,49759,49758,49759,49758,49759,49758,49759,49758,49759,49758,49759,49758,49759,49758,49759,49758,49759,49758,49759,49758,49759,49758,49759,49758,49759,49758,49759,49758,49759,49758,49759,49758,49759,49758,49759,49758,49759,49758,49759,49758,49759,49758,49759,49758,49759,49758,49759,49758,49759,49758,49759,49758,49759,49758,49759,49758,49759,49758,49759,49758,49759,49758,49759,49758,49759,49758,49759,49758,49759,49758,49759,49758,49759,49758,49759,49758,49759,49758,49759,49758,49759,49758,49759,49758,49759,49758,49759,49758,49759,49758,49759,49758,49759,49758,49759,49758,49759,49758,49759,49758,49759,49758,49759,49758,49759,49758,49759,49758,49759,49758,49759,49758,49759,49758,49759,49758,
49503,49502,49503,49502,49503,49502,49503,49502,49503,49502,49503,49502,49503,49502,49503,49502,49503,49502,49503,49502,49503,49502,49503,49502,49503,49502,49503,49502,49503,49502,49503,49502,49503,49502,49503,49502,49503,49502,49503,49502,49503,49502,49503,49502,49503,49502,49503,49502,49503,49502,49503,49502,49503,49502,49503,49502,49503,49502,49503,49502,49503,49502,49503,49502,49503,49502,49503,49502,49503,49502,49503,49502,49503,49502,49503,49502,49503,49502,49503,49502,49503,49502,49503,49502,49503,49502,49503,49502,49503,49502,49503,49502,49503,49502,49503,49502,49503,49502,49503,49502,49503,49502,49503,49502,49503,49502,49503,49502,49503,49502,49503,49502,49503,49502,49503,49502,49503,49502,49503,49502,49503,49502,49503,49502,49503,49502,49503,49502,49503,49502,49503,49502,49503,49502,49503,49502,49503,49502,49503,49502,49503,49502,49503,49502,49503,49502,49503,49502,49503,49502,49503,49502,49503,49502,49503,49502,49503,49502,49503,49502,49503,49502,49503,49502,49503,49502,49503,49502,49503,49502,49503,49502,49503,49502,49503,49502,49503,49502,49503,49502,49503,49502,49503,49502,49503,49502,49503,49502,49503,49502,49503,49502,49503,49502,49503,49502,49503,49502,49503,49502,
49759,49758,49759,49758,49759,49758,49759,49758,49759,49758,49759,49758,49759,49758,49759,49758,49759,49758,49759,49758,49759,49758,49759,49758,49759,49758,49759,49758,49759,49758,49759,49758,49759,49758,49759,49758,49759,49758,49759,49758,49759,49758,49759,49758,49759,49758,49759,49758,49759,49758,49759,49758,49759,49758,49759,49758,49759,49758,49759,49758,49759,49758,49759,49758,49759,49758,49759,49758,49759,49758,49759,49758,49759,49758,49759,49758,49759,49758,49759,49758,49759,49758,49759,49758,49759,49758,49759,49758,49759,49758,49759,49758,49759,49758,49759,49758,49759,49758,49759,49758,49759,49758,49759,49758,49759,49758,49759,49758,49759,49758,49759,49758,49759,49758,49759,49758,49759,49758,49759,49758,49759,49758,49759,49758,49759,49758,49759,49758,49759,49758,49759,49758,49759,49758,49759,49758,49759,49758,49759,49758,49759,49758,49759,49758,49759,49758,49759,49758,49759,49758,49759,49758,49759,49758,49759,49758,49759,49758,49759,49758,49759,49758,49759,49758,49759,49758,49759,49758,49759,49758,49759,49758,49759,49758,49759,49758,49759,49758,49759,49758,49759,49758,49759,49758,49759,49758,49759,49758,49759,49758,49759,49758,49759,49758,49759,49758,49759,49758,49759,49758,
49503,49502,49503,49502,49503,49502,49503,49502,49503,49502,49503,49502,49503,49502,49503,49502,49503,49502,49503,49502,49503,49502,49503,49502,49503,49502,49503,49502,49503,49502,49503,49502,49503,49502,49503,49502,49503,49502,49503,49502,49503,49502,49503,49502,49503,49502,49503,49502,49503,49502,49503,49502,49503,49502,49503,49502,49503,49502,49503,49502,49503,49502,49503,49502,49503,49502,49503,49502,49503,49502,49503,49502,49503,49502,49503,49502,49503,49502,49503,49502,49503,49502,49503,49502,49503,49502,49503,49502,49503,49502,49503,49502,49503,49502,49503,49502,49503,49502,49503,49502,49503,49502,49503,49502,49503,49502,49503,49502,49503,49502,49503,49502,49503,49502,49503,49502,49503,49502,49503,49502,49503,49502,49503,49502,49503,49502,49503,49502,49503,49502,49503,49502,49503,49502,49503,49502,49503,49502,49503,49502,49503,49502,49503,49502,49503,49502,49503,49502,49503,49502,49503,49502,49503,49502,49503,49502,49503,49502,49503,49502,49503,49502,49503,49502,49503,49502,49503,49502,49503,49502,49503,49502,49503,49502,49503,49502,49503,49502,49503,49502,49503,49502,49503,49502,49503,49502,49503,49502,49503,49502,49503,49502,49503,49502,49503,49502,49503,49502,49503,49502,
49759,49758,49759,49758,49759,49758,49759,49758,49759,49758,49759,49758,49759,49758,49759,49758,49759,49758,49759,49758,49759,49758,49759,49758,49759,49758,49759,49758,49759,49758,49759,49758,49759,49758,49759,49758,49759,49758,49759,49758,49759,49758,49759,49758,49759,49758,49759,49758,49759,49758,49759,49758,49759,49758,49759,49758,49759,49758,49759,49758,49759,49758,49759,49758,49759,49758,49759,49758,49759,49758,49759,49758,49759,49758,49759,49758,49759,49758,49759,49758,49759,49758,49759,49758,49759,49758,49759,49758,49759,49758,49759,49758,49759,49758,49759,49758,49759,49758,49759,49758,49759,49758,49759,49758,49759,49758,49759,49758,49759,49758,49759,49758,49759,49758,49759,49758,49759,49758,49759,49758,49759,49758,49759,49758,49759,49758,49759,49758,49759,49758,49759,49758,49759,49758,49759,49758,49759,49758,49759,49758,49759,49758,49759,49758,49759,49758,49759,49758,49759,49758,49759,49758,49759,49758,49759,49758,49759,49758,49759,49758,49759,49758,49759,49758,49759,49758,49759,49758,49759,49758,49759,49758,49759,49758,49759,49758,49759,49758,49759,49758,49759,49758,49759,49758,49759,49758,49759,49758,49759,49758,49759,49758,49759,49758,49759,49758,49759,49758,49759,49758,
49503,49502,49503,49502,49503,49502,49503,49502,49503,49502,49503,49502,49503,49502,49503,49502,49503,49502,49503,49502,49503,49502,49503,49502,49503,49502,49503,49502,49503,49502,49503,49502,49503,49502,49503,49502,49503,49502,49503,49502,49503,49502,49503,49502,49503,49502,49503,49502,49503,49502,49503,49502,49503,49502,49503,49502,49503,49502,49503,49502,49503,49502,49503,49502,49503,49502,49503,49502,49503,49502,49503,49502,49503,49502,49503,49502,49503,49502,49503,49502,49503,49502,49503,49502,49503,49502,49503,49502,49503,49502,49503,49502,49503,49502,49503,49502,49503,49502,49503,49502,49503,49502,49503,49502,49503,49502,49503,49502,49503,49502,49503,49502,49503,49502,49503,49502,49503,49502,49503,49502,49503,49502,49503,49502,49503,49502,49503,49502,49503,49502,49503,49502,49503,49502,49503,49502,49503,49502,49503,49502,49503,49502,49503,49502,49503,49502,49503,49502,49503,49502,49503,49502,49503,49502,49503,49502,49503,49502,49503,49502,49503,49502,49503,49502,49503,49502,49503,49502,49503,49502,49503,49502,49503,49502,49503,49502,49503,49502,49503,49502,49503,49502,49503,49502,49503,49502,49503,49502,49503,49502,49503,49502,49503,49502,49503,49502,49503,49502,49503,49502,
49759,49758,49759,49758,49759,49758,49759,49758,49759,49758,49759,49758,49759,49758,49759,49758,49759,49758,49759,49758,49759,49758,49759,49758,49759,49758,49759,49758,49759,49758,49759,49758,49759,49758,49759,49758,49759,49758,49759,49758,49759,49758,49759,49758,49759,49758,49759,49758,49759,49758,49759,49758,49759,49758,49759,49758,49759,49758,49759,49758,49759,49758,49759,49758,49759,49758,49759,49758,49759,49758,49759,49758,49759,49758,49759,49758,49759,49758,49759,49758,49759,49758,49759,49758,49759,49758,49759,49758,49759,49758,49759,49758,49759,49758,49759,49758,49759,49758,49759,49758,49759,49758,49759,49758,49759,49758,49759,49758,49759,49758,49759,49758,49759,49758,49759,49758,49759,49758,49759,49758,49759,49758,49759,49758,49759,49758,49759,49758,49759,49758,49759,49758,49759,49758,49759,49758,49759,49758,49759,49758,49759,49758,49759,49758,49759,49758,49759,49758,49759,49758,49759,49758,49759,49758,49759,49758,49759,49758,49759,49758,49759,49758,49759,49758,49759,49758,49759,49758,49759,49758,49759,49758,49759,49758,49759,49758,49759,49758,49759,49758,49759,49758,49759,49758,49759,49758,49759,49758,49759,49758,49759,49758,49759,49758,49759,49758,49759,49758,49759,49758,
49503,49502,49503,49502,49503,49502,49503,49502,49503,49502,49503,49502,49503,49502,49503,49502,49503,49502,49503,49502,49503,49502,49503,49502,49503,49502,49503,49502,49503,49502,49503,49502,49503,49502,49503,49502,49503,49502,49503,49502,49503,49502,49503,49502,49503,49502,49503,49502,49503,49502,49503,49502,49503,49502,49503,49502,49503,49502,49503,49502,49503,49502,49503,49502,49503,49502,49503,49502,49503,49502,49503,49502,49503,49502,49503,49502,49503,49502,49503,49502,49503,49502,49503,49502,49503,49502,49503,49502,49503,49502,49503,49502,49503,49502,49503,49502,49503,49502,49503,49502,49503,49502,49503,49502,49503,49502,49503,49502,49503,49502,49503,49502,49503,49502,49503,49502,49503,49502,49503,49502,49503,49502,49503,49502,49503,49502,49503,49502,49503,49502,49503,49502,49503,49502,49503,49502,49503,49502,49503,49502,49503,49502,49503,49502,49503,49502,49503,49502,49503,49502,49503,49502,49503,49502,49503,49502,49503,49502,49503,49502,49503,49502,49503,49502,49503,49502,49503,49502,49503,49502,49503,49502,49503,49502,49503,49502,49503,49502,49503,49502,49503,49502,49503,49502,49503,49502,49503,49502,49503,49502,49503,49502,49503,49502,49503,49502,49503,49502,49503,49502,
49759,49758,49759,49758,49759,49758,49759,49758,49759,49758,49759,49758,49759,49758,49759,49758,49759,49758,49759,49758,49759,49758,49759,49758,49759,49758,49759,49758,49759,49758,49759,49758,49759,49758,49759,49758,49759,49758,49759,49758,49759,49758,49759,49758,49759,49758,49759,49758,49759,49758,49759,49758,49759,49758,49759,49758,49759,49758,49759,49758,49759,49758,49759,49758,49759,49758,49759,49758,49759,49758,49759,49758,49759,49758,49759,49758,49759,49758,49759,49758,49759,49758,49759,49758,49759,49758,49759,49758,49759,49758,49759,49758,49759,49758,49759,49758,49759,49758,49759,49758,49759,49758,49759,49758,49759,49758,49759,49758,49759,49758,49759,49758,49759,49758,49759,49758,49759,49758,49759,49758,49759,49758,49759,49758,49759,49758,49759,49758,49759,49758,49759,49758,49759,49758,49759,49758,49759,49758,49759,49758,49759,49758,49759,49758,49759,49758,49759,49758,49759,49758,49759,49758,49759,49758,49759,49758,49759,49758,49759,49758,49759,49758,49759,49758,49759,49758,49759,49758,49759,49758,49759,49758,49759,49758,49759,49758,49759,49758,49759,49758,49759,49758,49759,49758,49759,49758,49759,49758,49759,49758,49759,49758,49759,49758,49759,49758,49759,49758,49759,49758,
49503,49502,49503,49502,49503,49502,49503,49502,49503,49502,49503,49502,49503,49502,49503,49502,49503,49502,49503,49502,49503,49502,49503,49502,49503,49502,49503,49502,49503,49502,49503,49502,49503,49502,49503,49502,49503,49502,49503,49502,49503,49502,49503,49502,49503,49502,49503,49502,49503,49502,49503,49502,49503,49502,49503,49502,49503,49502,49503,49502,49503,49502,49503,49502,49503,49502,49503,49502,49503,49502,49503,49502,49503,49502,49503,49502,49503,49502,49503,49502,49503,49502,49503,49502,49503,49502,49503,49502,49503,49502,49503,49502,49503,49502,49503,49502,49503,49502,49503,49502,49503,49502,49503,49502,49503,49502,49503,49502,49503,49502,49503,49502,49503,49502,49503,49502,49503,49502,49503,49502,49503,49502,49503,49502,49503,49502,49503,49502,49503,49502,49503,49502,49503,49502,49503,49502,49503,49502,49503,49502,49503,49502,49503,49502,49503,49502,49503,49502,49503,49502,49503,49502,49503,49502,49503,49502,49503,49502,49503,49502,49503,49502,49503,49502,49503,49502,49503,49502,49503,49502,49503,49502,49503,49502,49503,49502,49503,49502,49503,49502,49503,49502,49503,49502,49503,49502,49503,49502,49503,49502,49503,49502,49503,49502,49503,49502,49503,49502,49503,49502,
49759,49758,49759,49758,49759,49758,49759,49758,49759,49758,49759,49758,49759,49758,49759,49758,49759,49758,49759,49758,49759,49758,49759,49758,49759,49758,49759,49758,49759,49758,49759,49758,49759,49758,49759,49758,49759,49758,49759,49758,49759,49758,49759,49758,49759,49758,49759,49758,49759,49758,49759,49758,49759,49758,49759,49758,49759,49758,49759,49758,49759,49758,49759,49758,49759,49758,49759,49758,49759,49758,49759,49758,49759,49758,49759,49758,49759,49758,49759,49758,49759,49758,49759,49758,49759,49758,49759,49758,49759,49758,49759,49758,49759,49758,49759,49758,49759,49758,49759,49758,49759,49758,49759,49758,49759,49758,49759,49758,49759,49758,49759,49758,49759,49758,49759,49758,49759,49758,49759,49758,49759,49758,49759,49758,49759,49758,49759,49758,49759,49758,49759,49758,49759,49758,49759,49758,49759,49758,49759,49758,49759,49758,49759,49758,49759,49758,49759,49758,49759,49758,49759,49758,49759,49758,49759,49758,49759,49758,49759,49758,49759,49758,49759,49758,49759,49758,49759,49758,49759,49758,49759,49758,49759,49758,49759,49758,49759,49758,49759,49758,49759,49758,49759,49758,49759,49758,49759,49758,49759,49758,49759,49758,49759,49758,49759,49758,49759,49758,49759,49758,
49503,49502,49503,49502,49503,49502,49503,49502,49503,49502,49503,49502,49503,49502,49503,49502,49503,49502,49503,49502,49503,49502,49503,49502,49503,49502,49503,49502,49503,49502,49503,49502,49503,49502,49503,49502,49503,49502,49503,49502,49503,49502,49503,49502,49503,49502,49503,49502,49503,49502,49503,49502,49503,49502,49503,49502,49503,49502,49503,49502,49503,49502,49503,49502,49503,49502,49503,49502,49503,49502,49503,49502,49503,49502,49503,49502,49503,49502,49503,49502,49503,49502,49503,49502,49503,49502,49503,49502,49503,49502,49503,49502,49503,49502,49503,49502,49503,49502,49503,49502,49503,49502,49503,49502,49503,49502,49503,49502,49503,49502,49503,49502,49503,49502,49503,49502,49503,49502,49503,49502,49503,49502,49503,49502,49503,49502,49503,49502,49503,49502,49503,49502,49503,49502,49503,49502,49503,49502,49503,49502,49503,49502,49503,49502,49503,49502,49503,49502,49503,49502,49503,49502,49503,49502,49503,49502,49503,49502,49503,49502,49503,49502,49503,49502,49503,49502,49503,49502,49503,49502,49503,49502,49503,49502,49503,49502,49503,49502,49503,49502,49503,49502,49503,49502,49503,49502,49503,49502,49503,49502,49503,49502,49503,49502,49503,49502,49503,49502,49503,49502,
49759,49758,49759,49758,49759,49758,49759,49758,49759,49758,49759,49758,49759,49758,49759,49758,49759,49758,49759,49758,49759,49758,49759,49758,49759,49758,49759,49758,49759,49758,49759,49758,49759,49758,49759,49758,49759,49758,49759,49758,49759,49758,49759,49758,49759,49758,49759,49758,49759,49758,49759,49758,49759,49758,49759,49758,49759,49758,49759,49758,49759,49758,49759,49758,49759,49758,49759,49758,49759,49758,49759,49758,49759,49758,49759,49758,49759,49758,49759,49758,49759,49758,49759,49758,49759,49758,49759,49758,49759,49758,49759,49758,49759,49758,49759,49758,49759,49758,49759,49758,49759,49758,49759,49758,49759,49758,49759,49758,49759,49758,49759,49758,49759,49758,49759,49758,49759,49758,49759,49758,49759,49758,49759,49758,49759,49758,49759,49758,49759,49758,49759,49758,49759,49758,49759,49758,49759,49758,49759,49758,49759,49758,49759,49758,49759,49758,49759,49758,49759,49758,49759,49758,49759,49758,49759,49758,49759,49758,49759,49758,49759,49758,49759,49758,49759,49758,49759,49758,49759,49758,49759,49758,49759,49758,49759,49758,49759,49758,49759,49758,49759,49758,49759,49758,49759,49758,49759,49758,49759,49758,49759,49758,49759,49758,49759,49758,49759,49758,49759,49758,
49503,49502,49503,49502,49503,49502,49503,49502,49503,49502,49503,49502,49503,49502,49503,49502,49503,49502,49503,49502,49503,49502,49503,49502,49503,49502,49503,49502,49503,49502,49503,49502,49503,49502,49503,49502,49503,49502,49503,49502,49503,49502,49503,49502,49503,49502,49503,49502,49503,49502,49503,49502,49503,49502,49503,49502,49503,49502,49503,49502,49503,49502,49503,49502,49503,49502,49503,49502,49503,49502,49503,49502,49503,49502,49503,49502,49503,49502,49503,49502,49503,49502,49503,49502,49503,49502,49503,49502,49503,49502,49503,49502,49503,49502,49503,49502,49503,49502,49503,49502,49503,49502,49503,49502,49503,49502,49503,49502,49503,49502,49503,49502,49503,49502,49503,49502,49503,49502,49503,49502,49503,49502,49503,49502,49503,49502,49503,49502,49503,49502,49503,49502,49503,49502,49503,49502,49503,49502,49503,49502,49503,49502,49503,49502,49503,49502,49503,49502,49503,49502,49503,49502,49503,49502,49503,49502,49503,49502,49503,49502,49503,49502,49503,49502,49503,49502,49503,49502,49503,49502,49503,49502,49503,49502,49503,49502,49503,49502,49503,49502,49503,49502,49503,49502,49503,49502,49503,49502,49503,49502,49503,49502,49503,49502,49503,49502,49503,49502,49503,49502,
49759,49758,49759,49758,49759,49758,49759,49758,49759,49758,49759,49758,49759,49758,49759,49758,49759,49758,49759,49758,49759,49758,49759,49758,49759,49758,49759,49758,49759,49758,49759,49758,49759,49758,49759,49758,49759,49758,49759,49758,49759,49758,49759,49758,49759,49758,49759,49758,49759,49758,49759,49758,49759,49758,49759,49758,49759,49758,49759,49758,49759,49758,49759,49758,49759,49758,49759,49758,49759,49758,49759,49758,49759,49758,49759,49758,49759,49758,49759,49758,49759,49758,49759,49758,49759,49758,49759,49758,49759,49758,49759,49758,49759,49758,49759,49758,49759,49758,49759,49758,49759,49758,49759,49758,49759,49758,49759,49758,49759,49758,49759,49758,49759,49758,49759,49758,49759,49758,49759,49758,49759,49758,49759,49758,49759,49758,49759,49758,49759,49758,49759,49758,49759,49758,49759,49758,49759,49758,49759,49758,49759,49758,49759,49758,49759,49758,49759,49758,49759,49758,49759,49758,49759,49758,49759,49758,49759,49758,49759,49758,49759,49758,49759,49758,49759,49758,49759,49758,49759,49758,49759,49758,49759,49758,49759,49758,49759,49758,49759,49758,49759,49758,49759,49758,49759,49758,49759,49758,49759,49758,49759,49758,49759,49758,49759,49758,49759,49758,49759,49758,
49503,49502,49503,49502,49503,49502,49503,49502,49503,49502,49503,49502,49503,49502,49503,49502,49503,49502,49503,49502,49503,49502,49503,49502,49503,49502,49503,49502,49503,49502,49503,49502,49503,49502,49503,49502,49503,49502,49503,49502,49503,49502,49503,49502,49503,49502,49503,49502,49503,49502,49503,49502,49503,49502,49503,49502,49503,49502,49503,49502,49503,49502,49503,49502,49503,49502,49503,49502,49503,49502,49503,49502,49503,49502,49503,49502,49503,49502,49503,49502,49503,49502,49503,49502,49503,49502,49503,49502,49503,49502,49503,49502,49503,49502,49503,49502,49503,49502,49503,49502,49503,49502,49503,49502,49503,49502,49503,49502,49503,49502,49503,49502,49503,49502,49503,49502,49503,49502,49503,49502,49503,49502,49503,49502,49503,49502,49503,49502,49503,49502,49503,49502,49503,49502,49503,49502,49503,49502,49503,49502,49503,49502,49503,49502,49503,49502,49503,49502,49503,49502,49503,49502,49503,49502,49503,49502,49503,49502,49503,49502,49503,49502,49503,49502,49503,49502,49503,49502,49503,49502,49503,49502,49503,49502,49503,49502,49503,49502,49503,49502,49503,49502,49503,49502,49503,49502,49503,49502,49503,49502,49503,49502,49503,49502,49503,49502,49503,49502,49503,49502,
49759,49758,49759,49758,49759,49758,49759,49758,49759,49758,49759,49758,49759,49758,49759,49758,49759,49758,49759,49758,49759,49758,49759,49758,49759,49758,49759,49758,49759,49758,49759,49758,49759,49758,49759,49758,49759,49758,49759,49758,49759,49758,49759,49758,49759,49758,49759,49758,49759,49758,49759,49758,49759,49758,49759,49758,49759,49758,49759,49758,49759,49758,49759,49758,49759,49758,49759,49758,49759,49758,49759,49758,49759,49758,49759,49758,49759,49758,49759,49758,49759,49758,49759,49758,49759,49758,49759,49758,49759,49758,49759,49758,49759,49758,49759,49758,49759,49758,49759,49758,49759,49758,49759,49758,49759,49758,49759,49758,49759,49758,49759,49758,49759,49758,49759,49758,49759,49758,49759,49758,49759,49758,49759,49758,49759,49758,49759,49758,49759,49758,49759,49758,49759,49758,49759,49758,49759,49758,49759,49758,49759,49758,49759,49758,49759,49758,49759,49758,49759,49758,49759,49758,49759,49758,49759,49758,49759,49758,49759,49758,49759,49758,49759,49758,49759,49758,49759,49758,49759,49758,49759,49758,49759,49758,49759,49758,49759,49758,49759,49758,49759,49758,49759,49758,49759,49758,49759,49758,49759,49758,49759,49758,49759,49758,49759,49758,49759,49758,49759,49758,
49503,49502,49503,49502,49503,49502,49503,49502,49503,49502,49503,49502,49503,49502,49503,49502,49503,49502,49503,49502,49503,49502,49503,49502,49503,49502,49503,49502,49503,49502,49503,49502,49503,49502,49503,49502,49503,49502,49503,49502,49503,49502,49503,49502,49503,49502,49503,49502,49503,49502,49503,49502,49503,49502,49503,49502,49503,49502,49503,49502,49503,49502,49503,49502,49503,49502,49503,49502,49503,49502,49503,49502,49503,49502,49503,49502,49503,49502,49503,49502,49503,49502,49503,49502,49503,49502,49503,49502,49503,49502,49503,49502,49503,49502,49503,49502,49503,49502,49503,49502,49503,49502,49503,49502,49503,49502,49503,49502,49503,49502,49503,49502,49503,49502,49503,49502,49503,49502,49503,49502,49503,49502,49503,49502,49503,49502,49503,49502,49503,49502,49503,49502,49503,49502,49503,49502,49503,49502,49503,49502,49503,49502,49503,49502,49503,49502,49503,49502,49503,49502,49503,49502,49503,49502,49503,49502,49503,49502,49503,49502,49503,49502,49503,49502,49503,49502,49503,49502,49503,49502,49503,49502,49503,49502,49503,49502,49503,49502,49503,49502,49503,49502,49503,49502,49503,49502,49503,49502,49503,49502,49503,49502,49503,49502,49503,49502,49503,49502,49503,49502,
49759,49758,49759,49758,49759,49758,49759,49758,49759,49758,49759,49758,49759,49758,49759,49758,49759,49758,49759,49758,49759,49758,49759,49758,49759,49758,49759,49758,49759,49758,49759,49758,49759,49758,49759,49758,49759,49758,49759,49758,49759,49758,49759,49758,49759,49758,49759,49758,49759,49758,49759,49758,49759,49758,49759,49758,49759,49758,49759,49758,49759,49758,49759,49758,49759,49758,49759,49758,49759,49758,49759,49758,49759,49758,49759,49758,49759,49758,49759,49758,49759,49758,49759,49758,49759,49758,49759,49758,49759,49758,49759,49758,49759,49758,49759,49758,49759,49758,49759,49758,49759,49758,49759,49758,49759,49758,49759,49758,49759,49758,49759,49758,49759,49758,49759,49758,49759,49758,49759,49758,49759,49758,49759,49758,49759,49758,49759,49758,49759,49758,49759,49758,49759,49758,49759,49758,49759,49758,49759,49758,49759,49758,49759,49758,49759,49758,49759,49758,49759,49758,49759,49758,49759,49758,49759,49758,49759,49758,49759,49758,49759,49758,49759,49758,49759,49758,49759,49758,49759,49758,49759,49758,49759,49758,49759,49758,49759,49758,49759,49758,49759,49758,49759,49758,49759,49758,49759,49758,49759,49758,49759,49758,49759,49758,49759,49758,49759,49758,49759,49758,
49503,49502,49503,49502,49503,49502,49503,49502,49503,49502,49503,49502,49503,49502,49503,49502,49503,49502,49503,49502,49503,49502,49503,49502,49503,49502,49503,49502,49503,49502,49503,49502,49503,49502,49503,49502,49503,49502,49503,49502,49503,49502,49503,49502,49503,49502,49503,49502,49503,49502,49503,49502,49503,49502,49503,49502,49503,49502,49503,49502,49503,49502,49503,49502,49503,49502,49503,49502,49503,49502,49503,49502,49503,49502,49503,49502,49503,49502,49503,49502,49503,49502,49503,49502,49503,49502,49503,49502,49503,49502,49503,49502,49503,49502,49503,49502,49503,49502,49503,49502,49503,49502,49503,49502,49503,49502,49503,49502,49503,49502,49503,49502,49503,49502,49503,49502,49503,49502,49503,49502,49503,49502,49503,49502,49503,49502,49503,49502,49503,49502,49503,49502,49503,49502,49503,49502,49503,49502,49503,49502,49503,49502,49503,49502,49503,49502,49503,49502,49503,49502,49503,49502,49503,49502,49503,49502,49503,49502,49503,49502,49503,49502,49503,49502,49503,49502,49503,49502,49503,49502,49503,49502,49503,49502,49503,49502,49503,49502,49503,49502,49503,49502,49503,49502,49503,49502,49503,49502,49503,49502,49503,49502,49503,49502,49503,49502,49503,49502,49503,49502,
49759,49758,49759,49758,49759,49758,49759,49758,49759,49758,49759,49758,49759,49758,49759,49758,49759,49758,49759,49758,49759,49758,49759,49758,49759,49758,49759,49758,49759,49758,49759,49758,49759,49758,49759,49758,49759,49758,49759,49758,49759,49758,49759,49758,49759,49758,49759,49758,49759,49758,49759,49758,49759,49758,49759,49758,49759,49758,49759,49758,49759,49758,49759,49758,49759,49758,49759,49758,49759,49758,49759,49758,49759,49758,49759,49758,49759,49758,49759,49758,49759,49758,49759,49758,49759,49758,49759,49758,49759,49758,49759,49758,49759,49758,49759,49758,49759,49758,49759,49758,49759,49758,49759,49758,49759,49758,49759,49758,49759,49758,49759,49758,49759,49758,49759,49758,49759,49758,49759,49758,49759,49758,49759,49758,49759,49758,49759,49758,49759,49758,49759,49758,49759,49758,49759,49758,49759,49758,49759,49758,49759,49758,49759,49758,49759,49758,49759,49758,49759,49758,49759,49758,49759,49758,49759,49758,49759,49758,49759,49758,49759,49758,49759,49758,49759,49758,49759,49758,49759,49758,49759,49758,49759,49758,49759,49758,49759,49758,49759,49758,49759,49758,49759,49758,49759,49758,49759,49758,49759,49758,49759,49758,49759,49758,49759,49758,49759,49758,49759,49758,
49503,49502,49503,49502,49503,49502,49503,49502,49503,49502,49503,49502,49503,49502,49503,49502,49503,49502,49503,49502,49503,49502,49503,49502,49503,49502,49503,49502,49503,49502,49503,49502,49503,49502,49503,49502,49503,49502,49503,49502,49503,49502,49503,49502,49503,49502,49503,49502,49503,49502,49503,49502,49503,49502,49503,49502,49503,49502,49503,49502,49503,49502,49503,49502,49503,49502,49503,49502,49503,49502,49503,49502,49503,49502,49503,49502,49503,49502,49503,49502,49503,49502,49503,49502,49503,49502,49503,49502,49503,49502,49503,49502,49503,49502,49503,49502,49503,49502,49503,49502,49503,49502,49503,49502,49503,49502,49503,49502,49503,49502,49503,49502,49503,49502,49503,49502,49503,49502,49503,49502,49503,49502,49503,49502,49503,49502,49503,49502,49503,49502,49503,49502,49503,49502,49503,49502,49503,49502,49503,49502,49503,49502,49503,49502,49503,49502,49503,49502,49503,49502,49503,49502,49503,49502,49503,49502,49503,49502,49503,49502,49503,49502,49503,49502,49503,49502,49503,49502,49503,49502,49503,49502,49503,49502,49503,49502,49503,49502,49503,49502,49503,49502,49503,49502,49503,49502,49503,49502,49503,49502,49503,49502,49503,49502,49503,49502,49503,49502,49503,49502,
49759,49758,49759,49758,49759,49758,49759,49758,49759,49758,49759,49758,49759,49758,49759,49758,49759,49758,49759,49758,49759,49758,49759,49758,49759,49758,49759,49758,49759,49758,49759,49758,49759,49758,49759,49758,49759,49758,49759,49758,49759,49758,49759,49758,49759,49758,49759,49758,49759,49758,49759,49758,49759,49758,49759,49758,49759,49758,49759,49758,49759,49758,49759,49758,49759,49758,49759,49758,49759,49758,49759,49758,49759,49758,49759,49758,49759,49758,49759,49758,49759,49758,49759,49758,49759,49758,49759,49758,49759,49758,49759,49758,49759,49758,49759,49758,49759,49758,49759,49758,49759,49758,49759,49758,49759,49758,49759,49758,49759,49758,49759,49758,49759,49758,49759,49758,49759,49758,49759,49758,49759,49758,49759,49758,49759,49758,49759,49758,49759,49758,49759,49758,49759,49758,49759,49758,49759,49758,49759,49758,49759,49758,49759,49758,49759,49758,49759,49758,49759,49758,49759,49758,49759,49758,49759,49758,49759,49758,49759,49758,49759,49758,49759,49758,49759,49758,49759,49758,49759,49758,49759,49758,49759,49758,49759,49758,49759,49758,49759,49758,49759,49758,49759,49758,49759,49758,49759,49758,49759,49758,49759,49758,49759,49758,49759,49758,49759,49758,49759,49758,
49503,49502,49503,49502,49503,49502,49503,49502,49503,49502,49503,49502,49503,49502,49503,49502,49503,49502,49503,49502,49503,49502,49503,49502,49503,49502,49503,49502,49503,49502,49503,49502,49503,49502,49503,49502,49503,49502,49503,49502,49503,49502,49503,49502,49503,49502,49503,49502,49503,49502,49503,49502,49503,49502,49503,49502,49503,49502,49503,49502,49503,49502,49503,49502,49503,49502,49503,49502,49503,49502,49503,49502,49503,49502,49503,49502,49503,49502,49503,49502,49503,49502,49503,49502,49503,49502,49503,49502,49503,49502,49503,49502,49503,49502,49503,49502,49503,49502,49503,49502,49503,49502,49503,49502,49503,49502,49503,49502,49503,49502,49503,49502,49503,49502,49503,49502,49503,49502,49503,49502,49503,49502,49503,49502,49503,49502,49503,49502,49503,49502,49503,49502,49503,49502,49503,49502,49503,49502,49503,49502,49503,49502,49503,49502,49503,49502,49503,49502,49503,49502,49503,49502,49503,49502,49503,49502,49503,49502,49503,49502,49503,49502,49503,49502,49503,49502,49503,49502,49503,49502,49503,49502,49503,49502,49503,49502,49503,49502,49503,49502,49503,49502,49503,49502,49503,49502,49503,49502,49503,49502,49503,49502,49503,49502,49503,49502,49503,49502,49503,49502,
49759,49758,49759,49758,49759,49758,49759,49758,49759,49758,49759,49758,49759,49758,49759,49758,49759,49758,49759,49758,49759,49758,49759,49758,49759,49758,49759,49758,49759,49758,49759,49758,49759,49758,49759,49758,49759,49758,49759,49758,49759,49758,49759,49758,49759,49758,49759,49758,49759,49758,49759,49758,49759,49758,49759,49758,49759,49758,49759,49758,49759,49758,49759,49758,49759,49758,49759,49758,49759,49758,49759,49758,49759,49758,49759,49758,49759,49758,49759,49758,49759,49758,49759,49758,49759,49758,49759,49758,49759,49758,49759,49758,49759,49758,49759,49758,49759,49758,49759,49758,49759,49758,49759,49758,49759,49758,49759,49758,49759,49758,49759,49758,49759,49758,49759,49758,49759,49758,49759,49758,49759,49758,49759,49758,49759,49758,49759,49758,49759,49758,49759,49758,49759,49758,49759,49758,49759,49758,49759,49758,49759,49758,49759,49758,49759,49758,49759,49758,49759,49758,49759,49758,49759,49758,49759,49758,49759,49758,49759,49758,49759,49758,49759,49758,49759,49758,49759,49758,49759,49758,49759,49758,49759,49758,49759,49758,49759,49758,49759,49758,49759,49758,49759,49758,49759,49758,49759,49758,49759,49758,49759,49758,49759,49758,49759,49758,49759,49758,49759,49758,
49503,49502,49503,49502,49503,49502,49503,49502,49503,49502,49503,49502,49503,49502,49503,49502,49503,49502,49503,49502,49503,49502,49503,49502,49503,49502,49503,49502,49503,49502,49503,49502,49503,49502,49503,49502,49503,49502,49503,49502,49503,49502,49503,49502,49503,49502,49503,49502,49503,49502,49503,49502,49503,49502,49503,49502,49503,49502,49503,49502,49503,49502,49503,49502,49503,49502,49503,49502,49503,49502,49503,49502,49503,49502,49503,49502,49503,49502,49503,49502,49503,49502,49503,49502,49503,49502,49503,49502,49503,49502,49503,49502,49503,49502,49503,49502,49503,49502,49503,49502,49503,49502,49503,49502,49503,49502,49503,49502,49503,49502,49503,49502,49503,49502,49503,49502,49503,49502,49503,49502,49503,49502,49503,49502,49503,49502,49503,49502,49503,49502,49503,49502,49503,49502,49503,49502,49503,49502,49503,49502,49503,49502,49503,49502,49503,49502,49503,49502,49503,49502,49503,49502,49503,49502,49503,49502,49503,49502,49503,49502,49503,49502,49503,49502,49503,49502,49503,49502,49503,49502,49503,49502,49503,49502,49503,49502,49503,49502,49503,49502,49503,49502,49503,49502,49503,49502,49503,49502,49503,49502,49503,49502,49503,49502,49503,49502,49503,49502,49503,49502,
49759,49758,49759,49758,49759,49758,49759,49758,49759,49758,49759,49758,49759,49758,49759,49758,49759,49758,49759,49758,49759,49758,49759,49758,49759,49758,49759,49758,49759,49758,49759,49758,49759,49758,49759,49758,49759,49758,49759,49758,49759,49758,49759,49758,49759,49758,49759,49758,49759,49758,49759,49758,49759,49758,49759,49758,49759,49758,49759,49758,49759,49758,49759,49758,49759,49758,49759,49758,49759,49758,49759,49758,49759,49758,49759,49758,49759,49758,49759,49758,49759,49758,49759,49758,49759,49758,49759,49758,49759,49758,49759,49758,49759,49758,49759,49758,49759,49758,49759,49758,49759,49758,49759,49758,49759,49758,49759,49758,49759,49758,49759,49758,49759,49758,49759,49758,49759,49758,49759,49758,49759,49758,49759,49758,49759,49758,49759,49758,49759,49758,49759,49758,49759,49758,49759,49758,49759,49758,49759,49758,49759,49758,49759,49758,49759,49758,49759,49758,49759,49758,49759,49758,49759,49758,49759,49758,49759,49758,49759,49758,49759,49758,49759,49758,49759,49758,49759,49758,49759,49758,49759,49758,49759,49758,49759,49758,49759,49758,49759,49758,49759,49758,49759,49758,49759,49758,49759,49758,49759,49758,49759,49758,49759,49758,49759,49758,49759,49758,49759,49758,
49503,49502,49503,49502,49503,49502,49503,49502,49503,49502,49503,49502,49503,49502,49503,49502,49503,49502,49503,49502,49503,49502,49503,49502,49503,49502,49503,49502,49503,49502,49503,49502,49503,49502,49503,49502,49503,49502,49503,49502,49503,49502,49503,49502,49503,49502,49503,49502,49503,49502,49503,49502,49503,49502,49503,49502,49503,49502,49503,49502,49503,49502,49503,49502,49503,49502,49503,49502,49503,49502,49503,49502,49503,49502,49503,49502,49503,49502,49503,49502,49503,49502,49503,49502,49503,49502,49503,49502,49503,49502,49503,49502,49503,49502,49503,49502,49503,49502,49503,49502,49503,49502,49503,49502,49503,49502,49503,49502,49503,49502,49503,49502,49503,49502,49503,49502,49503,49502,49503,49502,49503,49502,49503,49502,49503,49502,49503,49502,49503,49502,49503,49502,49503,49502,49503,49502,49503,49502,49503,49502,49503,49502,49503,49502,49503,49502,49503,49502,49503,49502,49503,49502,49503,49502,49503,49502,49503,49502,49503,49502,49503,49502,49503,49502,49503,49502,49503,49502,49503,49502,49503,49502,49503,49502,49503,49502,49503,49502,49503,49502,49503,49502,49503,49502,49503,49502,49503,49502,49503,49502,49503,49502,49503,49502,49503,49502,49503,49502,49503,49502,
49759,49758,49759,49758,49759,49758,49759,49758,49759,49758,49759,49758,49759,49758,49759,49758,49759,49758,49759,49758,49759,49758,49759,49758,49759,49758,49759,49758,49759,49758,49759,49758,49759,49758,49759,49758,49759,49758,49759,49758,49759,49758,49759,49758,49759,49758,49759,49758,49759,49758,49759,49758,49759,49758,49759,49758,49759,49758,49759,49758,49759,49758,49759,49758,49759,49758,49759,49758,49759,49758,49759,49758,49759,49758,49759,49758,49759,49758,49759,49758,49759,49758,49759,49758,49759,49758,49759,49758,49759,49758,49759,49758,49759,49758,49759,49758,49759,49758,49759,49758,49759,49758,49759,49758,49759,49758,49759,49758,49759,49758,49759,49758,49759,49758,49759,49758,49759,49758,49759,49758,49759,49758,49759,49758,49759,49758,49759,49758,49759,49758,49759,49758,49759,49758,49759,49758,49759,49758,49759,49758,49759,49758,49759,49758,49759,49758,49759,49758,49759,49758,49759,49758,49759,49758,49759,49758,49759,49758,49759,49758,49759,49758,49759,49758,49759,49758,49759,49758,49759,49758,49759,49758,49759,49758,49759,49758,49759,49758,49759,49758,49759,49758,49759,49758,49759,49758,49759,49758,49759,49758,49759,49758,49759,49758,49759,49758,49759,49758,49759,49758,
49503,49502,49503,49502,49503,49502,49503,49502,49503,49502,49503,49502,49503,49502,49503,49502,49503,49502,49503,49502,49503,49502,49503,49502,49503,49502,49503,49502,49503,49502,49503,49502,49503,49502,49503,49502,49503,49502,49503,49502,49503,49502,49503,49502,49503,49502,49503,49502,49503,49502,49503,49502,49503,49502,49503,49502,49503,49502,49503,49502,49503,49502,49503,49502,49503,49502,49503,49502,49503,49502,49503,49502,49503,49502,49503,49502,49503,49502,49503,49502,49503,49502,49503,49502,49503,49502,49503,49502,49503,49502,49503,49502,49503,49502,49503,49502,49503,49502,49503,49502,49503,49502,49503,49502,49503,49502,49503,49502,49503,49502,49503,49502,49503,49502,49503,49502,49503,49502,49503,49502,49503,49502,49503,49502,49503,49502,49503,49502,49503,49502,49503,49502,49503,49502,49503,49502,49503,49502,49503,49502,49503,49502,49503,49502,49503,49502,49503,49502,49503,49502,49503,49502,49503,49502,49503,49502,49503,49502,49503,49502,49503,49502,49503,49502,49503,49502,49503,49502,49503,49502,49503,49502,49503,49502,49503,49502,49503,49502,49503,49502,49503,49502,49503,49502,49503,49502,49503,49502,49503,49502,49503,49502,49503,49502,49503,49502,49503,49502,49503,49502,
49759,49758,49759,49758,49759,49758,49759,49758,49759,49758,49759,49758,49759,49758,49759,49758,49759,49758,49759,49758,49759,49758,49759,49758,49759,49758,49759,49758,49759,49758,49759,49758,49759,49758,49759,49758,49759,49758,49759,49758,49759,49758,49759,49758,49759,49758,49759,49758,49759,49758,49759,49758,49759,49758,49759,49758,49759,49758,49759,49758,49759,49758,49759,49758,49759,49758,49759,49758,49759,49758,49759,49758,49759,49758,49759,49758,49759,49758,49759,49758,49759,49758,49759,49758,49759,49758,49759,49758,49759,49758,49759,49758,49759,49758,49759,49758,49759,49758,49759,49758,49759,49758,49759,49758,49759,49758,49759,49758,49759,49758,49759,49758,49759,49758,49759,49758,49759,49758,49759,49758,49759,49758,49759,49758,49759,49758,49759,49758,49759,49758,49759,49758,49759,49758,49759,49758,49759,49758,49759,49758,49759,49758,49759,49758,49759,49758,49759,49758,49759,49758,49759,49758,49759,49758,49759,49758,49759,49758,49759,49758,49759,49758,49759,49758,49759,49758,49759,49758,49759,49758,49759,49758,49759,49758,49759,49758,49759,49758,49759,49758,49759,49758,49759,49758,49759,49758,49759,49758,49759,49758,49759,49758,49759,49758,49759,49758,49759,49758,49759,49758,
49503,49502,49503,49502,49503,49502,49503,49502,49503,49502,49503,49502,49503,49502,49503,49502,49503,49502,49503,49502,49503,49502,49503,49502,49503,49502,49503,49502,49503,49502,49503,49502,49503,49502,49503,49502,49503,49502,49503,49502,49503,49502,49503,49502,49503,49502,49503,49502,49503,49502,49503,49502,49503,49502,49503,49502,49503,49502,49503,49502,49503,49502,49503,49502,49503,49502,49503,49502,49503,49502,49503,49502,49503,49502,49503,49502,49503,49502,49503,49502,49503,49502,49503,49502,49503,49502,49503,49502,49503,49502,49503,49502,49503,49502,49503,49502,49503,49502,49503,49502,49503,49502,49503,49502,49503,49502,49503,49502,49503,49502,49503,49502,49503,49502,49503,49502,49503,49502,49503,49502,49503,49502,49503,49502,49503,49502,49503,49502,49503,49502,49503,49502,49503,49502,49503,49502,49503,49502,49503,49502,49503,49502,49503,49502,49503,49502,49503,49502,49503,49502,49503,49502,49503,49502,49503,49502,49503,49502,49503,49502,49503,49502,49503,49502,49503,49502,49503,49502,49503,49502,49503,49502,49503,49502,49503,49502,49503,49502,49503,49502,49503,49502,49503,49502,49503,49502,49503,49502,49503,49502,49503,49502,49503,49502,49503,49502,49503,49502,49503,49502,
49759,49758,49759,49758,49759,49758,49759,49758,49759,49758,49759,49758,49759,49758,49759,49758,49759,49758,49759,49758,49759,49758,49759,49758,49759,49758,49759,49758,49759,49758,49759,49758,49759,49758,49759,49758,49759,49758,49759,49758,49759,49758,49759,49758,49759,49758,49759,49758,49759,49758,49759,49758,49759,49758,49759,49758,49759,49758,49759,49758,49759,49758,49759,49758,49759,49758,49759,49758,49759,49758,49759,49758,49759,49758,49759,49758,49759,49758,49759,49758,49759,49758,49759,49758,49759,49758,49759,49758,49759,49758,49759,49758,49759,49758,49759,49758,49759,49758,49759,49758,49759,49758,49759,49758,49759,49758,49759,49758,49759,49758,49759,49758,49759,49758,49759,49758,49759,49758,49759,49758,49759,49758,49759,49758,49759,49758,49759,49758,49759,49758,49759,49758,49759,49758,49759,49758,49759,49758,49759,49758,49759,49758,49759,49758,49759,49758,49759,49758,49759,49758,49759,49758,49759,49758,49759,49758,49759,49758,49759,49758,49759,49758,49759,49758,49759,49758,49759,49758,49759,49758,49759,49758,49759,49758,49759,49758,49759,49758,49759,49758,49759,49758,49759,49758,49759,49758,49759,49758,49759,49758,49759,49758,49759,49758,49759,49758,49759,49758,49759,49758,
49503,49502,49503,49502,49503,49502,49503,49502,49503,49502,49503,49502,49503,49502,49503,49502,49503,49502,49503,49502,49503,49502,49503,49502,49503,49502,49503,49502,49503,49502,49503,49502,49503,49502,49503,49502,49503,49502,49503,49502,49503,49502,49503,49502,49503,49502,49503,49502,49503,49502,49503,49502,49503,49502,49503,49502,49503,49502,49503,49502,49503,49502,49503,49502,49503,49502,49503,49502,49503,49502,49503,49502,49503,49502,49503,49502,49503,49502,49503,49502,49503,49502,49503,49502,49503,49502,49503,49502,49503,49502,49503,49502,49503,49502,49503,49502,49503,49502,49503,49502,49503,49502,49503,49502,49503,49502,49503,49502,49503,49502,49503,49502,49503,49502,49503,49502,49503,49502,49503,49502,49503,49502,49503,49502,49503,49502,49503,49502,49503,49502,49503,49502,49503,49502,49503,49502,49503,49502,49503,49502,49503,49502,49503,49502,49503,49502,49503,49502,49503,49502,49503,49502,49503,49502,49503,49502,49503,49502,49503,49502,49503,49502,49503,49502,49503,49502,49503,49502,49503,49502,49503,49502,49503,49502,49503,49502,49503,49502,49503,49502,49503,49502,49503,49502,49503,49502,49503,49502,49503,49502,49503,49502,49503,49502,49503,49502,49503,49502,49503,49502,
49759,49758,49759,49758,49759,49758,49759,49758,49759,49758,49759,49758,49759,49758,49759,49758,49759,49758,49759,49758,49759,49758,49759,49758,49759,49758,49759,49758,49759,49758,49759,49758,49759,49758,49759,49758,49759,49758,49759,49758,49759,49758,49759,49758,49759,49758,49759,49758,49759,49758,49759,49758,49759,49758,49759,49758,49759,49758,49759,49758,49759,49758,49759,49758,49759,49758,49759,49758,49759,49758,49759,49758,49759,49758,49759,49758,49759,49758,49759,49758,49759,49758,49759,49758,49759,49758,49759,49758,49759,49758,49759,49758,49759,49758,49759,49758,49759,49758,49759,49758,49759,49758,49759,49758,49759,49758,49759,49758,49759,49758,49759,49758,49759,49758,49759,49758,49759,49758,49759,49758,49759,49758,49759,49758,49759,49758,49759,49758,49759,49758,49759,49758,49759,49758,49759,49758,49759,49758,49759,49758,49759,49758,49759,49758,49759,49758,49759,49758,49759,49758,49759,49758,49759,49758,49759,49758,49759,49758,49759,49758,49759,49758,49759,49758,49759,49758,49759,49758,49759,49758,49759,49758,49759,49758,49759,49758,49759,49758,49759,49758,49759,49758,49759,49758,49759,49758,49759,49758,49759,49758,49759,49758,49759,49758,49759,49758,49759,49758,49759,49758,
49503,49502,49503,49502,49503,49502,49503,49502,49503,49502,49503,49502,49503,49502,49503,49502,49503,49502,49503,49502,49503,49502,49503,49502,49503,49502,49503,49502,49503,49502,49503,49502,49503,49502,49503,49502,49503,49502,49503,49502,49503,49502,49503,49502,49503,49502,49503,49502,49503,49502,49503,49502,49503,49502,49503,49502,49503,49502,49503,49502,49503,49502,49503,49502,49503,49502,49503,49502,49503,49502,49503,49502,49503,49502,49503,49502,49503,49502,49503,49502,49503,49502,49503,49502,49503,49502,49503,49502,49503,49502,49503,49502,49503,49502,49503,49502,49503,49502,49503,49502,49503,49502,49503,49502,49503,49502,49503,49502,49503,49502,49503,49502,49503,49502,49503,49502,49503,49502,49503,49502,49503,49502,49503,49502,49503,49502,49503,49502,49503,49502,49503,49502,49503,49502,49503,49502,49503,49502,49503,49502,49503,49502,49503,49502,49503,49502,49503,49502,49503,49502,49503,49502,49503,49502,49503,49502,49503,49502,49503,49502,49503,49502,49503,49502,49503,49502,49503,49502,49503,49502,49503,49502,49503,49502,49503,49502,49503,49502,49503,49502,49503,49502,49503,49502,49503,49502,49503,49502,49503,49502,49503,49502,49503,49502,49503,49502,49503,49502,49503,49502,
49759,49758,49759,49758,49759,49758,49759,49758,49759,49758,49759,49758,49759,49758,49759,49758,49759,49758,49759,49758,49759,49758,49759,49758,49759,49758,49759,49758,49759,49758,49759,49758,49759,49758,49759,49758,49759,49758,49759,49758,49759,49758,49759,49758,49759,49758,49759,49758,49759,49758,49759,49758,49759,49758,49759,49758,49759,49758,49759,49758,49759,49758,49759,49758,49759,49758,49759,49758,49759,49758,49759,49758,49759,49758,49759,49758,49759,49758,49759,49758,49759,49758,49759,49758,49759,49758,49759,49758,49759,49758,49759,49758,49759,49758,49759,49758,49759,49758,49759,49758,49759,49758,49759,49758,49759,49758,49759,49758,49759,49758,49759,49758,49759,49758,49759,49758,49759,49758,49759,49758,49759,49758,49759,49758,49759,49758,49759,49758,49759,49758,49759,49758,49759,49758,49759,49758,49759,49758,49759,49758,49759,49758,49759,49758,49759,49758,49759,49758,49759,49758,49759,49758,49759,49758,49759,49758,49759,49758,49759,49758,49759,49758,49759,49758,49759,49758,49759,49758,49759,49758,49759,49758,49759,49758,49759,49758,49759,49758,49759,49758,49759,49758,49759,49758,49759,49758,49759,49758,49759,49758,49759,49758,49759,49758,49759,49758,49759,49758,49759,49758,
49503,49502,49503,49502,49503,49502,49503,49502,49503,49502,49503,49502,49503,49502,49503,49502,49503,49502,49503,49502,49503,49502,49503,49502,49503,49502,49503,49502,49503,49502,49503,49502,49503,49502,49503,49502,49503,49502,49503,49502,49503,49502,49503,49502,49503,49502,49503,49502,49503,49502,49503,49502,49503,49502,49503,49502,49503,49502,49503,49502,49503,49502,49503,49502,49503,49502,49503,49502,49503,49502,49503,49502,49503,49502,49503,49502,49503,49502,49503,49502,49503,49502,49503,49502,49503,49502,49503,49502,49503,49502,49503,49502,49503,49502,49503,49502,49503,49502,49503,49502,49503,49502,49503,49502,49503,49502,49503,49502,49503,49502,49503,49502,49503,49502,49503,49502,49503,49502,49503,49502,49503,49502,49503,49502,49503,49502,49503,49502,49503,49502,49503,49502,49503,49502,49503,49502,49503,49502,49503,49502,49503,49502,49503,49502,49503,49502,49503,49502,49503,49502,49503,49502,49503,49502,49503,49502,49503,49502,49503,49502,49503,49502,49503,49502,49503,49502,49503,49502,49503,49502,49503,49502,49503,49502,49503,49502,49503,49502,49503,49502,49503,49502,49503,49502,49503,49502,49503,49502,49503,49502,49503,49502,49503,49502,49503,49502,49503,49502,49503,49502,
49759,49758,49759,49758,49759,49758,49759,49758,49759,49758,49759,49758,49759,49758,49759,49758,49759,49758,49759,49758,49759,49758,49759,49758,49759,49758,49759,49758,49759,49758,49759,49758,49759,49758,49759,49758,49759,49758,49759,49758,49759,49758,49759,49758,49759,49758,49759,49758,49759,49758,49759,49758,49759,49758,49759,49758,49759,49758,49759,49758,49759,49758,49759,49758,49759,49758,49759,49758,49759,49758,49759,49758,49759,49758,49759,49758,49759,49758,49759,49758,49759,49758,49759,49758,49759,49758,49759,49758,49759,49758,49759,49758,49759,49758,49759,49758,49759,49758,49759,49758,49759,49758,49759,49758,49759,49758,49759,49758,49759,49758,49759,49758,49759,49758,49759,49758,49759,49758,49759,49758,49759,49758,49759,49758,49759,49758,49759,49758,49759,49758,49759,49758,49759,49758,49759,49758,49759,49758,49759,49758,49759,49758,49759,49758,49759,49758,49759,49758,49759,49758,49759,49758,49759,49758,49759,49758,49759,49758,49759,49758,49759,49758,49759,49758,49759,49758,49759,49758,49759,49758,49759,49758,49759,49758,49759,49758,49759,49758,49759,49758,49759,49758,49759,49758,49759,49758,49759,49758,49759,49758,49759,49758,49759,49758,49759,49758,49759,49758,49759,49758,
49503,49502,49503,49502,49503,49502,49503,49502,49503,49502,49503,49502,49503,49502,49503,49502,49503,49502,49503,49502,49503,49502,49503,49502,49503,49502,49503,49502,49503,49502,49503,49502,49503,49502,49503,49502,49503,49502,49503,49502,49503,49502,49503,49502,49503,49502,49503,49502,49503,49502,49503,49502,49503,49502,49503,49502,49503,49502,49503,49502,49503,49502,49503,49502,49503,49502,49503,49502,49503,49502,49503,49502,49503,49502,49503,49502,49503,49502,49503,49502,49503,49502,49503,49502,49503,49502,49503,49502,49503,49502,49503,49502,49503,49502,49503,49502,49503,49502,49503,49502,49503,49502,49503,49502,49503,49502,49503,49502,49503,49502,49503,49502,49503,49502,49503,49502,49503,49502,49503,49502,49503,49502,49503,49502,49503,49502,49503,49502,49503,49502,49503,49502,49503,49502,49503,49502,49503,49502,49503,49502,49503,49502,49503,49502,49503,49502,49503,49502,49503,49502,49503,49502,49503,49502,49503,49502,49503,49502,49503,49502,49503,49502,49503,49502,49503,49502,49503,49502,49503,49502,49503,49502,49503,49502,49503,49502,49503,49502,49503,49502,49503,49502,49503,49502,49503,49502,49503,49502,49503,49502,49503,49502,49503,49502,49503,49502,49503,49502,49503,49502,
49759,49758,49759,49758,49759,49758,49759,49758,49759,49758,49759,49758,49759,49758,49759,49758,49759,49758,49759,49758,49759,49758,49759,49758,49759,49758,49759,49758,49759,49758,49759,49758,49759,49758,49759,49758,49759,49758,49759,49758,49759,49758,49759,49758,49759,49758,49759,49758,49759,49758,49759,49758,49759,49758,49759,49758,49759,49758,49759,49758,49759,49758,49759,49758,49759,49758,49759,49758,49759,49758,49759,49758,49759,49758,49759,49758,49759,49758,49759,49758,49759,49758,49759,49758,49759,49758,49759,49758,49759,49758,49759,49758,49759,49758,49759,49758,49759,49758,49759,49758,49759,49758,49759,49758,49759,49758,49759,49758,49759,49758,49759,49758,49759,49758,49759,49758,49759,49758,49759,49758,49759,49758,49759,49758,49759,49758,49759,49758,49759,49758,49759,49758,49759,49758,49759,49758,49759,49758,49759,49758,49759,49758,49759,49758,49759,49758,49759,49758,49759,49758,49759,49758,49759,49758,49759,49758,49759,49758,49759,49758,49759,49758,49759,49758,49759,49758,49759,49758,49759,49758,49759,49758,49759,49758,49759,49758,49759,49758,49759,49758,49759,49758,49759,49758,49759,49758,49759,49758,49759,49758,49759,49758,49759,49758,49759,49758,49759,49758,49759,49758,
49503,49502,49503,49502,49503,49502,49503,49502,49503,49502,49503,49502,49503,49502,49503,49502,49503,49502,49503,49502,49503,49502,49503,49502,49503,49502,49503,49502,49503,49502,49503,49502,49503,49502,49503,49502,49503,49502,49503,49502,49503,49502,49503,49502,49503,49502,49503,49502,49503,49502,49503,49502,49503,49502,49503,49502,49503,49502,49503,49502,49503,49502,49503,49502,49503,49502,49503,49502,49503,49502,49503,49502,49503,49502,49503,49502,49503,49502,49503,49502,49503,49502,49503,49502,49503,49502,49503,49502,49503,49502,49503,49502,49503,49502,49503,49502,49503,49502,49503,49502,49503,49502,49503,49502,49503,49502,49503,49502,49503,49502,49503,49502,49503,49502,49503,49502,49503,49502,49503,49502,49503,49502,49503,49502,49503,49502,49503,49502,49503,49502,49503,49502,49503,49502,49503,49502,49503,49502,49503,49502,49503,49502,49503,49502,49503,49502,49503,49502,49503,49502,49503,49502,49503,49502,49503,49502,49503,49502,49503,49502,49503,49502,49503,49502,49503,49502,49503,49502,49503,49502,49503,49502,49503,49502,49503,49502,49503,49502,49503,49502,49503,49502,49503,49502,49503,49502,49503,49502,49503,49502,49503,49502,49503,49502,49503,49502,49503,49502,49503,49502,
49759,49758,49759,49758,49759,49758,49759,49758,49759,49758,49759,49758,49759,49758,49759,49758,49759,49758,49759,49758,49759,49758,49759,49758,49759,49758,49759,49758,49759,49758,49759,49758,49759,49758,49759,49758,49759,49758,49759,49758,49759,49758,49759,49758,49759,49758,49759,49758,49759,49758,49759,49758,49759,49758,49759,49758,49759,49758,49759,49758,49759,49758,49759,49758,49759,49758,49759,49758,49759,49758,49759,49758,49759,49758,49759,49758,49759,49758,49759,49758,49759,49758,49759,49758,49759,49758,49759,49758,49759,49758,49759,49758,49759,49758,49759,49758,49759,49758,49759,49758,49759,49758,49759,49758,49759,49758,49759,49758,49759,49758,49759,49758,49759,49758,49759,49758,49759,49758,49759,49758,49759,49758,49759,49758,49759,49758,49759,49758,49759,49758,49759,49758,49759,49758,49759,49758,49759,49758,49759,49758,49759,49758,49759,49758,49759,49758,49759,49758,49759,49758,49759,49758,49759,49758,49759,49758,49759,49758,49759,49758,49759,49758,49759,49758,49759,49758,49759,49758,49759,49758,49759,49758,49759,49758,49759,49758,49759,49758,49759,49758,49759,49758,49759,49758,49759,49758,49759,49758,49759,49758,49759,49758,49759,49758,49759,49758,49759,49758,49759,49758,
49503,49502,49503,49502,49503,49502,49503,49502,49503,49502,49503,49502,49503,49502,49503,49502,49503,49502,49503,49502,49503,49502,49503,49502,49503,49502,49503,49502,49503,49502,49503,49502,49503,49502,49503,49502,49503,49502,49503,49502,49503,49502,49503,49502,49503,49502,49503,49502,49503,49502,49503,49502,49503,49502,49503,49502,49503,49502,49503,49502,49503,49502,49503,49502,49503,49502,49503,49502,49503,49502,49503,49502,49503,49502,49503,49502,49503,49502,49503,49502,49503,49502,49503,49502,49503,49502,49503,49502,49503,49502,49503,49502,49503,49502,49503,49502,49503,49502,49503,49502,49503,49502,49503,49502,49503,49502,49503,49502,49503,49502,49503,49502,49503,49502,49503,49502,49503,49502,49503,49502,49503,49502,49503,49502,49503,49502,49503,49502,49503,49502,49503,49502,49503,49502,49503,49502,49503,49502,49503,49502,49503,49502,49503,49502,49503,49502,49503,49502,49503,49502,49503,49502,49503,49502,49503,49502,49503,49502,49503,49502,49503,49502,49503,49502,49503,49502,49503,49502,49503,49502,49503,49502,49503,49502,49503,49502,49503,49502,49503,49502,49503,49502,49503,49502,49503,49502,49503,49502,49503,49502,49503,49502,49503,49502,49503,49502,49503,49502,49503,49502,
49759,49758,49759,49758,49759,49758,49759,49758,49759,49758,49759,49758,49759,49758,49759,49758,49759,49758,49759,49758,49759,49758,49759,49758,49759,49758,49759,49758,49759,49758,49759,49758,49759,49758,49759,49758,49759,49758,49759,49758,49759,49758,49759,49758,49759,49758,49759,49758,49759,49758,49759,49758,49759,49758,49759,49758,49759,49758,49759,49758,49759,49758,49759,49758,49759,49758,49759,49758,49759,49758,49759,49758,49759,49758,49759,49758,49759,49758,49759,49758,49759,49758,49759,49758,49759,49758,49759,49758,49759,49758,49759,49758,49759,49758,49759,49758,49759,49758,49759,49758,49759,49758,49759,49758,49759,49758,49759,49758,49759,49758,49759,49758,49759,49758,49759,49758,49759,49758,49759,49758,49759,49758,49759,49758,49759,49758,49759,49758,49759,49758,49759,49758,49759,49758,49759,49758,49759,49758,49759,49758,49759,49758,49759,49758,49759,49758,49759,49758,49759,49758,49759,49758,49759,49758,49759,49758,49759,49758,49759,49758,49759,49758,49759,49758,49759,49758,49759,49758,49759,49758,49759,49758,49759,49758,49759,49758,49759,49758,49759,49758,49759,49758,49759,49758,49759,49758,49759,49758,49759,49758,49759,49758,49759,49758,49759,49758,49759,49758,49759,49758,
49503,49502,49503,49502,49503,49502,49503,49502,49503,49502,49503,49502,49503,49502,49503,49502,49503,49502,49503,49502,49503,49502,49503,49502,49503,49502,49503,49502,49503,49502,49503,49502,49503,49502,49503,49502,49503,49502,49503,49502,49503,49502,49503,49502,49503,49502,49503,49502,49503,49502,49503,49502,49503,49502,49503,49502,49503,49502,49503,49502,49503,49502,49503,49502,49503,49502,49503,49502,49503,49502,49503,49502,49503,49502,49503,49502,49503,49502,49503,49502,49503,49502,49503,49502,49503,49502,49503,49502,49503,49502,49503,49502,49503,49502,49503,49502,49503,49502,49503,49502,49503,49502,49503,49502,49503,49502,49503,49502,49503,49502,49503,49502,49503,49502,49503,49502,49503,49502,49503,49502,49503,49502,49503,49502,49503,49502,49503,49502,49503,49502,49503,49502,49503,49502,49503,49502,49503,49502,49503,49502,49503,49502,49503,49502,49503,49502,49503,49502,49503,49502,49503,49502,49503,49502,49503,49502,49503,49502,49503,49502,49503,49502,49503,49502,49503,49502,49503,49502,49503,49502,49503,49502,49503,49502,49503,49502,49503,49502,49503,49502,49503,49502,49503,49502,49503,49502,49503,49502,49503,49502,49503,49502,49503,49502,49503,49502,49503,49502,49503,49502,
49759,49758,49759,49758,49759,49758,49759,49758,49759,49758,49759,49758,49759,49758,49759,49758,49759,49758,49759,49758,49759,49758,49759,49758,49759,49758,49759,49758,49759,49758,49759,49758,49759,49758,49759,49758,49759,49758,49759,49758,49759,49758,49759,49758,49759,49758,49759,49758,49759,49758,49759,49758,49759,49758,49759,49758,49759,49758,49759,49758,49759,49758,49759,49758,49759,49758,49759,49758,49759,49758,49759,49758,49759,49758,49759,49758,49759,49758,49759,49758,49759,49758,49759,49758,49759,49758,49759,49758,49759,49758,49759,49758,49759,49758,49759,49758,49759,49758,49759,49758,49759,49758,49759,49758,49759,49758,49759,49758,49759,49758,49759,49758,49759,49758,49759,49758,49759,49758,49759,49758,49759,49758,49759,49758,49759,49758,49759,49758,49759,49758,49759,49758,49759,49758,49759,49758,49759,49758,49759,49758,49759,49758,49759,49758,49759,49758,49759,49758,49759,49758,49759,49758,49759,49758,49759,49758,49759,49758,49759,49758,49759,49758,49759,49758,49759,49758,49759,49758,49759,49758,49759,49758,49759,49758,49759,49758,49759,49758,49759,49758,49759,49758,49759,49758,49759,49758,49759,49758,49759,49758,49759,49758,49759,49758,49759,49758,49759,49758,49759,49758,
49503,49502,49503,49502,49503,49502,49503,49502,49503,49502,49503,49502,49503,49502,49503,49502,49503,49502,49503,49502,49503,49502,49503,49502,49503,49502,49503,49502,49503,49502,49503,49502,49503,49502,49503,49502,49503,49502,49503,49502,49503,49502,49503,49502,49503,49502,49503,49502,49503,49502,49503,49502,49503,49502,49503,49502,49503,49502,49503,49502,49503,49502,49503,49502,49503,49502,49503,49502,49503,49502,49503,49502,49503,49502,49503,49502,49503,49502,49503,49502,49503,49502,49503,49502,49503,49502,49503,49502,49503,49502,49503,49502,49503,49502,49503,49502,49503,49502,49503,49502,49503,49502,49503,49502,49503,49502,49503,49502,49503,49502,49503,49502,49503,49502,49503,49502,49503,49502,49503,49502,49503,49502,49503,49502,49503,49502,49503,49502,49503,49502,49503,49502,49503,49502,49503,49502,49503,49502,49503,49502,49503,49502,49503,49502,49503,49502,49503,49502,49503,49502,49503,49502,49503,49502,49503,49502,49503,49502,49503,49502,49503,49502,49503,49502,49503,49502,49503,49502,49503,49502,49503,49502,49503,49502,49503,49502,49503,49502,49503,49502,49503,49502,49503,49502,49503,49502,49503,49502,49503,49502,49503,49502,49503,49502,49503,49502,49503,49502,49503,49502,
49759,49758,49759,49758,49759,49758,49759,49758,49759,49758,49759,49758,49759,49758,49759,49758,49759,49758,49759,49758,49759,49758,49759,49758,49759,49758,49759,49758,49759,49758,49759,49758,49759,49758,49759,49758,49759,49758,49759,49758,49759,49758,49759,49758,49759,49758,49759,49758,49759,49758,49759,49758,49759,49758,49759,49758,49759,49758,49759,49758,49759,49758,49759,49758,49759,49758,49759,49758,49759,49758,49759,49758,49759,49758,49759,49758,49759,49758,49759,49758,49759,49758,49759,49758,49759,49758,49759,49758,49759,49758,49759,49758,49759,49758,49759,49758,49759,49758,49759,49758,49759,49758,49759,49758,49759,49758,49759,49758,49759,49758,49759,49758,49759,49758,49759,49758,49759,49758,49759,49758,49759,49758,49759,49758,49759,49758,49759,49758,49759,49758,49759,49758,49759,49758,49759,49758,49759,49758,49759,49758,49759,49758,49759,49758,49759,49758,49759,49758,49759,49758,49759,49758,49759,49758,49759,49758,49759,49758,49759,49758,49759,49758,49759,49758,49759,49758,49759,49758,49759,49758,49759,49758,49759,49758,49759,49758,49759,49758,49759,49758,49759,49758,49759,49758,49759,49758,49759,49758,49759,49758,49759,49758,49759,49758,49759,49758,49759,49758,49759,49758,
49503,49502,49503,49502,49503,49502,49503,49502,49503,49502,49503,49502,49503,49502,49503,49502,49503,49502,49503,49502,49503,49502,49503,49502,49503,49502,49503,49502,49503,49502,49503,49502,49503,49502,49503,49502,49503,49502,49503,49502,49503,49502,49503,49502,49503,49502,49503,49502,49503,49502,49503,49502,49503,49502,49503,49502,49503,49502,49503,49502,49503,49502,49503,49502,49503,49502,49503,49502,49503,49502,49503,49502,49503,49502,49503,49502,49503,49502,49503,49502,49503,49502,49503,49502,49503,49502,49503,49502,49503,49502,49503,49502,49503,49502,49503,49502,49503,49502,49503,49502,49503,49502,49503,49502,49503,49502,49503,49502,49503,49502,49503,49502,49503,49502,49503,49502,49503,49502,49503,49502,49503,49502,49503,49502,49503,49502,49503,49502,49503,49502,49503,49502,49503,49502,49503,49502,49503,49502,49503,49502,49503,49502,49503,49502,49503,49502,49503,49502,49503,49502,49503,49502,49503,49502,49503,49502,49503,49502,49503,49502,49503,49502,49503,49502,49503,49502,49503,49502,49503,49502,49503,49502,49503,49502,49503,49502,49503,49502,49503,49502,49503,49502,49503,49502,49503,49502,49503,49502,49503,49502,49503,49502,49503,49502,49503,49502,49503,49502,49503,49502,
49759,49758,49759,49758,49759,49758,49759,49758,49759,49758,49759,49758,49759,49758,49759,49758,49759,49758,49759,49758,49759,49758,49759,49758,49759,49758,49759,49758,49759,49758,49759,49758,49759,49758,49759,49758,49759,49758,49759,49758,49759,49758,49759,49758,49759,49758,49759,49758,49759,49758,49759,49758,49759,49758,49759,49758,49759,49758,49759,49758,49759,49758,49759,49758,49759,49758,49759,49758,49759,49758,49759,49758,49759,49758,49759,49758,49759,49758,49759,49758,49759,49758,49759,49758,49759,49758,49759,49758,49759,49758,49759,49758,49759,49758,49759,49758,49759,49758,49759,49758,49759,49758,49759,49758,49759,49758,49759,49758,49759,49758,49759,49758,49759,49758,49759,49758,49759,49758,49759,49758,49759,49758,49759,49758,49759,49758,49759,49758,49759,49758,49759,49758,49759,49758,49759,49758,49759,49758,49759,49758,49759,49758,49759,49758,49759,49758,49759,49758,49759,49758,49759,49758,49759,49758,49759,49758,49759,49758,49759,49758,49759,49758,49759,49758,49759,49758,49759,49758,49759,49758,49759,49758,49759,49758,49759,49758,49759,49758,49759,49758,49759,49758,49759,49758,49759,49758,49759,49758,49759,49758,49759,49758,49759,49758,49759,49758,49759,49758,49759,49758,
49503,49502,49503,49502,49503,49502,49503,49502,49503,49502,49503,49502,49503,49502,49503,49502,49503,49502,49503,49502,49503,49502,49503,49502,49503,49502,49503,49502,49503,49502,49503,49502,49503,49502,49503,49502,49503,49502,49503,49502,49503,49502,49503,49502,49503,49502,49503,49502,49503,49502,49503,49502,49503,49502,49503,49502,49503,49502,49503,49502,49503,49502,49503,49502,49503,49502,49503,49502,49503,49502,49503,49502,49503,49502,49503,49502,49503,49502,49503,49502,49503,49502,49503,49502,49503,49502,49503,49502,49503,49502,49503,49502,49503,49502,49503,49502,49503,49502,49503,49502,49503,49502,49503,49502,49503,49502,49503,49502,49503,49502,49503,49502,49503,49502,49503,49502,49503,49502,49503,49502,49503,49502,49503,49502,49503,49502,49503,49502,49503,49502,49503,49502,49503,49502,49503,49502,49503,49502,49503,49502,49503,49502,49503,49502,49503,49502,49503,49502,49503,49502,49503,49502,49503,49502,49503,49502,49503,49502,49503,49502,49503,49502,49503,49502,49503,49502,49503,49502,49503,49502,49503,49502,49503,49502,49503,49502,49503,49502,49503,49502,49503,49502,49503,49502,49503,49502,49503,49502,49503,49502,49503,49502,49503,49502,49503,49502,49503,49502,49503,49502,
49759,49758,49759,49758,49759,49758,49759,49758,49759,49758,49759,49758,49759,49758,49759,49758,49759,49758,49759,49758,49759,49758,49759,49758,49759,49758,49759,49758,49759,49758,49759,49758,49759,49758,49759,49758,49759,49758,49759,49758,49759,49758,49759,49758,49759,49758,49759,49758,49759,49758,49759,49758,49759,49758,49759,49758,49759,49758,49759,49758,49759,49758,49759,49758,49759,49758,49759,49758,49759,49758,49759,49758,49759,49758,49759,49758,49759,49758,49759,49758,49759,49758,49759,49758,49759,49758,49759,49758,49759,49758,49759,49758,49759,49758,49759,49758,49759,49758,49759,49758,49759,49758,49759,49758,49759,49758,49759,49758,49759,49758,49759,49758,49759,49758,49759,49758,49759,49758,49759,49758,49759,49758,49759,49758,49759,49758,49759,49758,49759,49758,49759,49758,49759,49758,49759,49758,49759,49758,49759,49758,49759,49758,49759,49758,49759,49758,49759,49758,49759,49758,49759,49758,49759,49758,49759,49758,49759,49758,49759,49758,49759,49758,49759,49758,49759,49758,49759,49758,49759,49758,49759,49758,49759,49758,49759,49758,49759,49758,49759,49758,49759,49758,49759,49758,49759,49758,49759,49758,49759,49758,49759,49758,49759,49758,49759,49758,49759,49758,49759,49758,
49503,49502,49503,49502,49503,49502,49503,49502,49503,49502,49503,49502,49503,49502,49503,49502,49503,49502,49503,49502,49503,49502,49503,49502,49503,49502,49503,49502,49503,49502,49503,49502,49503,49502,49503,49502,49503,49502,49503,49502,49503,49502,49503,49502,49503,49502,49503,49502,49503,49502,49503,49502,49503,49502,49503,49502,49503,49502,49503,49502,49503,49502,49503,49502,49503,49502,49503,49502,49503,49502,49503,49502,49503,49502,49503,49502,49503,49502,49503,49502,49503,49502,49503,49502,49503,49502,49503,49502,49503,49502,49503,49502,49503,49502,49503,49502,49503,49502,49503,49502,49503,49502,49503,49502,49503,49502,49503,49502,49503,49502,49503,49502,49503,49502,49503,49502,49503,49502,49503,49502,49503,49502,49503,49502,49503,49502,49503,49502,49503,49502,49503,49502,49503,49502,49503,49502,49503,49502,49503,49502,49503,49502,49503,49502,49503,49502,49503,49502,49503,49502,49503,49502,49503,49502,49503,49502,49503,49502,49503,49502,49503,49502,49503,49502,49503,49502,49503,49502,49503,49502,49503,49502,49503,49502,49503,49502,49503,49502,49503,49502,49503,49502,49503,49502,49503,49502,49503,49502,49503,49502,49503,49502,49503,49502,49503,49502,49503,49502,49503,49502,
49759,49758,49759,49758,49759,49758,49759,49758,49759,49758,49759,49758,49759,49758,49759,49758,49759,49758,49759,49758,49759,49758,49759,49758,49759,49758,49759,49758,49759,49758,49759,49758,49759,49758,49759,49758,49759,49758,49759,49758,49759,49758,49759,49758,49759,49758,49759,49758,49759,49758,49759,49758,49759,49758,49759,49758,49759,49758,49759,49758,49759,49758,49759,49758,49759,49758,49759,49758,49759,49758,49759,49758,49759,49758,49759,49758,49759,49758,49759,49758,49759,49758,49759,49758,49759,49758,49759,49758,49759,49758,49759,49758,49759,49758,49759,49758,49759,49758,49759,49758,49759,49758,49759,49758,49759,49758,49759,49758,49759,49758,49759,49758,49759,49758,49759,49758,49759,49758,49759,49758,49759,49758,49759,49758,49759,49758,49759,49758,49759,49758,49759,49758,49759,49758,49759,49758,49759,49758,49759,49758,49759,49758,49759,49758,49759,49758,49759,49758,49759,49758,49759,49758,49759,49758,49759,49758,49759,49758,49759,49758,49759,49758,49759,49758,49759,49758,49759,49758,49759,49758,49759,49758,49759,49758,49759,49758,49759,49758,49759,49758,49759,49758,49759,49758,49759,49758,49759,49758,49759,49758,49759,49758,49759,49758,49759,49758,49759,49758,49759,49758,
49503,49502,49503,49502,49503,49502,49503,49502,49503,49502,49503,49502,49503,49502,49503,49502,49503,49502,49503,49502,49503,49502,49503,49502,49503,49502,49503,49502,49503,49502,49503,49502,49503,49502,49503,49502,49503,49502,49503,49502,49503,49502,49503,49502,49503,49502,49503,49502,49503,49502,49503,49502,49503,49502,49503,49502,49503,49502,49503,49502,49503,49502,49503,49502,49503,49502,49503,49502,49503,49502,49503,49502,49503,49502,49503,49502,49503,49502,49503,49502,49503,49502,49503,49502,49503,49502,49503,49502,49503,49502,49503,49502,49503,49502,49503,49502,49503,49502,49503,49502,49503,49502,49503,49502,49503,49502,49503,49502,49503,49502,49503,49502,49503,49502,49503,49502,49503,49502,49503,49502,49503,49502,49503,49502,49503,49502,49503,49502,49503,49502,49503,49502,49503,49502,49503,49502,49503,49502,49503,49502,49503,49502,49503,49502,49503,49502,49503,49502,49503,49502,49503,49502,49503,49502,49503,49502,49503,49502,49503,49502,49503,49502,49503,49502,49503,49502,49503,49502,49503,49502,49503,49502,49503,49502,49503,49502,49503,49502,49503,49502,49503,49502,49503,49502,49503,49502,49503,49502,49503,49502,49503,49502,49503,49502,49503,49502,49503,49502,49503,49502,
49759,49758,49759,49758,49759,49758,49759,49758,49759,49758,49759,49758,49759,49758,49759,49758,49759,49758,49759,49758,49759,49758,49759,49758,49759,49758,49759,49758,49759,49758,49759,49758,49759,49758,49759,49758,49759,49758,49759,49758,49759,49758,49759,49758,49759,49758,49759,49758,49759,49758,49759,49758,49759,49758,49759,49758,49759,49758,49759,49758,49759,49758,49759,49758,49759,49758,49759,49758,49759,49758,49759,49758,49759,49758,49759,49758,49759,49758,49759,49758,49759,49758,49759,49758,49759,49758,49759,49758,49759,49758,49759,49758,49759,49758,49759,49758,49759,49758,49759,49758,49759,49758,49759,49758,49759,49758,49759,49758,49759,49758,49759,49758,49759,49758,49759,49758,49759,49758,49759,49758,49759,49758,49759,49758,49759,49758,49759,49758,49759,49758,49759,49758,49759,49758,49759,49758,49759,49758,49759,49758,49759,49758,49759,49758,49759,49758,49759,49758,49759,49758,49759,49758,49759,49758,49759,49758,49759,49758,49759,49758,49759,49758,49759,49758,49759,49758,49759,49758,49759,49758,49759,49758,49759,49758,49759,49758,49759,49758,49759,49758,49759,49758,49759,49758,49759,49758,49759,49758,49759,49758,49759,49758,49759,49758,49759,49758,49759,49758,49759,49758,
49503,49502,49503,49502,49503,49502,49503,49502,49503,49502,49503,49502,49503,49502,49503,49502,49503,49502,49503,49502,49503,49502,49503,49502,49503,49502,49503,49502,49503,49502,49503,49502,49503,49502,49503,49502,49503,49502,49503,49502,49503,49502,49503,49502,49503,49502,49503,49502,49503,49502,49503,49502,49503,49502,49503,49502,49503,49502,49503,49502,49503,49502,49503,49502,49503,49502,49503,49502,49503,49502,49503,49502,49503,49502,49503,49502,49503,49502,49503,49502,49503,49502,49503,49502,49503,49502,49503,49502,49503,49502,49503,49502,49503,49502,49503,49502,49503,49502,49503,49502,49503,49502,49503,49502,49503,49502,49503,49502,49503,49502,49503,49502,49503,49502,49503,49502,49503,49502,49503,49502,49503,49502,49503,49502,49503,49502,49503,49502,49503,49502,49503,49502,49503,49502,49503,49502,49503,49502,49503,49502,49503,49502,49503,49502,49503,49502,49503,49502,49503,49502,49503,49502,49503,49502,49503,49502,49503,49502,49503,49502,49503,49502,49503,49502,49503,49502,49503,49502,49503,49502,49503,49502,49503,49502,49503,49502,49503,49502,49503,49502,49503,49502,49503,49502,49503,49502,49503,49502,49503,49502,49503,49502,49503,49502,49503,49502,49503,49502,49503,49502,
49759,49758,49759,49758,49759,49758,49759,49758,49759,49758,49759,49758,49759,49758,49759,49758,49759,49758,49759,49758,49759,49758,49759,49758,49759,49758,49759,49758,49759,49758,49759,49758,49759,49758,49759,49758,49759,49758,49759,49758,49759,49758,49759,49758,49759,49758,49759,49758,49759,49758,49759,49758,49759,49758,49759,49758,49759,49758,49759,49758,49759,49758,49759,49758,49759,49758,49759,49758,49759,49758,49759,49758,49759,49758,49759,49758,49759,49758,49759,49758,49759,49758,49759,49758,49759,49758,49759,49758,49759,49758,49759,49758,49759,49758,49759,49758,49759,49758,49759,49758,49759,49758,49759,49758,49759,49758,49759,49758,49759,49758,49759,49758,49759,49758,49759,49758,49759,49758,49759,49758,49759,49758,49759,49758,49759,49758,49759,49758,49759,49758,49759,49758,49759,49758,49759,49758,49759,49758,49759,49758,49759,49758,49759,49758,49759,49758,49759,49758,49759,49758,49759,49758,49759,49758,49759,49758,49759,49758,49759,49758,49759,49758,49759,49758,49759,49758,49759,49758,49759,49758,49759,49758,49759,49758,49759,49758,49759,49758,49759,49758,49759,49758,49759,49758,49759,49758,49759,49758,49759,49758,49759,49758,49759,49758,49759,49758,49759,49758,49759,49758,
49503,49502,49503,49502,49503,49502,49503,49502,49503,49502,49503,49502,49503,49502,49503,49502,49503,49502,49503,49502,49503,49502,49503,49502,49503,49502,49503,49502,49503,49502,49503,49502,49503,49502,49503,49502,49503,49502,49503,49502,49503,49502,49503,49502,49503,49502,49503,49502,49503,49502,49503,49502,49503,49502,49503,49502,49503,49502,49503,49502,49503,49502,49503,49502,49503,49502,49503,49502,49503,49502,49503,49502,49503,49502,49503,49502,49503,49502,49503,49502,49503,49502,49503,49502,49503,49502,49503,49502,49503,49502,49503,49502,49503,49502,49503,49502,49503,49502,49503,49502,49503,49502,49503,49502,49503,49502,49503,49502,49503,49502,49503,49502,49503,49502,49503,49502,49503,49502,49503,49502,49503,49502,49503,49502,49503,49502,49503,49502,49503,49502,49503,49502,49503,49502,49503,49502,49503,49502,49503,49502,49503,49502,49503,49502,49503,49502,49503,49502,49503,49502,49503,49502,49503,49502,49503,49502,49503,49502,49503,49502,49503,49502,49503,49502,49503,49502,49503,49502,49503,49502,49503,49502,49503,49502,49503,49502,49503,49502,49503,49502,49503,49502,49503,49502,49503,49502,49503,49502,49503,49502,49503,49502,49503,49502,49503,49502,49503,49502,49503,49502,
49759,49758,49759,49758,49759,49758,49759,49758,49759,49758,49759,49758,49759,49758,49759,49758,49759,49758,49759,49758,49759,49758,49759,49758,49759,49758,49759,49758,49759,49758,49759,49758,49759,49758,49759,49758,49759,49758,49759,49758,49759,49758,49759,49758,49759,49758,49759,49758,49759,49758,49759,49758,49759,49758,49759,49758,49759,49758,49759,49758,49759,49758,49759,49758,49759,49758,49759,49758,49759,49758,49759,49758,49759,49758,49759,49758,49759,49758,49759,49758,49759,49758,49759,49758,49759,49758,49759,49758,49759,49758,49759,49758,49759,49758,49759,49758,49759,49758,49759,49758,49759,49758,49759,49758,49759,49758,49759,49758,49759,49758,49759,49758,49759,49758,49759,49758,49759,49758,49759,49758,49759,49758,49759,49758,49759,49758,49759,49758,49759,49758,49759,49758,49759,49758,49759,49758,49759,49758,49759,49758,49759,49758,49759,49758,49759,49758,49759,49758,49759,49758,49759,49758,49759,49758,49759,49758,49759,49758,49759,49758,49759,49758,49759,49758,49759,49758,49759,49758,49759,49758,49759,49758,49759,49758,49759,49758,49759,49758,49759,49758,49759,49758,49759,49758,49759,49758,49759,49758,49759,49758,49759,49758,49759,49758,49759,49758,49759,49758,49759,49758,
49503,49502,49503,49502,49503,49502,49503,49502,49503,49502,49503,49502,49503,49502,49503,49502,49503,49502,49503,49502,49503,49502,49503,49502,49503,49502,49503,49502,49503,49502,49503,49502,49503,49502,49503,49502,49503,49502,49503,49502,49503,49502,49503,49502,49503,49502,49503,49502,49503,49502,49503,49502,49503,49502,49503,49502,49503,49502,49503,49502,49503,49502,49503,49502,49503,49502,49503,49502,49503,49502,49503,49502,49503,49502,49503,49502,49503,49502,49503,49502,49503,49502,49503,49502,49503,49502,49503,49502,49503,49502,49503,49502,49503,49502,49503,49502,49503,49502,49503,49502,49503,49502,49503,49502,49503,49502,49503,49502,49503,49502,49503,49502,49503,49502,49503,49502,49503,49502,49503,49502,49503,49502,49503,49502,49503,49502,49503,49502,49503,49502,49503,49502,49503,49502,49503,49502,49503,49502,49503,49502,49503,49502,49503,49502,49503,49502,49503,49502,49503,49502,49503,49502,49503,49502,49503,49502,49503,49502,49503,49502,49503,49502,49503,49502,49503,49502,49503,49502,49503,49502,49503,49502,49503,49502,49503,49502,49503,49502,49503,49502,49503,49502,49503,49502,49503,49502,49503,49502,49503,49502,49503,49502,49503,49502,49503,49502,49503,49502,49503,49502,
49759,49758,49759,49758,49759,49758,49759,49758,49759,49758,49759,49758,49759,49758,49759,49758,49759,49758,49759,49758,49759,49758,49759,49758,49759,49758,49759,49758,49759,49758,49759,49758,49759,49758,49759,49758,49759,49758,49759,49758,49759,49758,49759,49758,49759,49758,49759,49758,49759,49758,49759,49758,49759,49758,49759,49758,49759,49758,49759,49758,49759,49758,49759,49758,49759,49758,49759,49758,49759,49758,49759,49758,49759,49758,49759,49758,49759,49758,49759,49758,49759,49758,49759,49758,49759,49758,49759,49758,49759,49758,49759,49758,49759,49758,49759,49758,49759,49758,49759,49758,49759,49758,49759,49758,49759,49758,49759,49758,49759,49758,49759,49758,49759,49758,49759,49758,49759,49758,49759,49758,49759,49758,49759,49758,49759,49758,49759,49758,49759,49758,49759,49758,49759,49758,49759,49758,49759,49758,49759,49758,49759,49758,49759,49758,49759,49758,49759,49758,49759,49758,49759,49758,49759,49758,49759,49758,49759,49758,49759,49758,49759,49758,49759,49758,49759,49758,49759,49758,49759,49758,49759,49758,49759,49758,49759,49758,49759,49758,49759,49758,49759,49758,49759,49758,49759,49758,49759,49758,49759,49758,49759,49758,49759,49758,49759,49758,49759,49758,49759,49758,
49503,49502,49503,49502,49503,49502,49503,49502,49503,49502,49503,49502,49503,49502,49503,49502,49503,49502,49503,49502,49503,49502,49503,49502,49503,49502,49503,49502,49503,49502,49503,49502,49503,49502,49503,49502,49503,49502,49503,49502,49503,49502,49503,49502,49503,49502,49503,49502,49503,49502,49503,49502,49503,49502,49503,49502,49503,49502,49503,49502,49503,49502,49503,49502,49503,49502,49503,49502,49503,49502,49503,49502,49503,49502,49503,49502,49503,49502,49503,49502,49503,49502,49503,49502,49503,49502,49503,49502,49503,49502,49503,49502,49503,49502,49503,49502,49503,49502,49503,49502,49503,49502,49503,49502,49503,49502,49503,49502,49503,49502,49503,49502,49503,49502,49503,49502,49503,49502,49503,49502,49503,49502,49503,49502,49503,49502,49503,49502,49503,49502,49503,49502,49503,49502,49503,49502,49503,49502,49503,49502,49503,49502,49503,49502,49503,49502,49503,49502,49503,49502,49503,49502,49503,49502,49503,49502,49503,49502,49503,49502,49503,49502,49503,49502,49503,49502,49503,49502,49503,49502,49503,49502,49503,49502,49503,49502,49503,49502,49503,49502,49503,49502,49503,49502,49503,49502,49503,49502,49503,49502,49503,49502,49503,49502,49503,49502,49503,49502,49503,49502,
49759,49758,49759,49758,49759,49758,49759,49758,49759,49758,49759,49758,49759,49758,49759,49758,49759,49758,49759,49758,49759,49758,49759,49758,49759,49758,49759,49758,49759,49758,49759,49758,49759,49758,49759,49758,49759,49758,49759,49758,49759,49758,49759,49758,49759,49758,49759,49758,49759,49758,49759,49758,49759,49758,49759,49758,49759,49758,49759,49758,49759,49758,49759,49758,49759,49758,49759,49758,49759,49758,49759,49758,49759,49758,49759,49758,49759,49758,49759,49758,49759,49758,49759,49758,49759,49758,49759,49758,49759,49758,49759,49758,49759,49758,49759,49758,49759,49758,49759,49758,49759,49758,49759,49758,49759,49758,49759,49758,49759,49758,49759,49758,49759,49758,49759,49758,49759,49758,49759,49758,49759,49758,49759,49758,49759,49758,49759,49758,49759,49758,49759,49758,49759,49758,49759,49758,49759,49758,49759,49758,49759,49758,49759,49758,49759,49758,49759,49758,49759,49758,49759,49758,49759,49758,49759,49758,49759,49758,49759,49758,49759,49758,49759,49758,49759,49758,49759,49758,49759,49758,49759,49758,49759,49758,49759,49758,49759,49758,49759,49758,49759,49758,49759,49758,49759,49758,49759,49758,49759,49758,49759,49758,49759,49758,49759,49758,49759,49758,49759,49758,
49503,49502,49503,49502,49503,49502,49503,49502,49503,49502,49503,49502,49503,49502,49503,49502,49503,49502,49503,49502,49503,49502,49503,49502,49503,49502,49503,49502,49503,49502,49503,49502,49503,49502,49503,49502,49503,49502,49503,49502,49503,49502,49503,49502,49503,49502,49503,49502,49503,49502,49503,49502,49503,49502,49503,49502,49503,49502,49503,49502,49503,49502,49503,49502,49503,49502,49503,49502,49503,49502,49503,49502,49503,49502,49503,49502,49503,49502,49503,49502,49503,49502,49503,49502,49503,49502,49503,49502,49503,49502,49503,49502,49503,49502,49503,49502,49503,49502,49503,49502,49503,49502,49503,49502,49503,49502,49503,49502,49503,49502,49503,49502,49503,49502,49503,49502,49503,49502,49503,49502,49503,49502,49503,49502,49503,49502,49503,49502,49503,49502,49503,49502,49503,49502,49503,49502,49503,49502,49503,49502,49503,49502,49503,49502,49503,49502,49503,49502,49503,49502,49503,49502,49503,49502,49503,49502,49503,49502,49503,49502,49503,49502,49503,49502,49503,49502,49503,49502,49503,49502,49503,49502,49503,49502,49503,49502,49503,49502,49503,49502,49503,49502,49503,49502,49503,49502,49503,49502,49503,49502,49503,49502,49503,49502,49503,49502,49503,49502,49503,49502,
49759,49758,49759,49758,49759,49758,49759,49758,49759,49758,49759,49758,49759,49758,49759,49758,49759,49758,49759,49758,49759,49758,49759,49758,49759,49758,49759,49758,49759,49758,49759,49758,49759,49758,49759,49758,49759,49758,49759,49758,49759,49758,49759,49758,49759,49758,49759,49758,49759,49758,49759,49758,49759,49758,49759,49758,49759,49758,49759,49758,49759,49758,49759,49758,49759,49758,49759,49758,49759,49758,49759,49758,49759,49758,49759,49758,49759,49758,49759,49758,49759,49758,49759,49758,49759,49758,49759,49758,49759,49758,49759,49758,49759,49758,49759,49758,49759,49758,49759,49758,49759,49758,49759,49758,49759,49758,49759,49758,49759,49758,49759,49758,49759,49758,49759,49758,49759,49758,49759,49758,49759,49758,49759,49758,49759,49758,49759,49758,49759,49758,49759,49758,49759,49758,49759,49758,49759,49758,49759,49758,49759,49758,49759,49758,49759,49758,49759,49758,49759,49758,49759,49758,49759,49758,49759,49758,49759,49758,49759,49758,49759,49758,49759,49758,49759,49758,49759,49758,49759,49758,49759,49758,49759,49758,49759,49758,49759,49758,49759,49758,49759,49758,49759,49758,49759,49758,49759,49758,49759,49758,49759,49758,49759,49758,49759,49758,49759,49758,49759,49758,
49503,49502,49503,49502,49503,49502,49503,49502,49503,49502,49503,49502,49503,49502,49503,49502,49503,49502,49503,49502,49503,49502,49503,49502,49503,49502,49503,49502,49503,49502,49503,49502,49503,49502,49503,49502,49503,49502,49503,49502,49503,49502,49503,49502,49503,49502,49503,49502,49503,49502,49503,49502,49503,49502,49503,49502,49503,49502,49503,49502,49503,49502,49503,49502,49503,49502,49503,49502,49503,49502,49503,49502,49503,49502,49503,49502,49503,49502,49503,49502,49503,49502,49503,49502,49503,49502,49503,49502,49503,49502,49503,49502,49503,49502,49503,49502,49503,49502,49503,49502,49503,49502,49503,49502,49503,49502,49503,49502,49503,49502,49503,49502,49503,49502,49503,49502,49503,49502,49503,49502,49503,49502,49503,49502,49503,49502,49503,49502,49503,49502,49503,49502,49503,49502,49503,49502,49503,49502,49503,49502,49503,49502,49503,49502,49503,49502,49503,49502,49503,49502,49503,49502,49503,49502,49503,49502,49503,49502,49503,49502,49503,49502,49503,49502,49503,49502,49503,49502,49503,49502,49503,49502,49503,49502,49503,49502,49503,49502,49503,49502,49503,49502,49503,49502,49503,49502,49503,49502,49503,49502,49503,49502,49503,49502,49503,49502,49503,49502,49503,49502,
49759,49758,49759,49758,49759,49758,49759,49758,49759,49758,49759,49758,49759,49758,49759,49758,49759,49758,49759,49758,49759,49758,49759,49758,49759,49758,49759,49758,49759,49758,49759,49758,49759,49758,49759,49758,49759,49758,49759,49758,49759,49758,49759,49758,49759,49758,49759,49758,49759,49758,49759,49758,49759,49758,49759,49758,49759,49758,49759,49758,49759,49758,49759,49758,49759,49758,49759,49758,49759,49758,49759,49758,49759,49758,49759,49758,49759,49758,49759,49758,49759,49758,49759,49758,49759,49758,49759,49758,49759,49758,49759,49758,49759,49758,49759,49758,49759,49758,49759,49758,49759,49758,49759,49758,49759,49758,49759,49758,49759,49758,49759,49758,49759,49758,49759,49758,49759,49758,49759,49758,49759,49758,49759,49758,49759,49758,49759,49758,49759,49758,49759,49758,49759,49758,49759,49758,49759,49758,49759,49758,49759,49758,49759,49758,49759,49758,49759,49758,49759,49758,49759,49758,49759,49758,49759,49758,49759,49758,49759,49758,49759,49758,49759,49758,49759,49758,49759,49758,49759,49758,49759,49758,49759,49758,49759,49758,49759,49758,49759,49758,49759,49758,49759,49758,49759,49758,49759,49758,49759,49758,49759,49758,49759,49758,49759,49758,49759,49758,49759,49758,
49503,49502,49503,49502,49503,49502,49503,49502,49503,49502,49503,49502,49503,49502,49503,49502,49503,49502,49503,49502,49503,49502,49503,49502,49503,49502,49503,49502,49503,49502,49503,49502,49503,49502,49503,49502,49503,49502,49503,49502,49503,49502,49503,49502,49503,49502,49503,49502,49503,49502,49503,49502,49503,49502,49503,49502,49503,49502,49503,49502,49503,49502,49503,49502,49503,49502,49503,49502,49503,49502,49503,49502,49503,49502,49503,49502,49503,49502,49503,49502,49503,49502,49503,49502,49503,49502,49503,49502,49503,49502,49503,49502,49503,49502,49503,49502,49503,49502,49503,49502,49503,49502,49503,49502,49503,49502,49503,49502,49503,49502,49503,49502,49503,49502,49503,49502,49503,49502,49503,49502,49503,49502,49503,49502,49503,49502,49503,49502,49503,49502,49503,49502,49503,49502,49503,49502,49503,49502,49503,49502,49503,49502,49503,49502,49503,49502,49503,49502,49503,49502,49503,49502,49503,49502,49503,49502,49503,49502,49503,49502,49503,49502,49503,49502,49503,49502,49503,49502,49503,49502,49503,49502,49503,49502,49503,49502,49503,49502,49503,49502,49503,49502,49503,49502,49503,49502,49503,49502,49503,49502,49503,49502,49503,49502,49503,49502,49503,49502,49503,49502,
49759,49758,49759,49758,49759,49758,49759,49758,49759,49758,49759,49758,49759,49758,49759,49758,49759,49758,49759,49758,49759,49758,49759,49758,49759,49758,49759,49758,49759,49758,49759,49758,49759,49758,49759,49758,49759,49758,49759,49758,49759,49758,49759,49758,49759,49758,49759,49758,49759,49758,49759,49758,49759,49758,49759,49758,49759,49758,49759,49758,49759,49758,49759,49758,49759,49758,49759,49758,49759,49758,49759,49758,49759,49758,49759,49758,49759,49758,49759,49758,49759,49758,49759,49758,49759,49758,49759,49758,49759,49758,49759,49758,49759,49758,49759,49758,49759,49758,49759,49758,49759,49758,49759,49758,49759,49758,49759,49758,49759,49758,49759,49758,49759,49758,49759,49758,49759,49758,49759,49758,49759,49758,49759,49758,49759,49758,49759,49758,49759,49758,49759,49758,49759,49758,49759,49758,49759,49758,49759,49758,49759,49758,49759,49758,49759,49758,49759,49758,49759,49758,49759,49758,49759,49758,49759,49758,49759,49758,49759,49758,49759,49758,49759,49758,49759,49758,49759,49758,49759,49758,49759,49758,49759,49758,49759,49758,49759,49758,49759,49758,49759,49758,49759,49758,49759,49758,49759,49758,49759,49758,49759,49758,49759,49758,49759,49758,49759,49758,49759,49758,
49503,49502,49503,49502,49503,49502,49503,49502,49503,49502,49503,49502,49503,49502,49503,49502,49503,49502,49503,49502,49503,49502,49503,49502,49503,49502,49503,49502,49503,49502,49503,49502,49503,49502,49503,49502,49503,49502,49503,49502,49503,49502,49503,49502,49503,49502,49503,49502,49503,49502,49503,49502,49503,49502,49503,49502,49503,49502,49503,49502,49503,49502,49503,49502,49503,49502,49503,49502,49503,49502,49503,49502,49503,49502,49503,49502,49503,49502,49503,49502,49503,49502,49503,49502,49503,49502,49503,49502,49503,49502,49503,49502,49503,49502,49503,49502,49503,49502,49503,49502,49503,49502,49503,49502,49503,49502,49503,49502,49503,49502,49503,49502,49503,49502,49503,49502,49503,49502,49503,49502,49503,49502,49503,49502,49503,49502,49503,49502,49503,49502,49503,49502,49503,49502,49503,49502,49503,49502,49503,49502,49503,49502,49503,49502,49503,49502,49503,49502,49503,49502,49503,49502,49503,49502,49503,49502,49503,49502,49503,49502,49503,49502,49503,49502,49503,49502,49503,49502,49503,49502,49503,49502,49503,49502,49503,49502,49503,49502,49503,49502,49503,49502,49503,49502,49503,49502,49503,49502,49503,49502,49503,49502,49503,49502,49503,49502,49503,49502,49503,49502,
49759,49758,49759,49758,49759,49758,49759,49758,49759,49758,49759,49758,49759,49758,49759,49758,49759,49758,49759,49758,49759,49758,49759,49758,49759,49758,49759,49758,49759,49758,49759,49758,49759,49758,49759,49758,49759,49758,49759,49758,49759,49758,49759,49758,49759,49758,49759,49758,49759,49758,49759,49758,49759,49758,49759,49758,49759,49758,49759,49758,49759,49758,49759,49758,49759,49758,49759,49758,49759,49758,49759,49758,49759,49758,49759,49758,49759,49758,49759,49758,49759,49758,49759,49758,49759,49758,49759,49758,49759,49758,49759,49758,49759,49758,49759,49758,49759,49758,49759,49758,49759,49758,49759,49758,49759,49758,49759,49758,49759,49758,49759,49758,49759,49758,49759,49758,49759,49758,49759,49758,49759,49758,49759,49758,49759,49758,49759,49758,49759,49758,49759,49758,49759,49758,49759,49758,49759,49758,49759,49758,49759,49758,49759,49758,49759,49758,49759,49758,49759,49758,49759,49758,49759,49758,49759,49758,49759,49758,49759,49758,49759,49758,49759,49758,49759,49758,49759,49758,49759,49758,49759,49758,49759,49758,49759,49758,49759,49758,49759,49758,49759,49758,49759,49758,49759,49758,49759,49758,49759,49758,49759,49758,49759,49758,49759,49758,49759,49758,49759,49758,
49503,49502,49503,49502,49503,49502,49503,49502,49503,49502,49503,49502,49503,49502,49503,49502,49503,49502,49503,49502,49503,49502,49503,49502,49503,49502,49503,49502,49503,49502,49503,49502,49503,49502,49503,49502,49503,49502,49503,49502,49503,49502,49503,49502,49503,49502,49503,49502,49503,49502,49503,49502,49503,49502,49503,49502,49503,49502,49503,49502,49503,49502,49503,49502,49503,49502,49503,49502,49503,49502,49503,49502,49503,49502,49503,49502,49503,49502,49503,49502,49503,49502,49503,49502,49503,49502,49503,49502,49503,49502,49503,49502,49503,49502,49503,49502,49503,49502,49503,49502,49503,49502,49503,49502,49503,49502,49503,49502,49503,49502,49503,49502,49503,49502,49503,49502,49503,49502,49503,49502,49503,49502,49503,49502,49503,49502,49503,49502,49503,49502,49503,49502,49503,49502,49503,49502,49503,49502,49503,49502,49503,49502,49503,49502,49503,49502,49503,49502,49503,49502,49503,49502,49503,49502,49503,49502,49503,49502,49503,49502,49503,49502,49503,49502,49503,49502,49503,49502,49503,49502,49503,49502,49503,49502,49503,49502,49503,49502,49503,49502,49503,49502,49503,49502,49503,49502,49503,49502,49503,49502,49503,49502,49503,49502,49503,49502,49503,49502,49503,49502,
49759,49758,49759,49758,49759,49758,49759,49758,49759,49758,49759,49758,49759,49758,49759,49758,49759,49758,49759,49758,49759,49758,49759,49758,49759,49758,49759,49758,49759,49758,49759,49758,49759,49758,49759,49758,49759,49758,49759,49758,49759,49758,49759,49758,49759,49758,49759,49758,49759,49758,49759,49758,49759,49758,49759,49758,49759,49758,49759,49758,49759,49758,49759,49758,49759,49758,49759,49758,49759,49758,49759,49758,49759,49758,49759,49758,49759,49758,49759,49758,49759,49758,49759,49758,49759,49758,49759,49758,49759,49758,49759,49758,49759,49758,49759,49758,49759,49758,49759,49758,49759,49758,49759,49758,49759,49758,49759,49758,49759,49758,49759,49758,49759,49758,49759,49758,49759,49758,49759,49758,49759,49758,49759,49758,49759,49758,49759,49758,49759,49758,49759,49758,49759,49758,49759,49758,49759,49758,49759,49758,49759,49758,49759,49758,49759,49758,49759,49758,49759,49758,49759,49758,49759,49758,49759,49758,49759,49758,49759,49758,49759,49758,49759,49758,49759,49758,49759,49758,49759,49758,49759,49758,49759,49758,49759,49758,49759,49758,49759,49758,49759,49758,49759,49758,49759,49758,49759,49758,49759,49758,49759,49758,49759,49758,49759,49758,49759,49758,49759,49758,
49503,49502,49503,49502,49503,49502,49503,49502,49503,49502,49503,49502,49503,49502,49503,49502,49503,49502,49503,49502,49503,49502,49503,49502,49503,49502,49503,49502,49503,49502,49503,49502,49503,49502,49503,49502,49503,49502,49503,49502,49503,49502,49503,49502,49503,49502,49503,49502,49503,49502,49503,49502,49503,49502,49503,49502,49503,49502,49503,49502,49503,49502,49503,49502,49503,49502,49503,49502,49503,49502,49503,49502,49503,49502,49503,49502,49503,49502,49503,49502,49503,49502,49503,49502,49503,49502,49503,49502,49503,49502,49503,49502,49503,49502,49503,49502,49503,49502,49503,49502,49503,49502,49503,49502,49503,49502,49503,49502,49503,49502,49503,49502,49503,49502,49503,49502,49503,49502,49503,49502,49503,49502,49503,49502,49503,49502,49503,49502,49503,49502,49503,49502,49503,49502,49503,49502,49503,49502,49503,49502,49503,49502,49503,49502,49503,49502,49503,49502,49503,49502,49503,49502,49503,49502,49503,49502,49503,49502,49503,49502,49503,49502,49503,49502,49503,49502,49503,49502,49503,49502,49503,49502,49503,49502,49503,49502,49503,49502,49503,49502,49503,49502,49503,49502,49503,49502,49503,49502,49503,49502,49503,49502,49503,49502,49503,49502,49503,49502,49503,49502,
49759,49758,49759,49758,49759,49758,49759,49758,49759,49758,49759,49758,49759,49758,49759,49758,49759,49758,49759,49758,49759,49758,49759,49758,49759,49758,49759,49758,49759,49758,49759,49758,49759,49758,49759,49758,49759,49758,49759,49758,49759,49758,49759,49758,49759,49758,49759,49758,49759,49758,49759,49758,49759,49758,49759,49758,49759,49758,49759,49758,49759,49758,49759,49758,49759,49758,49759,49758,49759,49758,49759,49758,49759,49758,49759,49758,49759,49758,49759,49758,49759,49758,49759,49758,49759,49758,49759,49758,49759,49758,49759,49758,49759,49758,49759,49758,49759,49758,49759,49758,49759,49758,49759,49758,49759,49758,49759,49758,49759,49758,49759,49758,49759,49758,49759,49758,49759,49758,49759,49758,49759,49758,49759,49758,49759,49758,49759,49758,49759,49758,49759,49758,49759,49758,49759,49758,49759,49758,49759,49758,49759,49758,49759,49758,49759,49758,49759,49758,49759,49758,49759,49758,49759,49758,49759,49758,49759,49758,49759,49758,49759,49758,49759,49758,49759,49758,49759,49758,49759,49758,49759,49758,49759,49758,49759,49758,49759,49758,49759,49758,49759,49758,49759,49758,49759,49758,49759,49758,49759,49758,49759,49758,49759,49758,49759,49758,49759,49758,49759,49758,
49503,49502,49503,49502,49503,49502,49503,49502,49503,49502,49503,49502,49503,49502,49503,49502,49503,49502,49503,49502,49503,49502,49503,49502,49503,49502,49503,49502,49503,49502,49503,49502,49503,49502,49503,49502,49503,49502,49503,49502,49503,49502,49503,49502,49503,49502,49503,49502,49503,49502,49503,49502,49503,49502,49503,49502,49503,49502,49503,49502,49503,49502,49503,49502,49503,49502,49503,49502,49503,49502,49503,49502,49503,49502,49503,49502,49503,49502,49503,49502,49503,49502,49503,49502,49503,49502,49503,49502,49503,49502,49503,49502,49503,49502,49503,49502,49503,49502,49503,49502,49503,49502,49503,49502,49503,49502,49503,49502,49503,49502,49503,49502,49503,49502,49503,49502,49503,49502,49503,49502,49503,49502,49503,49502,49503,49502,49503,49502,49503,49502,49503,49502,49503,49502,49503,49502,49503,49502,49503,49502,49503,49502,49503,49502,49503,49502,49503,49502,49503,49502,49503,49502,49503,49502,49503,49502,49503,49502,49503,49502,49503,49502,49503,49502,49503,49502,49503,49502,49503,49502,49503,49502,49503,49502,49503,49502,49503,49502,49503,49502,49503,49502,49503,49502,49503,49502,49503,49502,49503,49502,49503,49502,49503,49502,49503,49502,49503,49502,49503,49502,
49759,49758,49759,49758,49759,49758,49759,49758,49759,49758,49759,49758,49759,49758,49759,49758,49759,49758,49759,49758,49759,49758,49759,49758,49759,49758,49759,49758,49759,49758,49759,49758,49759,49758,49759,49758,49759,49758,49759,49758,49759,49758,49759,49758,49759,49758,49759,49758,49759,49758,49759,49758,49759,49758,49759,49758,49759,49758,49759,49758,49759,49758,49759,49758,49759,49758,49759,49758,49759,49758,49759,49758,49759,49758,49759,49758,49759,49758,49759,49758,49759,49758,49759,49758,49759,49758,49759,49758,49759,49758,49759,49758,49759,49758,49759,49758,49759,49758,49759,49758,49759,49758,49759,49758,49759,49758,49759,49758,49759,49758,49759,49758,49759,49758,49759,49758,49759,49758,49759,49758,49759,49758,49759,49758,49759,49758,49759,49758,49759,49758,49759,49758,49759,49758,49759,49758,49759,49758,49759,49758,49759,49758,49759,49758,49759,49758,49759,49758,49759,49758,49759,49758,49759,49758,49759,49758,49759,49758,49759,49758,49759,49758,49759,49758,49759,49758,49759,49758,49759,49758,49759,49758,49759,49758,49759,49758,49759,49758,49759,49758,49759,49758,49759,49758,49759,49758,49759,49758,49759,49758,49759,49758,49759,49758,49759,49758,49759,49758,49759,49758,
49503,49502,49503,49502,49503,49502,49503,49502,49503,49502,49503,49502,49503,49502,49503,49502,49503,49502,49503,49502,49503,49502,49503,49502,49503,49502,49503,49502,49503,49502,49503,49502,49503,49502,49503,49502,49503,49502,49503,49502,49503,49502,49503,49502,49503,49502,49503,49502,49503,49502,49503,49502,49503,49502,49503,49502,49503,49502,49503,49502,49503,49502,49503,49502,49503,49502,49503,49502,49503,49502,49503,49502,49503,49502,49503,49502,49503,49502,49503,49502,49503,49502,49503,49502,49503,49502,49503,49502,49503,49502,49503,49502,49503,49502,49503,49502,49503,49502,49503,49502,49503,49502,49503,49502,49503,49502,49503,49502,49503,49502,49503,49502,49503,49502,49503,49502,49503,49502,49503,49502,49503,49502,49503,49502,49503,49502,49503,49502,49503,49502,49503,49502,49503,49502,49503,49502,49503,49502,49503,49502,49503,49502,49503,49502,49503,49502,49503,49502,49503,49502,49503,49502,49503,49502,49503,49502,49503,49502,49503,49502,49503,49502,49503,49502,49503,49502,49503,49502,49503,49502,49503,49502,49503,49502,49503,49502,49503,49502,49503,49502,49503,49502,49503,49502,49503,49502,49503,49502,49503,49502,49503,49502,49503,49502,49503,49502,49503,49502,49503,49502,
49759,49758,49759,49758,49759,49758,49759,49758,49759,49758,49759,49758,49759,49758,49759,49758,49759,49758,49759,49758,49759,49758,49759,49758,49759,49758,49759,49758,49759,49758,49759,49758,49759,49758,49759,49758,49759,49758,49759,49758,49759,49758,49759,49758,49759,49758,49759,49758,49759,49758,49759,49758,49759,49758,49759,49758,49759,49758,49759,49758,49759,49758,49759,49758,49759,49758,49759,49758,49759,49758,49759,49758,49759,49758,49759,49758,49759,49758,49759,49758,49759,49758,49759,49758,49759,49758,49759,49758,49759,49758,49759,49758,49759,49758,49759,49758,49759,49758,49759,49758,49759,49758,49759,49758,49759,49758,49759,49758,49759,49758,49759,49758,49759,49758,49759,49758,49759,49758,49759,49758,49759,49758,49759,49758,49759,49758,49759,49758,49759,49758,49759,49758,49759,49758,49759,49758,49759,49758,49759,49758,49759,49758,49759,49758,49759,49758,49759,49758,49759,49758,49759,49758,49759,49758,49759,49758,49759,49758,49759,49758,49759,49758,49759,49758,49759,49758,49759,49758,49759,49758,49759,49758,49759,49758,49759,49758,49759,49758,49759,49758,49759,49758,49759,49758,49759,49758,49759,49758,49759,49758,49759,49758,49759,49758,49759,49758,49759,49758,49759,49758,
49503,49502,49503,49502,49503,49502,49503,49502,49503,49502,49503,49502,49503,49502,49503,49502,49503,49502,49503,49502,49503,49502,49503,49502,49503,49502,49503,49502,49503,49502,49503,49502,49503,49502,49503,49502,49503,49502,49503,49502,49503,49502,49503,49502,49503,49502,49503,49502,49503,49502,49503,49502,49503,49502,49503,49502,49503,49502,49503,49502,49503,49502,49503,49502,49503,49502,49503,49502,49503,49502,49503,49502,49503,49502,49503,49502,49503,49502,49503,49502,49503,49502,49503,49502,49503,49502,49503,49502,49503,49502,49503,49502,49503,49502,49503,49502,49503,49502,49503,49502,49503,49502,49503,49502,49503,49502,49503,49502,49503,49502,49503,49502,49503,49502,49503,49502,49503,49502,49503,49502,49503,49502,49503,49502,49503,49502,49503,49502,49503,49502,49503,49502,49503,49502,49503,49502,49503,49502,49503,49502,49503,49502,49503,49502,49503,49502,49503,49502,49503,49502,49503,49502,49503,49502,49503,49502,49503,49502,49503,49502,49503,49502,49503,49502,49503,49502,49503,49502,49503,49502,49503,49502,49503,49502,49503,49502,49503,49502,49503,49502,49503,49502,49503,49502,49503,49502,49503,49502,49503,49502,49503,49502,49503,49502,49503,49502,49503,49502,49503,49502,
49759,49758,49759,49758,49759,49758,49759,49758,49759,49758,49759,49758,49759,49758,49759,49758,49759,49758,49759,49758,49759,49758,49759,49758,49759,49758,49759,49758,49759,49758,49759,49758,49759,49758,49759,49758,49759,49758,49759,49758,49759,49758,49759,49758,49759,49758,49759,49758,49759,49758,49759,49758,49759,49758,49759,49758,49759,49758,49759,49758,49759,49758,49759,49758,49759,49758,49759,49758,49759,49758,49759,49758,49759,49758,49759,49758,49759,49758,49759,49758,49759,49758,49759,49758,49759,49758,49759,49758,49759,49758,49759,49758,49759,49758,49759,49758,49759,49758,49759,49758,49759,49758,49759,49758,49759,49758,49759,49758,49759,49758,49759,49758,49759,49758,49759,49758,49759,49758,49759,49758,49759,49758,49759,49758,49759,49758,49759,49758,49759,49758,49759,49758,49759,49758,49759,49758,49759,49758,49759,49758,49759,49758,49759,49758,49759,49758,49759,49758,49759,49758,49759,49758,49759,49758,49759,49758,49759,49758,49759,49758,49759,49758,49759,49758,49759,49758,49759,49758,49759,49758,49759,49758,49759,49758,49759,49758,49759,49758,49759,49758,49759,49758,49759,49758,49759,49758,49759,49758,49759,49758,49759,49758,49759,49758,49759,49758,49759,49758,49759,49758,
49503,49502,49503,49502,49503,49502,49503,49502,49503,49502,49503,49502,49503,49502,49503,49502,49503,49502,49503,49502,49503,49502,49503,49502,49503,49502,49503,49502,49503,49502,49503,49502,49503,49502,49503,49502,49503,49502,49503,49502,49503,49502,49503,49502,49503,49502,49503,49502,49503,49502,49503,49502,49503,49502,49503,49502,49503,49502,49503,49502,49503,49502,49503,49502,49503,49502,49503,49502,49503,49502,49503,49502,49503,49502,49503,49502,49503,49502,49503,49502,49503,49502,49503,49502,49503,49502,49503,49502,49503,49502,49503,49502,49503,49502,49503,49502,49503,49502,49503,49502,49503,49502,49503,49502,49503,49502,49503,49502,49503,49502,49503,49502,49503,49502,49503,49502,49503,49502,49503,49502,49503,49502,49503,49502,49503,49502,49503,49502,49503,49502,49503,49502,49503,49502,49503,49502,49503,49502,49503,49502,49503,49502,49503,49502,49503,49502,49503,49502,49503,49502,49503,49502,49503,49502,49503,49502,49503,49502,49503,49502,49503,49502,49503,49502,49503,49502,49503,49502,49503,49502,49503,49502,49503,49502,49503,49502,49503,49502,49503,49502,49503,49502,49503,49502,49503,49502,49503,49502,49503,49502,49503,49502,49503,49502,49503,49502,49503,49502,49503,49502,
49759,49758,49759,49758,49759,49758,49759,49758,49759,49758,49759,49758,49759,49758,49759,49758,49759,49758,49759,49758,49759,49758,49759,49758,49759,49758,49759,49758,49759,49758,49759,49758,49759,49758,49759,49758,49759,49758,49759,49758,49759,49758,49759,49758,49759,49758,49759,49758,49759,49758,49759,49758,49759,49758,49759,49758,49759,49758,49759,49758,49759,49758,49759,49758,49759,49758,49759,49758,49759,49758,49759,49758,49759,49758,49759,49758,49759,49758,49759,49758,49759,49758,49759,49758,49759,49758,49759,49758,49759,49758,49759,49758,49759,49758,49759,49758,49759,49758,49759,49758,49759,49758,49759,49758,49759,49758,49759,49758,49759,49758,49759,49758,49759,49758,49759,49758,49759,49758,49759,49758,49759,49758,49759,49758,49759,49758,49759,49758,49759,49758,49759,49758,49759,49758,49759,49758,49759,49758,49759,49758,49759,49758,49759,49758,49759,49758,49759,49758,49759,49758,49759,49758,49759,49758,49759,49758,49759,49758,49759,49758,49759,49758,49759,49758,49759,49758,49759,49758,49759,49758,49759,49758,49759,49758,49759,49758,49759,49758,49759,49758,49759,49758,49759,49758,49759,49758,49759,49758,49759,49758,49759,49758,49759,49758,49759,49758,49759,49758,49759,49758,
49503,49502,49503,49502,49503,49502,49503,49502,49503,49502,49503,49502,49503,49502,49503,49502,49503,49502,49503,49502,49503,49502,49503,49502,49503,49502,49503,49502,49503,49502,49503,49502,49503,49502,49503,49502,49503,49502,49503,49502,49503,49502,49503,49502,49503,49502,49503,49502,49503,49502,49503,49502,49503,49502,49503,49502,49503,49502,49503,49502,49503,49502,49503,49502,49503,49502,49503,49502,49503,49502,49503,49502,49503,49502,49503,49502,49503,49502,49503,49502,49503,49502,49503,49502,49503,49502,49503,49502,49503,49502,49503,49502,49503,49502,49503,49502,49503,49502,49503,49502,49503,49502,49503,49502,49503,49502,49503,49502,49503,49502,49503,49502,49503,49502,49503,49502,49503,49502,49503,49502,49503,49502,49503,49502,49503,49502,49503,49502,49503,49502,49503,49502,49503,49502,49503,49502,49503,49502,49503,49502,49503,49502,49503,49502,49503,49502,49503,49502,49503,49502,49503,49502,49503,49502,49503,49502,49503,49502,49503,49502,49503,49502,49503,49502,49503,49502,49503,49502,49503,49502,49503,49502,49503,49502,49503,49502,49503,49502,49503,49502,49503,49502,49503,49502,49503,49502,49503,49502,49503,49502,49503,49502,49503,49502,49503,49502,49503,49502,49503,49502,
49759,49758,49759,49758,49759,49758,49759,49758,49759,49758,49759,49758,49759,49758,49759,49758,49759,49758,49759,49758,49759,49758,49759,49758,49759,49758,49759,49758,49759,49758,49759,49758,49759,49758,49759,49758,49759,49758,49759,49758,49759,49758,49759,49758,49759,49758,49759,49758,49759,49758,49759,49758,49759,49758,49759,49758,49759,49758,49759,49758,49759,49758,49759,49758,49759,49758,49759,49758,49759,49758,49759,49758,49759,49758,49759,49758,49759,49758,49759,49758,49759,49758,49759,49758,49759,49758,49759,49758,49759,49758,49759,49758,49759,49758,49759,49758,49759,49758,49759,49758,49759,49758,49759,49758,49759,49758,49759,49758,49759,49758,49759,49758,49759,49758,49759,49758,49759,49758,49759,49758,49759,49758,49759,49758,49759,49758,49759,49758,49759,49758,49759,49758,49759,49758,49759,49758,49759,49758,49759,49758,49759,49758,49759,49758,49759,49758,49759,49758,49759,49758,49759,49758,49759,49758,49759,49758,49759,49758,49759,49758,49759,49758,49759,49758,49759,49758,49759,49758,49759,49758,49759,49758,49759,49758,49759,49758,49759,49758,49759,49758,49759,49758,49759,49758,49759,49758,49759,49758,49759,49758,49759,49758,49759,49758,49759,49758,49759,49758,49759,49758,
49503,49502,49503,49502,49503,49502,49503,49502,49503,49502,49503,49502,49503,49502,49503,49502,49503,49502,49503,49502,49503,49502,49503,49502,49503,49502,49503,49502,49503,49502,49503,49502,49503,49502,49503,49502,49503,49502,49503,49502,49503,49502,49503,49502,49503,49502,49503,49502,49503,49502,49503,49502,49503,49502,49503,49502,49503,49502,49503,49502,49503,49502,49503,49502,49503,49502,49503,49502,49503,49502,49503,49502,49503,49502,49503,49502,49503,49502,49503,49502,49503,49502,49503,49502,49503,49502,49503,49502,49503,49502,49503,49502,49503,49502,49503,49502,49503,49502,49503,49502,49503,49502,49503,49502,49503,49502,49503,49502,49503,49502,49503,49502,49503,49502,49503,49502,49503,49502,49503,49502,49503,49502,49503,49502,49503,49502,49503,49502,49503,49502,49503,49502,49503,49502,49503,49502,49503,49502,49503,49502,49503,49502,49503,49502,49503,49502,49503,49502,49503,49502,49503,49502,49503,49502,49503,49502,49503,49502,49503,49502,49503,49502,49503,49502,49503,49502,49503,49502,49503,49502,49503,49502,49503,49502,49503,49502,49503,49502,49503,49502,49503,49502,49503,49502,49503,49502,49503,49502,49503,49502,49503,49502,49503,49502,49503,49502,49503,49502,49503,49502,
49759,49758,49759,49758,49759,49758,49759,49758,49759,49758,49759,49758,49759,49758,49759,49758,49759,49758,49759,49758,49759,49758,49759,49758,49759,49758,49759,49758,49759,49758,49759,49758,49759,49758,49759,49758,49759,49758,49759,49758,49759,49758,49759,49758,49759,49758,49759,49758,49759,49758,49759,49758,49759,49758,49759,49758,49759,49758,49759,49758,49759,49758,49759,49758,49759,49758,49759,49758,49759,49758,49759,49758,49759,49758,49759,49758,49759,49758,49759,49758,49759,49758,49759,49758,49759,49758,49759,49758,49759,49758,49759,49758,49759,49758,49759,49758,49759,49758,49759,49758,49759,49758,49759,49758,49759,49758,49759,49758,49759,49758,49759,49758,49759,49758,49759,49758,49759,49758,49759,49758,49759,49758,49759,49758,49759,49758,49759,49758,49759,49758,49759,49758,49759,49758,49759,49758,49759,49758,49759,49758,49759,49758,49759,49758,49759,49758,49759,49758,49759,49758,49759,49758,49759,49758,49759,49758,49759,49758,49759,49758,49759,49758,49759,49758,49759,49758,49759,49758,49759,49758,49759,49758,49759,49758,49759,49758,49759,49758,49759,49758,49759,49758,49759,49758,49759,49758,49759,49758,49759,49758,49759,49758,49759,49758,49759,49758,49759,49758,49759,49758,
49503,49502,49503,49502,49503,49502,49503,49502,49503,49502,49503,49502,49503,49502,49503,49502,49503,49502,49503,49502,49503,49502,49503,49502,49503,49502,49503,49502,49503,49502,49503,49502,49503,49502,49503,49502,49503,49502,49503,49502,49503,49502,49503,49502,49503,49502,49503,49502,49503,49502,49503,49502,49503,49502,49503,49502,49503,49502,49503,49502,49503,49502,49503,49502,49503,49502,49503,49502,49503,49502,49503,49502,49503,49502,49503,49502,49503,49502,49503,49502,49503,49502,49503,49502,49503,49502,49503,49502,49503,49502,49503,49502,49503,49502,49503,49502,49503,49502,49503,49502,49503,49502,49503,49502,49503,49502,49503,49502,49503,49502,49503,49502,49503,49502,49503,49502,49503,49502,49503,49502,49503,49502,49503,49502,49503,49502,49503,49502,49503,49502,49503,49502,49503,49502,49503,49502,49503,49502,49503,49502,49503,49502,49503,49502,49503,49502,49503,49502,49503,49502,49503,49502,49503,49502,49503,49502,49503,49502,49503,49502,49503,49502,49503,49502,49503,49502,49503,49502,49503,49502,49503,49502,49503,49502,49503,49502,49503,49502,49503,49502,49503,49502,49503,49502,49503,49502,49503,49502,49503,49502,49503,49502,49503,49502,49503,49502,49503,49502,49503,49502,
49759,49758,49759,49758,49759,49758,49759,49758,49759,49758,49759,49758,49759,49758,49759,49758,49759,49758,49759,49758,49759,49758,49759,49758,49759,49758,49759,49758,49759,49758,49759,49758,49759,49758,49759,49758,49759,49758,49759,49758,49759,49758,49759,49758,49759,49758,49759,49758,49759,49758,49759,49758,49759,49758,49759,49758,49759,49758,49759,49758,49759,49758,49759,49758,49759,49758,49759,49758,49759,49758,49759,49758,49759,49758,49759,49758,49759,49758,49759,49758,49759,49758,49759,49758,49759,49758,49759,49758,49759,49758,49759,49758,49759,49758,49759,49758,49759,49758,49759,49758,49759,49758,49759,49758,49759,49758,49759,49758,49759,49758,49759,49758,49759,49758,49759,49758,49759,49758,49759,49758,49759,49758,49759,49758,49759,49758,49759,49758,49759,49758,49759,49758,49759,49758,49759,49758,49759,49758,49759,49758,49759,49758,49759,49758,49759,49758,49759,49758,49759,49758,49759,49758,49759,49758,49759,49758,49759,49758,49759,49758,49759,49758,49759,49758,49759,49758,49759,49758,49759,49758,49759,49758,49759,49758,49759,49758,49759,49758,49759,49758,49759,49758,49759,49758,49759,49758,49759,49758,49759,49758,49759,49758,49759,49758,49759,49758,49759,49758,49759,49758
</data>
 </layer>
 <layer id="6" name="tree" width="200" height="112">
  <data encoding="csv">
0,0,0,0,0,0,0,0,0,0,0,0,0,0,0,0,0,0,0,0,0,0,0,0,0,0,0,0,0,0,0,0,0,0,0,0,0,0,0,0,0,0,0,0,0,0,0,0,0,0,0,0,0,0,0,0,0,0,0,0,0,0,0,0,0,0,0,0,0,0,0,0,0,0,0,0,0,0,0,0,0,0,0,0,0,0,0,0,0,0,0,0,0,0,0,0,0,0,0,0,0,0,0,0,0,0,0,0,0,0,0,0,0,0,0,0,0,0,0,0,0,0,0,0,0,0,0,0,0,0,0,0,0,0,0,0,0,0,0,0,0,0,0,0,0,0,0,0,0,0,0,0,0,0,0,0,0,0,0,0,0,0,0,0,0,0,0,0,0,0,0,0,0,0,0,0,0,0,0,0,0,0,0,0,0,0,0,0,0,0,0,0,0,0,0,0,0,0,0,0,
0,0,0,0,0,0,0,0,0,0,0,0,0,0,0,0,0,0,0,0,0,0,0,0,0,0,0,0,0,0,0,0,0,0,0,0,0,0,0,0,0,0,0,0,0,0,0,0,0,0,0,0,0,0,0,0,0,0,0,0,0,0,0,0,0,0,0,0,0,0,0,0,0,0,0,0,0,0,0,0,0,0,0,0,0,0,0,0,0,0,0,0,0,0,0,0,0,0,0,0,0,0,0,0,0,0,0,0,0,0,0,0,0,0,0,0,0,0,0,0,0,0,0,0,0,0,0,0,0,0,0,0,0,0,0,0,0,0,0,0,0,0,0,0,0,0,0,0,0,0,0,0,0,0,0,0,0,0,0,0,0,0,0,0,0,0,0,0,0,0,0,0,0,0,0,0,0,0,0,0,0,0,0,0,0,0,0,0,0,0,0,0,0,0,0,0,0,0,0,0,
0,0,0,0,0,0,0,0,0,0,0,0,0,0,0,0,0,0,0,0,0,0,0,0,0,0,0,0,0,0,0,0,0,0,0,0,0,0,0,0,0,0,0,0,0,0,0,0,0,0,0,0,0,0,0,0,0,0,0,0,0,0,0,0,0,0,0,0,0,0,0,0,0,0,0,0,0,0,0,0,0,0,0,0,0,0,0,0,0,0,0,0,0,0,0,0,0,0,0,0,0,0,0,0,0,0,0,0,0,0,0,0,0,0,0,0,0,0,0,0,0,0,0,0,0,0,0,0,0,0,0,0,0,0,0,0,0,0,0,0,0,0,0,0,0,0,0,0,0,0,0,0,0,0,0,0,0,0,0,0,0,0,0,0,0,0,0,0,0,0,0,0,0,0,0,0,0,0,0,0,0,0,0,0,0,0,0,0,0,0,0,0,0,0,0,0,0,0,0,0,
0,0,0,0,0,0,0,0,0,0,0,0,0,0,0,0,0,0,0,0,0,0,0,0,0,0,0,0,0,0,0,0,0,0,0,0,0,0,0,0,0,0,0,0,0,0,0,0,0,0,0,0,0,0,0,0,0,0,0,0,0,0,0,0,0,0,0,0,0,0,0,0,0,0,0,0,0,0,0,0,0,0,0,0,0,0,0,0,0,0,0,0,0,0,0,0,0,0,0,0,0,0,0,0,0,0,0,0,0,0,0,0,0,0,0,0,0,0,0,0,0,0,0,0,0,0,0,0,0,0,0,0,0,0,0,0,0,0,0,0,0,0,0,0,0,0,0,0,0,0,0,0,0,0,0,0,0,0,0,0,0,0,0,0,0,0,0,0,0,0,0,0,0,0,0,0,0,0,0,0,0,0,0,0,0,0,0,0,0,0,0,0,0,0,0,0,0,0,0,0,
0,0,0,0,0,0,0,0,0,0,0,0,0,0,0,0,0,0,0,0,0,0,0,0,0,0,0,0,0,0,0,0,0,0,0,0,0,0,0,0,0,0,0,0,0,0,0,0,0,0,0,0,0,0,0,0,0,0,0,0,0,0,0,0,0,0,0,0,0,0,0,0,0,0,0,0,0,0,0,0,0,0,0,0,0,0,0,0,0,45825,45826,45827,45828,45829,45830,45831,45832,45833,45834,45835,45836,45837,45838,45839,45840,45841,45842,45843,45844,45845,45846,45847,45848,45849,45850,45851,0,0,0,0,0,0,0,0,0,0,0,0,0,0,0,0,0,0,0,0,0,0,0,0,0,0,0,0,0,0,0,0,0,0,0,0,0,0,0,0,0,0,0,0,0,0,0,0,0,0,0,0,0,0,0,0,0,0,0,0,0,0,0,0,0,0,0,0,0,0,0,0,0,0,0,0,0,0,0,0,0,0,0,0,
0,0,0,0,0,0,0,0,0,0,0,0,0,0,0,0,0,0,0,0,0,0,0,0,0,0,0,0,0,0,0,0,0,0,0,0,0,0,0,0,0,0,0,0,0,0,0,0,0,0,0,0,0,0,0,0,0,0,0,0,0,0,0,0,0,0,0,0,0,0,0,0,0,0,0,0,0,0,0,0,0,0,0,0,0,0,0,0,0,46081,46082,46083,46084,46085,46086,46087,46088,46089,46090,46091,46092,46093,46094,46095,46096,46097,46098,46099,46100,46101,46102,46103,46104,46105,46106,46107,0,0,0,0,0,0,0,0,0,0,0,0,0,0,0,0,0,0,0,0,0,0,0,0,0,0,0,0,0,0,0,0,0,0,0,0,0,0,0,0,0,0,0,0,0,0,0,0,0,0,0,0,0,0,0,0,0,0,0,0,0,0,0,0,0,0,0,0,0,0,0,0,0,0,0,0,0,0,0,0,0,0,0,0,
0,0,0,0,0,0,0,0,0,0,0,0,0,0,0,0,0,0,0,0,0,0,0,0,0,0,0,0,0,0,0,0,0,0,0,0,0,0,0,0,0,0,0,0,0,0,0,0,0,0,0,0,0,0,0,0,0,0,0,0,0,0,0,0,0,0,0,0,0,0,0,0,0,0,0,0,0,0,0,0,0,0,0,0,0,0,0,0,0,46337,46338,46339,46340,46341,46342,46343,46344,46345,46346,46347,46348,46349,46350,46351,46352,46353,46354,46355,46356,46357,46358,46359,46360,46361,46362,46363,0,0,0,0,0,0,0,0,0,0,0,0,0,0,0,0,0,0,0,0,0,0,0,0,0,0,0,0,0,0,0,0,0,0,0,0,0,0,0,0,0,0,0,0,0,0,0,0,0,0,0,0,0,0,0,0,0,0,0,0,0,0,0,0,0,0,0,0,0,0,0,0,0,0,0,0,0,0,0,0,0,0,0,0,
0,0,0,0,0,0,0,0,0,0,0,0,0,0,0,0,0,0,0,0,0,0,0,0,0,0,0,0,0,0,0,0,0,0,0,0,0,0,0,0,0,0,0,0,0,0,0,0,0,0,0,0,0,0,0,0,0,0,0,0,0,0,0,0,0,0,0,0,0,0,0,0,0,0,0,0,0,0,0,0,0,0,0,0,0,0,0,0,0,46593,46594,46595,46596,46597,46598,46599,46600,46601,46602,46603,46604,46605,46606,46607,46608,46609,46610,46611,46612,46613,46614,46615,46616,46617,46618,46619,0,0,0,0,0,0,0,0,0,0,0,0,0,0,0,0,0,0,0,0,0,0,0,0,0,0,0,0,0,0,0,0,0,0,0,0,0,0,0,0,0,0,0,0,0,0,0,0,0,0,0,0,0,0,0,0,0,0,0,0,0,0,0,0,0,0,0,0,0,0,0,0,0,0,0,0,0,0,0,0,0,0,0,0,
0,0,0,0,0,0,0,0,0,0,0,0,0,0,0,0,0,0,0,0,0,0,0,0,0,0,0,0,0,0,0,0,0,0,0,0,0,0,0,0,0,0,0,0,0,0,0,0,0,0,0,0,0,0,0,0,0,0,0,0,0,0,0,0,0,0,0,0,0,0,0,0,0,0,0,0,0,0,0,0,0,0,0,0,0,0,0,0,0,46849,46850,46851,46852,46853,46854,46855,46856,46857,46858,46859,46860,46861,46862,46863,46864,46865,46866,46867,46868,46869,46870,46871,46872,46873,46874,46875,0,0,0,0,0,0,0,0,0,0,0,0,0,0,0,0,0,0,0,0,0,0,0,0,0,0,0,0,0,0,0,0,0,0,0,0,0,0,0,0,0,0,0,0,0,0,0,0,0,0,0,0,0,0,0,0,0,0,0,0,0,0,0,0,0,0,0,0,0,0,0,0,0,0,0,0,0,0,0,0,0,0,0,0,
0,0,0,0,0,0,0,0,0,0,0,0,0,0,0,0,0,0,0,0,0,0,0,0,0,0,0,0,0,0,0,0,0,0,0,0,0,0,0,0,0,0,0,0,0,0,0,0,0,0,0,0,0,0,0,0,0,0,0,0,0,0,0,0,0,0,0,0,0,0,0,0,0,0,0,0,0,0,0,0,0,0,0,0,0,0,0,0,0,47105,47106,47107,47108,47109,47110,47111,47112,47113,47114,47115,47116,47117,47118,47119,47120,47121,47122,47123,47124,47125,47126,47127,47128,47129,47130,47131,0,0,0,0,0,0,0,0,0,0,0,0,0,0,0,0,0,0,0,0,0,0,0,0,0,0,0,0,0,0,0,0,0,0,0,0,0,0,0,0,0,0,0,0,0,0,0,0,0,0,0,0,0,0,0,0,0,0,0,0,0,0,0,0,0,0,0,0,0,0,0,0,0,0,0,0,0,0,0,0,0,0,0,0,
0,0,0,0,0,0,0,0,0,0,0,0,0,0,0,45825,45826,45827,45828,45829,45830,45831,45832,45833,45834,45835,45836,45837,45838,45839,45840,45841,45842,45843,45844,45845,45846,45847,45848,45849,45850,45851,0,0,0,0,0,0,0,0,0,0,0,0,0,0,0,0,0,0,0,0,0,0,0,0,0,0,0,0,0,0,0,0,0,0,0,0,0,0,0,0,0,0,0,0,0,0,0,47361,47362,47363,47364,47365,47366,47367,47368,47369,47370,47371,47372,47373,47374,47375,47376,47377,47378,47379,47380,47381,47382,47383,47384,47385,47386,47387,0,0,0,0,0,0,0,0,0,0,0,0,0,0,0,0,0,0,0,0,0,0,0,0,0,0,0,0,0,0,0,0,0,0,0,0,0,0,0,0,0,0,0,0,0,0,0,0,0,0,0,0,0,0,0,0,0,0,0,0,0,0,0,0,0,0,0,0,0,0,0,0,0,0,0,0,0,0,0,0,0,0,0,0,
0,0,0,0,0,0,0,0,0,0,0,0,0,0,0,46081,46082,46083,46084,46085,46086,46087,46088,46089,46090,46091,46092,46093,46094,46095,46096,46097,46098,46099,46100,46101,46102,46103,46104,46105,46106,46107,0,0,0,0,0,0,0,0,0,0,0,0,0,0,0,0,0,0,0,0,0,0,0,0,0,0,0,0,0,0,0,0,0,0,0,0,0,0,0,0,0,0,0,0,0,0,0,47617,47618,47619,47620,47621,47622,47623,47624,47625,47626,47627,47628,47629,47630,47631,47632,47633,47634,47635,47636,47637,47638,47639,47640,47641,47642,47643,0,0,0,0,0,0,0,0,0,0,0,0,0,0,0,0,0,0,0,0,0,0,0,0,0,0,0,0,0,0,0,0,0,0,0,0,0,0,0,0,0,0,0,0,0,0,0,0,0,0,0,0,0,0,0,0,0,0,0,0,0,0,0,0,0,0,0,0,0,0,0,0,0,0,0,0,0,0,0,0,0,0,0,0,
0,0,0,0,0,0,0,0,0,0,0,0,0,0,0,46337,46338,46339,46340,46341,46342,46343,46344,46345,46346,46347,46348,46349,46350,46351,46352,46353,46354,46355,46356,46357,46358,46359,46360,46361,46362,46363,0,0,0,0,0,0,0,0,0,0,0,0,0,0,0,0,0,0,0,0,0,0,0,0,0,0,0,0,0,0,0,0,0,0,0,0,0,0,0,0,0,0,0,0,0,0,0,47873,47874,47875,47876,47877,47878,47879,47880,47881,47882,47883,47884,47885,47886,47887,47888,47889,47890,47891,47892,47893,47894,47895,47896,47897,47898,47899,0,0,0,0,0,0,0,0,0,0,0,0,0,0,0,0,0,0,0,0,0,0,0,0,0,0,0,0,0,0,0,0,0,0,0,0,0,0,0,45825,45826,45827,45828,45829,45830,45831,45832,45833,45834,45835,45836,45837,45838,45839,45840,45841,45842,45843,45844,45845,45846,45847,45848,45849,45850,45851,0,0,0,0,0,0,0,0,0,0,0,0,0,0,0,0,0,0,
0,0,0,0,0,0,0,0,0,0,0,0,0,0,0,46593,46594,46595,46596,46597,46598,46599,46600,46601,46602,46603,46604,46605,46606,46607,46608,46609,46610,46611,46612,46613,46614,46615,46616,46617,46618,46619,0,0,0,0,0,0,0,0,0,0,0,0,0,0,0,0,0,0,0,0,0,0,0,0,0,0,0,0,0,0,0,0,0,0,0,0,0,0,0,0,0,0,0,0,0,0,0,48129,48130,48131,48132,48133,48134,48135,48136,48137,48138,48139,48140,48141,48142,48143,48144,48145,48146,48147,48148,48149,48150,48151,48152,48153,48154,48155,0,0,0,0,0,0,0,0,0,0,0,0,0,0,0,0,0,0,0,0,0,0,0,0,0,0,0,0,0,0,0,0,0,0,0,0,0,0,0,46081,46082,46083,46084,46085,46086,46087,46088,46089,46090,46091,46092,46093,46094,46095,46096,46097,46098,46099,46100,46101,46102,46103,46104,46105,46106,46107,0,0,0,0,0,0,0,0,0,0,0,0,0,0,0,0,0,0,
0,0,0,0,0,0,0,0,0,0,0,0,0,0,0,46849,46850,46851,46852,46853,46854,46855,46856,46857,46858,46859,46860,46861,46862,46863,46864,46865,46866,46867,46868,46869,46870,46871,46872,46873,46874,46875,0,0,0,0,0,0,0,0,0,0,0,0,0,0,0,0,0,0,0,0,0,0,0,0,0,0,0,0,0,0,0,0,0,0,0,0,0,0,0,0,0,0,0,0,0,0,0,48385,48386,48387,48388,48389,48390,48391,48392,48393,48394,48395,48396,48397,48398,48399,48400,48401,48402,48403,48404,48405,48406,48407,48408,48409,48410,48411,0,0,0,0,0,0,0,0,0,0,0,0,0,0,0,0,0,0,0,0,0,0,0,0,0,0,0,0,0,0,0,0,0,0,0,0,0,0,0,46337,46338,46339,46340,46341,46342,46343,46344,46345,46346,46347,46348,46349,46350,46351,46352,46353,46354,46355,46356,46357,46358,46359,46360,46361,46362,46363,0,0,0,0,0,0,0,0,0,0,0,0,0,0,0,0,0,0,
0,0,0,0,0,0,0,0,0,0,0,0,0,0,0,47105,47106,47107,47108,47109,47110,47111,47112,47113,47114,47115,47116,47117,47118,47119,47120,47121,47122,47123,47124,47125,47126,47127,47128,47129,47130,47131,0,0,0,0,0,0,0,0,0,0,0,0,0,0,0,0,0,0,0,0,0,0,0,0,0,0,0,0,0,0,0,0,0,0,0,0,0,0,0,0,0,0,0,0,0,0,0,48641,48642,48643,48644,48645,48646,48647,48648,48649,48650,48651,48652,48653,48654,48655,48656,48657,48658,48659,48660,48661,48662,48663,48664,48665,48666,48667,0,0,0,0,0,0,0,0,0,0,0,0,0,0,0,0,0,0,0,0,0,0,0,0,0,0,0,0,0,0,0,0,0,0,0,0,0,0,0,46593,46594,46595,46596,46597,46598,46599,46600,46601,46602,46603,46604,46605,46606,46607,46608,46609,46610,46611,46612,46613,46614,46615,46616,46617,46618,46619,0,0,0,0,0,0,0,0,0,0,0,0,0,0,0,0,0,0,
0,0,0,0,0,0,0,0,0,0,0,0,0,0,0,47361,47362,47363,47364,47365,47366,47367,47368,47369,47370,47371,47372,47373,47374,47375,47376,47377,47378,47379,47380,47381,47382,47383,47384,47385,47386,47387,0,0,0,0,0,0,0,0,0,0,0,0,0,0,0,0,0,0,0,0,0,0,0,0,0,0,0,0,0,0,0,0,0,0,0,0,0,0,0,0,0,0,0,0,0,0,0,48897,48898,48899,48900,48901,48902,48903,48904,48905,48906,48907,48908,48909,48910,48911,48912,48913,48914,48915,48916,48917,48918,48919,48920,48921,48922,48923,0,0,0,0,0,0,0,0,0,0,0,0,0,0,0,0,0,0,0,0,0,0,0,0,0,0,0,0,0,0,0,0,0,0,0,0,0,0,0,46849,46850,46851,46852,46853,46854,46855,46856,46857,46858,46859,46860,46861,46862,46863,46864,46865,46866,46867,46868,46869,46870,46871,46872,46873,46874,46875,0,0,0,0,0,0,0,0,0,0,0,0,0,0,0,0,0,0,
0,0,0,0,0,0,0,0,0,0,0,0,0,0,0,47617,47618,47619,47620,47621,47622,47623,47624,47625,47626,47627,47628,47629,47630,47631,47632,47633,47634,47635,47636,47637,47638,47639,47640,47641,47642,47643,0,0,0,0,0,0,0,0,0,0,0,0,0,0,0,0,0,0,0,0,0,0,0,0,0,0,0,0,0,0,0,0,0,0,0,0,0,0,0,0,0,0,0,0,0,0,0,49153,49154,49155,49156,49157,49158,49159,49160,49161,49162,49163,49164,49165,49166,49167,49168,49169,49170,49171,49172,49173,49174,49175,49176,49177,49178,49179,0,0,0,0,0,0,0,0,0,0,0,0,0,0,0,0,0,0,0,0,0,0,0,0,0,0,0,0,0,0,0,0,0,0,0,0,0,0,0,47105,47106,47107,47108,47109,47110,47111,47112,47113,47114,47115,47116,47117,47118,47119,47120,47121,47122,47123,47124,47125,47126,47127,47128,47129,47130,47131,0,0,0,0,0,0,0,0,0,0,0,0,0,0,0,0,0,0,
0,0,0,0,0,0,0,0,0,0,0,0,0,0,0,47873,47874,47875,47876,47877,47878,47879,47880,47881,47882,47883,47884,47885,47886,47887,47888,47889,47890,47891,47892,47893,47894,47895,47896,47897,47898,47899,0,0,0,0,0,0,0,0,0,0,0,0,0,0,0,0,0,0,0,0,0,0,0,0,0,0,0,0,0,0,0,0,0,0,0,0,0,0,0,0,0,0,0,0,0,0,0,49409,49410,49411,49412,49413,49414,49415,49416,49417,49418,49419,49420,49421,49422,49423,49424,49425,49426,49427,49428,49429,49430,49431,49432,49433,49434,49435,0,0,0,0,0,0,0,0,0,0,0,0,0,0,0,0,0,0,0,0,0,0,0,0,0,0,0,0,0,0,0,0,0,0,0,0,0,0,0,47361,47362,47363,47364,47365,47366,47367,47368,47369,47370,47371,47372,47373,47374,47375,47376,47377,47378,47379,47380,47381,47382,47383,47384,47385,47386,47387,0,0,0,0,0,0,0,0,0,0,0,0,0,0,0,0,0,0,
0,0,0,0,0,0,0,0,0,0,0,0,0,0,0,48129,48130,48131,48132,48133,48134,48135,48136,48137,48138,48139,48140,48141,48142,48143,48144,48145,48146,48147,48148,48149,48150,48151,48152,48153,48154,48155,0,0,0,0,0,0,0,0,0,0,0,0,0,0,0,0,0,0,0,0,0,0,0,0,0,0,0,0,0,0,0,0,0,0,0,0,0,0,0,0,0,0,0,0,0,0,0,49665,49666,49667,49668,49669,49670,49671,49672,49673,49674,49675,49676,49677,49678,49679,49680,49681,49682,49683,49684,49685,49686,49687,49688,49689,49690,49691,0,0,0,0,0,0,0,0,0,0,0,0,0,0,0,0,0,0,0,0,0,0,0,0,0,0,0,0,0,0,0,0,0,0,0,0,0,0,0,47617,47618,47619,47620,47621,47622,47623,47624,47625,47626,47627,47628,47629,47630,47631,47632,47633,47634,47635,47636,47637,47638,47639,47640,47641,47642,47643,0,0,0,0,0,0,0,0,0,0,0,0,0,0,0,0,0,0,
0,0,0,0,0,0,0,0,0,0,0,0,0,0,0,48385,48386,48387,48388,48389,48390,48391,48392,48393,48394,48395,48396,48397,48398,48399,48400,48401,48402,48403,48404,48405,48406,48407,48408,48409,48410,48411,0,0,0,0,0,0,0,0,0,0,0,0,0,0,0,0,0,0,0,0,0,0,0,0,0,0,0,0,0,0,0,0,0,0,0,0,0,0,0,0,0,0,0,0,0,0,0,49921,49922,49923,49924,49925,49926,49927,49928,49929,49930,49931,49932,49933,49934,49935,49936,49937,49938,49939,49940,49941,49942,49943,49944,49945,49946,49947,0,0,0,0,0,0,0,0,0,0,0,0,0,0,0,0,0,0,0,0,0,0,0,0,0,0,0,0,0,0,0,0,0,0,0,0,0,0,0,47873,47874,47875,47876,47877,47878,47879,47880,47881,47882,47883,47884,47885,47886,47887,47888,47889,47890,47891,47892,47893,47894,47895,47896,47897,47898,47899,0,0,0,0,0,0,0,0,0,0,0,0,0,0,0,0,0,0,
0,0,0,0,0,0,0,0,0,0,0,0,0,0,0,48641,48642,48643,48644,48645,48646,48647,48648,48649,48650,48651,48652,48653,48654,48655,48656,48657,48658,48659,48660,48661,48662,48663,48664,48665,48666,48667,0,0,0,0,0,0,0,0,0,0,0,0,0,0,0,0,0,0,0,0,0,0,0,0,0,0,0,0,0,0,0,0,0,0,0,0,0,0,0,0,0,0,0,0,0,0,0,50177,50178,50179,50180,50181,50182,50183,50184,50185,50186,50187,50188,50189,50190,50191,50192,50193,50194,50195,50196,50197,50198,50199,50200,50201,50202,50203,0,0,0,0,0,0,0,0,0,0,0,0,0,0,0,0,0,0,0,0,0,0,0,0,0,0,0,0,0,0,0,0,0,0,0,0,0,0,0,48129,48130,48131,48132,48133,48134,48135,48136,48137,48138,48139,48140,48141,48142,48143,48144,48145,48146,48147,48148,48149,48150,48151,48152,48153,48154,48155,0,0,0,0,0,0,0,0,0,0,0,0,0,0,0,0,0,0,
0,0,0,0,0,0,0,0,0,0,0,0,0,0,0,48897,48898,48899,48900,48901,48902,48903,48904,48905,48906,48907,48908,48909,48910,48911,48912,48913,48914,48915,48916,48917,48918,48919,48920,48921,48922,48923,0,0,0,0,0,0,0,0,0,0,0,0,0,0,0,0,0,0,0,0,0,0,0,0,0,0,0,0,0,0,0,0,0,0,0,0,0,0,0,0,0,0,0,0,0,0,0,50433,50434,50435,50436,50437,50438,50439,50440,50441,50442,50443,50444,50445,50446,50447,50448,50449,50450,50451,50452,50453,50454,50455,50456,50457,50458,50459,0,0,0,0,0,0,0,0,0,0,0,0,0,0,0,0,0,0,0,0,0,0,0,0,0,0,0,0,0,0,0,0,0,0,0,0,0,0,0,48385,48386,48387,48388,48389,48390,48391,48392,48393,48394,48395,48396,48397,48398,48399,48400,48401,48402,48403,48404,48405,48406,48407,48408,48409,48410,48411,0,0,0,0,0,0,0,0,0,0,0,0,0,0,0,0,0,0,
0,0,0,0,0,0,0,0,0,0,0,0,0,0,0,49153,49154,49155,49156,49157,49158,49159,49160,49161,49162,49163,49164,49165,49166,49167,49168,49169,49170,49171,49172,49173,49174,49175,49176,49177,49178,49179,0,0,0,0,0,0,0,0,0,0,0,0,0,0,0,0,0,0,0,0,0,0,0,0,0,0,0,0,0,0,0,0,0,0,0,0,0,0,0,0,0,0,0,0,0,0,0,50689,50690,50691,50692,50693,50694,50695,50696,50697,50698,50699,50700,50701,50702,50703,50704,50705,50706,50707,50708,50709,50710,50711,50712,50713,50714,50715,0,0,0,0,0,0,0,0,0,0,0,0,0,0,0,0,0,0,0,0,0,0,0,0,0,0,0,0,0,0,0,0,0,0,0,0,0,0,0,48641,48642,48643,48644,48645,48646,48647,48648,48649,48650,48651,48652,48653,48654,48655,48656,48657,48658,48659,48660,48661,48662,48663,48664,48665,48666,48667,0,0,0,0,0,0,0,0,0,0,0,0,0,0,0,0,0,0,
0,0,0,0,0,0,0,0,0,0,0,0,0,0,0,49409,49410,49411,49412,49413,49414,49415,49416,49417,49418,49419,49420,49421,49422,49423,49424,49425,49426,49427,49428,49429,49430,49431,49432,49433,49434,49435,0,0,0,0,0,0,0,0,0,0,0,0,0,0,0,0,0,0,0,0,0,0,0,0,0,0,0,0,0,0,0,0,0,0,0,0,0,0,0,0,0,0,0,0,0,0,0,50945,50946,50947,50948,50949,50950,50951,50952,50953,50954,50955,50956,50957,50958,50959,50960,50961,50962,50963,50964,50965,50966,50967,50968,50969,50970,50971,0,0,0,0,0,0,0,0,0,0,0,0,0,0,0,0,0,0,0,0,0,0,0,0,0,0,0,0,0,0,0,0,0,0,0,0,0,0,0,48897,48898,48899,48900,48901,48902,48903,48904,48905,48906,48907,48908,48909,48910,48911,48912,48913,48914,48915,48916,48917,48918,48919,48920,48921,48922,48923,0,0,0,0,0,0,0,0,0,0,0,0,0,0,0,0,0,0,
0,0,0,0,0,0,0,0,0,0,0,0,0,0,0,49665,49666,49667,49668,49669,49670,49671,49672,49673,49674,49675,49676,49677,49678,49679,49680,49681,49682,49683,49684,49685,49686,49687,49688,49689,49690,49691,0,0,0,0,0,0,0,0,0,0,0,0,0,0,0,0,0,0,0,0,0,0,0,0,0,0,0,0,0,0,0,0,0,0,0,0,0,0,0,0,0,0,0,0,0,0,0,51201,51202,51203,51204,51205,51206,51207,51208,51209,51210,51211,51212,51213,51214,51215,51216,51217,51218,51219,51220,51221,51222,51223,51224,51225,51226,51227,0,0,0,0,0,0,0,0,0,0,0,0,0,0,0,0,0,0,0,0,0,0,0,0,0,0,0,0,0,0,0,0,0,0,0,0,0,0,0,49153,49154,49155,49156,49157,49158,49159,49160,49161,49162,49163,49164,49165,49166,49167,49168,49169,49170,49171,49172,49173,49174,49175,49176,49177,49178,49179,0,0,0,0,0,0,0,0,0,0,0,0,0,0,0,0,0,0,
0,0,0,0,0,0,0,0,0,0,0,0,0,0,0,49921,49922,49923,49924,49925,49926,49927,49928,49929,49930,49931,49932,49933,49934,49935,49936,49937,49938,49939,49940,49941,49942,49943,49944,49945,49946,49947,0,0,0,0,0,0,0,0,0,0,0,0,0,0,0,0,0,0,0,0,0,0,0,0,0,0,0,0,0,0,0,0,0,0,0,0,0,0,0,0,0,0,0,0,0,0,0,51457,51458,51459,51460,51461,51462,51463,51464,51465,51466,51467,51468,51469,51470,51471,51472,51473,51474,51475,51476,51477,51478,51479,51480,51481,51482,51483,0,0,0,0,0,0,0,0,0,0,0,0,0,0,0,0,0,0,0,0,0,0,0,0,0,0,0,0,0,0,0,0,0,0,0,0,0,0,0,49409,49410,49411,49412,49413,49414,49415,49416,49417,49418,49419,49420,49421,49422,49423,49424,49425,49426,49427,49428,49429,49430,49431,49432,49433,49434,49435,0,0,0,0,0,0,0,0,0,0,0,0,0,0,0,0,0,0,
0,0,0,0,0,0,0,0,0,0,0,0,0,0,0,50177,50178,50179,50180,50181,50182,50183,50184,50185,50186,50187,50188,50189,50190,50191,50192,50193,50194,50195,50196,50197,50198,50199,50200,50201,50202,50203,0,0,0,0,0,0,0,0,0,0,0,0,0,0,0,0,0,0,0,0,0,0,0,0,0,0,0,0,0,0,0,0,0,0,0,0,0,0,0,0,0,0,0,0,0,0,0,51713,51714,51715,51716,51717,51718,51719,51720,51721,51722,51723,51724,51725,51726,51727,51728,51729,51730,51731,51732,51733,51734,51735,51736,51737,51738,51739,0,0,0,0,0,0,0,0,0,0,0,0,0,0,0,0,0,0,0,0,0,0,0,0,0,0,0,0,0,0,0,0,0,0,0,0,0,0,0,49665,49666,49667,49668,49669,49670,49671,49672,49673,49674,49675,49676,49677,49678,49679,49680,49681,49682,49683,49684,49685,49686,49687,49688,49689,49690,49691,0,0,0,0,0,0,0,0,0,0,0,0,0,0,0,0,0,0,
0,0,0,0,0,0,0,0,0,0,0,0,0,0,0,50433,50434,50435,50436,50437,50438,50439,50440,50441,50442,50443,50444,50445,50446,50447,50448,50449,50450,50451,50452,50453,50454,50455,50456,50457,50458,50459,0,0,0,0,0,0,0,0,0,0,0,0,0,0,0,0,0,0,0,0,0,0,0,0,0,0,0,0,0,0,0,0,0,0,0,0,0,0,0,0,0,0,0,0,0,0,0,51969,51970,51971,51972,51973,51974,51975,51976,51977,51978,51979,51980,51981,51982,51983,51984,51985,51986,51987,51988,51989,51990,51991,51992,51993,51994,51995,0,0,0,0,0,0,0,0,0,0,0,0,0,0,0,0,0,0,0,0,0,0,0,0,0,0,0,0,0,0,0,0,0,0,0,0,0,0,0,49921,49922,49923,49924,49925,49926,49927,49928,49929,49930,49931,49932,49933,49934,49935,49936,49937,49938,49939,49940,49941,49942,49943,49944,49945,49946,49947,0,0,0,0,0,0,0,0,0,0,0,0,0,0,0,0,0,0,
0,0,0,0,0,0,0,0,0,0,0,0,0,0,0,50689,50690,50691,50692,50693,50694,50695,50696,50697,50698,50699,50700,50701,50702,50703,50704,50705,50706,50707,50708,50709,50710,50711,50712,50713,50714,50715,0,0,0,0,0,0,0,0,0,0,0,0,0,0,0,0,0,0,0,0,0,0,0,0,0,0,0,0,0,0,0,0,0,0,0,0,0,0,0,0,0,0,0,0,0,0,0,52225,52226,52227,52228,52229,52230,52231,52232,52233,52234,52235,52236,52237,52238,52239,52240,52241,52242,52243,52244,52245,52246,52247,52248,52249,52250,52251,0,0,0,0,0,0,0,0,0,0,0,0,0,0,0,0,0,0,0,0,0,0,0,0,0,0,0,0,0,0,0,0,0,0,0,0,0,0,0,50177,50178,50179,50180,50181,50182,50183,50184,50185,50186,50187,50188,50189,50190,50191,50192,50193,50194,50195,50196,50197,50198,50199,50200,50201,50202,50203,0,0,0,0,0,0,0,0,0,0,0,0,0,0,0,0,0,0,
0,0,0,0,0,0,0,0,0,0,0,0,0,0,0,50945,50946,50947,50948,50949,50950,50951,50952,50953,50954,50955,50956,50957,50958,50959,50960,50961,50962,50963,50964,50965,50966,50967,50968,50969,50970,50971,0,0,0,0,0,0,0,0,0,0,0,0,0,0,0,0,0,0,0,0,0,0,0,0,0,0,0,0,0,0,0,0,0,0,0,0,0,0,0,0,0,0,0,0,0,0,0,52481,52482,52483,52484,52485,52486,52487,52488,52489,52490,52491,52492,52493,52494,52495,52496,52497,52498,52499,52500,52501,52502,52503,52504,52505,52506,52507,0,0,0,0,0,0,0,0,0,0,0,0,0,0,0,0,0,0,0,0,0,0,0,0,0,0,0,0,0,0,0,0,0,0,0,0,0,0,0,50433,50434,50435,50436,50437,50438,50439,50440,50441,50442,50443,50444,50445,50446,50447,50448,50449,50450,50451,50452,50453,50454,50455,50456,50457,50458,50459,0,0,0,0,0,0,0,0,0,0,0,0,0,0,0,0,0,0,
0,0,0,0,0,0,0,0,0,0,0,0,0,0,0,51201,51202,51203,51204,51205,51206,51207,51208,51209,51210,51211,51212,51213,51214,51215,51216,51217,51218,51219,51220,51221,51222,51223,51224,51225,51226,51227,0,0,0,0,0,0,0,0,0,0,0,0,0,0,0,0,0,0,0,0,0,0,0,0,0,0,0,0,0,0,0,0,0,0,0,0,0,0,0,0,0,0,0,0,0,0,0,52737,52738,52739,52740,52741,52742,52743,52744,52745,52746,52747,52748,52749,52750,52751,52752,52753,52754,52755,52756,52757,52758,52759,52760,52761,52762,52763,0,0,0,0,0,0,0,0,0,0,0,0,0,0,0,0,0,0,0,0,0,0,0,0,0,0,0,0,0,0,0,0,0,0,0,0,0,0,0,50689,50690,50691,50692,50693,50694,50695,50696,50697,50698,50699,50700,50701,50702,50703,50704,50705,50706,50707,50708,50709,50710,50711,50712,50713,50714,50715,0,0,0,0,0,0,0,0,0,0,0,0,0,0,0,0,0,0,
0,0,0,0,0,0,0,0,0,0,0,0,0,0,0,51457,51458,51459,51460,51461,51462,51463,51464,51465,51466,51467,51468,51469,51470,51471,51472,51473,51474,51475,51476,51477,51478,51479,51480,51481,51482,51483,0,0,0,0,0,0,0,0,0,0,0,0,0,0,0,0,0,0,0,0,0,0,0,0,0,0,0,0,0,0,0,0,0,0,0,0,0,0,0,0,0,0,0,0,0,0,0,52993,52994,52995,52996,52997,52998,52999,53000,53001,53002,53003,53004,53005,53006,53007,53008,53009,53010,53011,53012,53013,53014,53015,53016,53017,53018,53019,0,0,0,0,0,0,0,0,0,0,0,0,0,0,0,0,0,0,0,0,0,0,0,0,0,0,0,0,0,0,0,0,0,0,0,0,0,0,0,50945,50946,50947,50948,50949,50950,50951,50952,50953,50954,50955,50956,50957,50958,50959,50960,50961,50962,50963,50964,50965,50966,50967,50968,50969,50970,50971,0,0,0,0,0,0,0,0,0,0,0,0,0,0,0,0,0,0,
0,0,0,0,0,0,0,0,0,0,0,0,0,0,0,51713,51714,51715,51716,51717,51718,51719,51720,51721,51722,51723,51724,51725,51726,51727,51728,51729,51730,51731,51732,51733,51734,51735,51736,51737,51738,51739,0,0,0,0,0,0,0,0,0,0,0,0,0,0,0,0,0,0,0,0,0,0,0,0,0,0,0,0,0,0,0,0,0,0,0,0,0,0,0,0,0,0,0,0,0,0,0,53249,53250,53251,53252,53253,53254,53255,53256,53257,53258,53259,53260,53261,53262,53263,53264,53265,53266,53267,53268,53269,53270,53271,53272,53273,53274,53275,0,0,0,0,0,0,0,0,0,0,0,0,0,0,0,0,0,0,0,0,0,0,0,0,0,0,0,0,0,0,0,0,0,0,0,0,0,0,0,51201,51202,51203,51204,51205,51206,51207,51208,51209,51210,51211,51212,51213,51214,51215,51216,51217,51218,51219,51220,51221,51222,51223,51224,51225,51226,51227,0,0,0,0,0,0,0,0,0,0,0,0,0,0,0,0,0,0,
0,0,0,0,0,0,0,0,0,0,0,0,0,0,0,51969,51970,51971,51972,51973,51974,51975,51976,51977,51978,51979,51980,51981,51982,51983,51984,51985,51986,51987,51988,51989,51990,51991,51992,51993,51994,51995,0,0,0,0,0,0,0,0,0,0,0,0,0,0,0,0,0,0,0,0,0,0,0,0,0,0,0,0,0,0,0,0,0,0,0,0,0,0,0,0,0,0,0,0,0,0,0,53505,53506,53507,53508,53509,53510,53511,53512,53513,53514,53515,53516,53517,53518,53519,53520,53521,53522,53523,53524,53525,53526,53527,53528,53529,53530,53531,0,0,0,0,0,0,0,0,0,0,0,0,0,0,0,0,0,0,0,0,0,0,0,0,0,0,0,0,0,0,0,0,0,0,0,0,0,0,0,51457,51458,51459,51460,51461,51462,51463,51464,51465,51466,51467,51468,51469,51470,51471,51472,51473,51474,51475,51476,51477,51478,51479,51480,51481,51482,51483,0,0,0,0,0,0,0,0,0,0,0,0,0,0,0,0,0,0,
0,0,0,0,0,0,0,0,0,0,0,0,0,0,0,52225,52226,52227,52228,52229,52230,52231,52232,52233,52234,52235,52236,52237,52238,52239,52240,52241,52242,52243,52244,52245,52246,52247,52248,52249,52250,52251,0,0,0,0,0,0,0,0,0,0,0,0,0,0,0,0,0,0,0,0,0,0,0,0,0,0,0,0,0,0,0,0,0,0,0,0,0,0,0,0,0,0,0,0,0,0,0,53761,53762,53763,53764,53765,53766,53767,53768,53769,53770,53771,53772,53773,53774,53775,53776,53777,53778,53779,53780,53781,53782,53783,53784,53785,53786,53787,0,0,0,0,0,0,0,0,0,0,0,0,0,0,0,0,0,0,0,0,0,0,0,0,0,0,0,0,0,0,0,0,0,0,0,0,0,0,0,51713,51714,51715,51716,51717,51718,51719,51720,51721,51722,51723,51724,51725,51726,51727,51728,51729,51730,51731,51732,51733,51734,51735,51736,51737,51738,51739,0,0,0,0,0,0,0,0,0,0,0,0,0,0,0,0,0,0,
0,0,0,0,0,0,0,0,0,0,0,0,0,0,0,52481,52482,52483,52484,52485,52486,52487,52488,52489,52490,52491,52492,52493,52494,52495,52496,52497,52498,52499,52500,52501,52502,52503,52504,52505,52506,52507,0,0,0,0,0,0,0,0,0,0,0,0,0,0,0,0,0,0,0,0,0,0,0,0,0,0,0,0,0,0,0,0,0,0,0,0,0,0,0,0,0,0,0,0,0,0,0,54017,54018,54019,54020,54021,54022,54023,54024,54025,54026,54027,54028,54029,54030,54031,54032,54033,54034,54035,54036,54037,54038,54039,54040,54041,54042,54043,0,0,0,0,0,0,0,0,0,0,0,0,0,0,0,0,0,0,0,0,0,0,0,0,0,0,0,0,0,0,0,0,0,0,0,0,0,0,0,51969,51970,51971,51972,51973,51974,51975,51976,51977,51978,51979,51980,51981,51982,51983,51984,51985,51986,51987,51988,51989,51990,51991,51992,51993,51994,51995,0,0,0,0,0,0,0,0,0,0,0,0,0,0,0,0,0,0,
0,0,0,0,0,0,0,0,0,0,0,0,0,0,0,52737,52738,52739,52740,52741,52742,52743,52744,52745,52746,52747,52748,52749,52750,52751,52752,52753,52754,52755,52756,52757,52758,52759,52760,52761,52762,52763,0,0,0,0,0,0,0,0,0,0,0,0,0,0,0,0,0,0,0,0,0,0,0,0,0,0,0,0,0,0,0,0,0,0,0,0,0,0,0,0,0,0,0,0,0,0,0,54273,54274,54275,54276,54277,54278,54279,54280,54281,54282,54283,54284,54285,54286,54287,54288,54289,54290,54291,54292,54293,54294,54295,54296,54297,54298,54299,0,0,0,0,0,0,0,0,0,0,0,0,0,0,0,0,0,0,0,0,0,0,0,0,0,0,0,0,0,0,0,0,0,0,0,0,0,0,0,52225,52226,52227,52228,52229,52230,52231,52232,52233,52234,52235,52236,52237,52238,52239,52240,52241,52242,52243,52244,52245,52246,52247,52248,52249,52250,52251,0,0,0,0,0,0,0,0,0,0,0,0,0,0,0,0,0,0,
0,0,0,0,0,0,0,0,0,0,0,0,0,0,0,52993,52994,52995,52996,52997,52998,52999,53000,53001,53002,53003,53004,53005,53006,53007,53008,53009,53010,53011,53012,53013,53014,53015,53016,53017,53018,53019,0,0,0,0,0,0,0,0,0,0,0,0,0,0,0,0,0,0,0,0,0,0,0,0,0,0,0,0,0,0,0,0,0,0,0,0,0,0,0,0,0,0,0,0,0,0,0,54529,54530,54531,54532,54533,54534,54535,54536,54537,54538,54539,54540,54541,54542,54543,54544,54545,54546,54547,54548,54549,54550,54551,54552,54553,54554,54555,0,0,0,0,0,0,0,0,0,0,0,0,0,0,0,0,0,0,0,0,0,0,0,0,0,0,0,0,0,0,0,0,0,0,0,0,0,0,0,52481,52482,52483,52484,52485,52486,52487,52488,52489,52490,52491,52492,52493,52494,52495,52496,52497,52498,52499,52500,52501,52502,52503,52504,52505,52506,52507,0,0,0,0,0,0,0,0,0,0,0,0,0,0,0,0,0,0,
0,0,0,0,0,0,0,0,0,0,0,0,0,0,0,53249,53250,53251,53252,53253,53254,53255,53256,53257,53258,53259,53260,53261,53262,53263,53264,53265,53266,53267,53268,53269,53270,53271,53272,53273,53274,53275,0,0,0,0,0,0,0,0,0,0,0,0,0,0,0,0,0,0,0,0,0,0,0,0,0,0,0,0,0,0,0,0,0,0,0,0,0,0,0,0,0,0,0,0,0,0,0,54785,54786,54787,54788,54789,54790,54791,54792,54793,54794,54795,54796,54797,54798,54799,54800,54801,54802,54803,54804,54805,54806,54807,54808,54809,54810,54811,0,0,0,0,0,0,0,0,0,0,0,0,0,0,0,0,0,0,0,0,0,0,0,0,0,0,0,0,0,0,0,0,0,0,0,0,0,0,0,52737,52738,52739,52740,52741,52742,52743,52744,52745,52746,52747,52748,52749,52750,52751,52752,52753,52754,52755,52756,52757,52758,52759,52760,52761,52762,52763,0,0,0,0,0,0,0,0,0,0,0,0,0,0,0,0,0,0,
0,0,0,0,0,0,0,0,0,0,0,0,0,0,0,53505,53506,53507,53508,53509,53510,53511,53512,53513,53514,53515,53516,53517,53518,53519,53520,53521,53522,53523,53524,53525,53526,53527,53528,53529,53530,53531,0,0,0,0,0,0,0,0,0,0,0,0,0,0,0,0,0,0,0,0,0,0,0,0,0,0,0,0,0,0,0,0,0,0,0,0,0,0,0,0,0,0,0,0,0,0,0,55041,55042,55043,55044,55045,55046,55047,55048,55049,55050,55051,55052,55053,55054,55055,55056,55057,55058,55059,55060,55061,55062,55063,55064,55065,55066,55067,0,0,0,0,0,0,0,0,0,0,0,0,0,0,0,0,0,0,0,0,0,0,0,0,0,0,0,0,0,0,0,0,0,0,0,0,0,0,0,52993,52994,52995,52996,52997,52998,52999,53000,53001,53002,53003,53004,53005,53006,53007,53008,53009,53010,53011,53012,53013,53014,53015,53016,53017,53018,53019,0,0,0,0,0,0,0,0,0,0,0,0,0,0,0,0,0,0,
0,0,0,0,0,0,0,0,0,0,0,0,0,0,0,53761,53762,53763,53764,53765,53766,53767,53768,53769,53770,53771,53772,53773,53774,53775,53776,53777,53778,53779,53780,53781,53782,53783,53784,53785,53786,53787,0,0,0,0,0,0,0,0,0,0,0,0,0,0,0,0,0,0,0,0,0,0,0,0,0,0,0,0,0,0,0,0,0,0,0,0,0,0,0,0,0,0,0,0,0,0,0,55297,55298,55299,55300,55301,55302,55303,55304,55305,55306,55307,55308,55309,55310,55311,55312,55313,55314,55315,55316,55317,55318,55319,55320,55321,55322,55323,0,0,0,0,0,0,0,0,0,0,0,0,0,0,0,0,0,0,0,0,0,0,0,0,0,0,0,0,0,0,0,0,0,0,0,0,0,0,0,53249,53250,53251,53252,53253,53254,53255,53256,53257,53258,53259,53260,53261,53262,53263,53264,53265,53266,53267,53268,53269,53270,53271,53272,53273,53274,53275,0,0,0,0,0,0,0,0,0,0,0,0,0,0,0,0,0,0,
0,0,0,0,0,0,0,0,0,0,0,0,0,0,0,54017,54018,54019,54020,54021,54022,54023,54024,54025,54026,54027,54028,54029,54030,54031,54032,54033,54034,54035,54036,54037,54038,54039,54040,54041,54042,54043,0,0,0,0,0,0,0,0,0,0,0,0,0,0,0,0,0,0,0,0,0,0,0,0,0,0,0,0,0,0,0,0,0,0,0,0,0,0,0,0,0,0,0,0,0,0,0,55553,55554,55555,55556,55557,55558,55559,55560,55561,55562,55563,55564,55565,55566,55567,55568,55569,55570,55571,55572,55573,55574,55575,55576,55577,55578,55579,0,0,0,0,0,0,0,0,0,0,0,0,0,0,0,0,0,0,0,0,0,0,0,0,0,0,0,0,0,0,0,0,0,0,0,0,0,0,0,53505,53506,53507,53508,53509,53510,53511,53512,53513,53514,53515,53516,53517,53518,53519,53520,53521,53522,53523,53524,53525,53526,53527,53528,53529,53530,53531,0,0,0,0,0,0,0,0,0,0,0,0,0,0,0,0,0,0,
0,0,0,0,0,0,0,0,0,0,0,0,0,0,0,54273,54274,54275,54276,54277,54278,54279,54280,54281,54282,54283,54284,54285,54286,54287,54288,54289,54290,54291,54292,54293,54294,54295,54296,54297,54298,54299,0,0,0,0,0,0,0,0,0,0,0,0,0,0,0,0,0,0,0,0,0,0,0,0,0,0,0,0,0,0,0,0,0,0,0,0,0,0,0,0,0,0,0,0,0,0,0,55809,55810,55811,55812,55813,55814,55815,55816,55817,55818,55819,55820,55821,55822,55823,55824,55825,55826,55827,55828,55829,55830,55831,55832,55833,55834,55835,0,0,0,0,0,0,0,0,0,0,0,0,0,0,0,0,0,0,0,0,0,0,0,0,0,0,0,0,0,0,0,0,0,0,0,0,0,0,0,53761,53762,53763,53764,53765,53766,53767,53768,53769,53770,53771,53772,53773,53774,53775,53776,53777,53778,53779,53780,53781,53782,53783,53784,53785,53786,53787,0,0,0,0,0,0,0,0,0,0,0,0,0,0,0,0,0,0,
0,0,0,0,0,0,0,0,0,0,0,0,0,0,0,54529,54530,54531,54532,54533,54534,54535,54536,54537,54538,54539,54540,54541,54542,54543,54544,54545,54546,54547,54548,54549,54550,54551,54552,54553,54554,54555,0,0,0,0,0,0,0,0,0,0,0,0,0,0,0,0,0,0,0,0,0,0,0,0,0,0,0,0,0,0,0,0,0,0,0,0,0,0,0,0,0,0,0,0,0,0,0,0,0,0,0,0,0,0,0,0,0,0,0,0,0,0,0,0,0,0,0,0,0,0,0,0,0,0,0,0,0,0,0,0,0,0,0,0,0,0,0,0,0,0,0,0,0,0,0,0,0,0,0,0,0,0,0,0,0,0,0,0,0,0,0,0,0,54017,54018,54019,54020,54021,54022,54023,54024,54025,54026,54027,54028,54029,54030,54031,54032,54033,54034,54035,54036,54037,54038,54039,54040,54041,54042,54043,0,0,0,0,0,0,0,0,0,0,0,0,0,0,0,0,0,0,
0,0,0,0,0,0,0,0,0,0,0,0,0,0,0,54785,54786,54787,54788,54789,54790,54791,54792,54793,54794,54795,54796,54797,54798,54799,54800,54801,54802,54803,54804,54805,54806,54807,54808,54809,54810,54811,0,0,0,0,0,0,0,0,0,0,0,0,0,0,0,0,0,0,0,0,0,0,0,0,0,0,0,0,0,0,0,0,0,0,0,0,0,0,0,0,0,0,0,0,0,0,0,0,0,0,0,0,0,0,0,0,0,0,0,0,0,0,0,0,0,0,0,0,0,0,0,0,0,0,0,0,0,0,0,0,0,0,0,0,0,0,0,0,0,0,0,0,0,0,0,0,0,0,0,0,0,0,0,0,0,0,0,0,0,0,0,0,0,54273,54274,54275,54276,54277,54278,54279,54280,54281,54282,54283,54284,54285,54286,54287,54288,54289,54290,54291,54292,54293,54294,54295,54296,54297,54298,54299,0,0,0,0,0,0,0,0,0,0,0,0,0,0,0,0,0,0,
0,0,0,0,0,0,0,0,0,0,0,0,0,0,0,55041,55042,55043,55044,55045,55046,55047,55048,55049,55050,55051,55052,55053,55054,55055,55056,55057,55058,55059,55060,55061,55062,55063,55064,55065,55066,55067,0,0,0,0,0,0,0,0,0,0,0,0,0,0,0,0,0,0,0,0,0,0,0,0,0,0,0,0,0,0,0,0,0,0,0,0,0,0,0,0,0,0,0,0,0,0,0,0,0,0,0,0,0,0,0,0,0,0,0,0,0,0,0,0,0,0,0,0,0,0,0,0,0,0,0,0,0,0,0,0,0,0,0,0,0,0,0,0,0,0,0,0,0,0,0,0,0,0,0,0,0,0,0,0,0,0,0,0,0,0,0,0,0,54529,54530,54531,54532,54533,54534,54535,54536,54537,54538,54539,54540,54541,54542,54543,54544,54545,54546,54547,54548,54549,54550,54551,54552,54553,54554,54555,0,0,0,0,0,0,0,0,0,0,0,0,0,0,0,0,0,0,
0,0,0,0,0,0,0,0,0,0,0,0,0,0,0,55297,55298,55299,55300,55301,55302,55303,55304,55305,55306,55307,55308,55309,55310,55311,55312,55313,55314,55315,55316,55317,55318,55319,55320,55321,55322,55323,0,0,0,0,0,0,0,0,0,0,0,0,0,0,0,0,0,0,0,0,0,0,0,0,0,0,0,0,0,0,0,0,0,0,0,0,0,0,0,0,0,0,0,0,0,0,0,0,0,0,0,0,0,0,0,0,0,0,0,0,0,0,0,0,0,0,0,0,0,0,0,0,0,0,0,0,0,0,0,0,0,0,0,0,0,0,0,0,0,0,0,0,0,0,0,0,0,0,0,0,0,0,0,0,0,0,0,0,0,0,0,0,0,54785,54786,54787,54788,54789,54790,54791,54792,54793,54794,54795,54796,54797,54798,54799,54800,54801,54802,54803,54804,54805,54806,54807,54808,54809,54810,54811,0,0,0,0,0,0,0,0,0,0,0,0,0,0,0,0,0,0,
0,0,0,0,0,0,0,0,0,0,0,0,0,0,0,55553,55554,55555,55556,55557,55558,55559,55560,55561,55562,55563,55564,55565,55566,55567,55568,55569,55570,55571,55572,55573,55574,55575,55576,55577,55578,55579,0,0,0,0,0,0,0,0,0,0,0,0,0,0,0,0,0,0,0,0,0,0,0,0,0,0,0,0,0,0,0,0,0,0,0,0,0,0,0,0,0,0,0,0,0,0,0,0,0,0,0,0,0,0,0,0,0,0,0,0,0,0,0,0,0,0,0,0,0,0,0,0,0,0,0,0,0,0,0,0,0,0,0,0,0,0,0,0,0,0,0,0,0,0,0,0,0,0,0,0,0,0,0,0,0,0,0,0,0,0,0,0,0,55041,55042,55043,55044,55045,55046,55047,55048,55049,55050,55051,55052,55053,55054,55055,55056,55057,55058,55059,55060,55061,55062,55063,55064,55065,55066,55067,0,0,0,0,0,0,0,0,0,0,0,0,0,0,0,0,0,0,
0,0,0,0,0,0,0,0,0,0,0,0,0,0,0,55809,55810,55811,55812,55813,55814,55815,55816,55817,55818,55819,55820,55821,55822,55823,55824,55825,55826,55827,55828,55829,55830,55831,55832,55833,55834,55835,0,0,0,0,0,0,0,0,0,0,0,0,0,0,0,0,0,0,0,0,0,0,0,0,0,0,0,0,0,0,0,0,0,0,0,0,0,0,0,0,0,0,0,0,0,0,0,0,0,0,0,0,0,0,0,0,0,0,0,0,0,0,0,0,0,0,0,0,0,0,0,0,0,0,0,0,0,0,0,0,0,0,0,0,0,0,0,0,0,0,0,0,0,0,0,0,0,0,0,0,0,0,0,0,0,0,0,0,0,0,0,0,0,55297,55298,55299,55300,55301,55302,55303,55304,55305,55306,55307,55308,55309,55310,55311,55312,55313,55314,55315,55316,55317,55318,55319,55320,55321,55322,55323,0,0,0,0,0,0,0,0,0,0,0,0,0,0,0,0,0,0,
0,0,0,0,0,0,0,0,0,0,0,0,0,0,0,0,0,0,0,0,0,0,0,0,0,0,0,0,0,0,0,0,0,0,0,0,0,0,0,0,0,0,0,0,0,0,0,0,0,0,0,0,0,0,0,0,0,0,0,0,0,0,0,0,0,0,0,0,0,0,0,0,0,0,0,0,0,0,0,0,0,0,0,0,0,0,0,0,0,0,0,0,0,0,0,0,0,0,0,0,0,0,0,0,0,0,0,0,0,0,0,0,0,0,0,0,0,0,0,0,0,0,0,0,0,0,0,0,0,0,0,0,0,0,0,0,0,0,0,0,0,0,0,0,0,0,0,0,0,0,0,0,0,0,0,55553,55554,55555,55556,55557,55558,55559,55560,55561,55562,55563,55564,55565,55566,55567,55568,55569,55570,55571,55572,55573,55574,55575,55576,55577,55578,55579,0,0,0,0,0,0,0,0,0,0,0,0,0,0,0,0,0,0,
0,0,0,0,0,0,0,0,0,0,0,0,0,0,0,0,0,0,0,0,0,0,0,0,0,0,0,0,0,0,0,0,0,0,0,0,0,0,0,0,0,0,0,0,0,0,0,0,0,0,0,0,0,0,0,0,0,0,0,0,0,0,0,0,0,0,0,0,0,0,0,0,0,0,0,0,0,0,0,0,0,0,0,0,0,0,0,0,0,0,0,0,0,0,0,0,0,0,0,0,0,0,0,0,0,0,0,0,0,0,0,0,0,0,0,0,0,0,0,0,0,0,0,0,0,0,0,0,0,0,0,0,0,0,0,0,0,0,0,0,0,0,0,0,0,0,0,0,0,0,0,0,0,0,0,55809,55810,55811,55812,55813,55814,55815,55816,55817,55818,55819,55820,55821,55822,55823,55824,55825,55826,55827,55828,55829,55830,55831,55832,55833,55834,55835,0,0,0,0,0,0,0,0,0,0,0,0,0,0,0,0,0,0,
0,0,0,0,0,0,0,0,0,0,0,0,0,0,0,0,0,0,0,0,0,0,0,0,0,0,0,0,0,0,0,0,0,0,0,0,0,0,0,0,0,0,0,0,0,0,0,0,0,0,0,0,0,0,0,0,0,0,0,0,0,0,0,0,0,0,0,0,0,0,0,0,0,0,0,0,0,0,0,0,0,0,0,0,0,0,0,0,0,0,0,0,0,0,0,0,0,0,0,0,0,0,0,0,0,0,0,0,0,0,0,0,0,0,0,0,0,0,0,0,0,0,0,0,0,0,0,0,0,0,0,0,0,0,0,0,0,0,0,0,0,0,0,0,0,0,0,0,0,0,0,0,0,0,0,0,0,0,0,0,0,0,0,0,0,0,0,0,0,0,0,0,0,0,0,0,0,0,0,0,0,0,0,0,0,0,0,0,0,0,0,0,0,0,0,0,0,0,0,0,
0,0,0,0,0,0,0,0,0,0,0,0,0,0,0,0,0,0,0,0,0,0,0,0,0,0,0,0,0,0,0,0,0,0,0,0,0,0,0,0,0,0,0,0,0,0,0,0,0,0,0,0,0,0,0,0,0,0,0,0,0,0,0,0,0,0,0,0,0,0,0,0,0,0,0,0,0,0,0,0,0,0,0,0,0,0,0,0,0,0,0,0,0,0,0,0,0,0,0,0,0,0,0,0,0,0,0,0,0,0,0,0,0,0,0,0,0,0,0,0,0,0,0,0,0,0,0,0,0,0,0,0,0,0,0,0,0,0,0,0,0,0,0,0,0,0,0,0,0,0,0,0,0,0,0,0,0,0,0,0,0,0,0,0,0,0,0,0,0,0,0,0,0,0,0,0,0,0,0,0,0,0,0,0,0,0,0,0,0,0,0,0,0,0,0,0,0,0,0,0,
0,0,0,0,0,0,0,0,0,0,0,0,0,0,0,0,0,0,0,0,0,0,0,0,0,0,0,0,0,0,0,0,0,0,0,0,0,0,0,0,0,0,0,0,0,0,0,0,0,0,0,0,0,0,0,0,0,0,0,0,0,0,0,0,0,0,0,0,0,0,0,0,0,0,0,0,0,0,0,0,0,0,0,0,0,0,0,0,0,0,0,0,0,0,0,0,0,0,0,0,0,0,0,0,0,0,0,0,0,0,0,0,0,0,0,0,0,0,0,0,0,0,0,0,0,0,0,0,0,0,0,0,0,0,0,0,0,0,0,0,0,0,0,0,0,0,0,0,0,0,0,0,0,0,0,0,0,0,0,0,0,0,0,0,0,0,0,0,0,0,0,0,0,0,0,0,0,0,0,0,0,0,0,0,0,0,0,0,0,0,0,0,0,0,0,0,0,0,0,0,
0,0,0,0,0,0,0,0,0,0,0,0,0,0,0,0,0,0,0,0,0,0,0,0,0,0,0,0,0,0,0,0,0,0,0,0,0,0,0,0,0,0,0,0,0,0,0,0,0,0,0,0,0,0,0,0,0,0,0,0,0,0,0,0,0,0,0,0,0,0,0,0,0,0,0,0,0,0,0,0,0,0,0,0,0,0,0,0,0,0,0,0,0,0,0,0,0,0,0,0,0,0,0,0,0,0,0,0,0,0,0,0,0,0,0,0,0,0,0,0,0,0,0,0,0,0,0,0,0,0,0,0,0,0,0,0,0,0,0,0,0,0,0,0,0,0,0,0,0,0,0,0,0,0,0,0,0,0,0,0,0,0,0,0,0,0,0,0,0,0,0,0,0,0,0,0,0,0,0,0,0,0,0,0,0,0,0,0,0,0,0,0,0,0,0,0,0,0,0,0,
0,0,0,0,0,0,0,0,0,0,0,0,0,0,0,0,0,0,0,0,0,0,0,0,0,0,0,0,0,0,0,0,0,0,0,0,0,0,0,0,0,0,0,0,0,0,0,0,0,0,0,0,0,0,0,0,0,0,0,0,0,0,0,0,0,0,0,0,0,0,0,0,0,0,0,0,0,0,0,0,0,0,0,0,0,0,0,0,0,0,0,0,0,0,0,0,0,0,0,0,0,0,0,0,0,0,0,0,0,0,0,0,0,0,0,0,0,0,0,0,0,0,0,0,0,0,0,0,0,0,0,0,0,0,0,0,0,0,0,0,0,0,0,0,0,0,0,0,0,0,0,0,0,0,0,0,0,0,0,0,0,0,0,0,0,0,0,0,0,0,0,0,0,0,0,0,0,0,0,0,0,0,0,0,0,0,0,0,0,0,0,0,0,0,0,0,0,0,0,0,
0,0,0,0,0,0,0,0,0,0,0,0,0,0,0,0,0,0,0,0,0,0,0,0,0,0,0,0,0,0,0,0,0,0,0,0,0,0,0,0,0,0,0,0,0,0,0,0,0,0,0,0,0,0,0,0,0,0,0,0,0,0,0,0,0,0,0,0,0,0,0,0,0,0,0,0,0,0,0,0,0,0,0,0,0,0,0,0,0,0,0,0,0,0,0,0,0,0,0,0,0,0,0,0,0,0,0,0,0,0,0,0,0,0,0,0,0,0,0,0,0,0,0,0,0,0,0,0,0,0,0,0,0,0,0,0,0,0,0,0,0,0,0,0,0,0,0,0,0,0,0,0,0,0,0,0,0,0,0,0,0,0,0,0,0,0,0,0,0,0,0,0,0,0,0,0,0,0,0,0,0,0,0,0,0,0,0,0,0,0,0,0,0,0,0,0,0,0,0,0,
0,0,0,0,0,0,0,0,0,0,0,0,0,0,0,0,0,0,0,0,0,0,0,0,0,0,0,0,0,0,0,0,0,0,0,0,0,0,0,0,0,0,0,0,0,45825,45826,45827,45828,45829,45830,45831,45832,45833,45834,45835,45836,45837,45838,45839,45840,45841,45842,45843,45844,45845,45846,45847,45848,45849,45850,45851,0,0,0,0,0,0,0,0,0,0,0,0,0,0,0,0,0,0,0,0,0,0,0,0,0,0,0,0,0,0,0,0,0,0,0,0,0,0,0,0,0,0,0,0,0,0,0,0,0,0,0,0,0,0,0,0,0,0,0,0,0,0,0,0,0,0,0,0,0,0,0,0,0,0,0,0,0,0,0,0,0,0,0,0,0,0,0,0,0,0,0,0,0,0,0,0,0,0,0,0,0,0,0,0,0,0,0,0,0,0,0,0,0,0,0,0,0,0,0,0,0,0,0,0,0,0,0,0,
0,0,0,0,0,0,0,0,0,0,0,0,0,0,0,0,0,0,0,0,0,0,0,0,0,0,0,0,0,0,0,0,0,0,0,0,0,0,0,0,0,0,0,0,0,46081,46082,46083,46084,46085,46086,46087,46088,46089,46090,46091,46092,46093,46094,46095,46096,46097,46098,46099,46100,46101,46102,46103,46104,46105,46106,46107,0,0,0,0,0,0,0,0,0,0,0,0,0,0,0,0,0,0,0,0,0,0,0,0,0,0,0,0,0,0,0,0,0,0,0,0,0,0,0,0,0,0,0,0,0,0,0,0,0,0,0,0,0,0,0,0,0,0,0,0,0,0,0,0,0,0,0,0,0,0,0,0,0,0,0,0,0,0,0,0,0,0,0,0,0,0,0,0,0,0,0,0,0,0,0,0,0,0,0,0,0,0,0,0,0,0,0,0,0,0,0,0,0,0,0,0,0,0,0,0,0,0,0,0,0,0,0,0,
0,0,0,0,0,0,0,0,0,0,0,0,0,0,0,0,0,0,0,0,0,0,0,0,0,0,0,0,0,0,0,0,0,0,0,0,0,0,0,0,0,0,0,0,0,46337,46338,46339,46340,46341,46342,46343,46344,46345,46346,46347,46348,46349,46350,46351,46352,46353,46354,46355,46356,46357,46358,46359,46360,46361,46362,46363,0,0,0,0,0,0,0,0,0,0,0,0,0,0,0,0,0,0,0,0,0,0,0,0,0,0,0,0,0,0,0,0,0,0,0,0,0,0,0,0,0,0,0,0,0,0,0,0,0,0,0,0,0,0,45825,45826,45827,45828,45829,45830,45831,45832,45833,45834,45835,45836,45837,45838,45839,45840,45841,45842,45843,45844,45845,45846,45847,45848,45849,45850,45851,0,0,0,0,0,0,0,0,0,0,0,0,0,0,0,0,0,0,0,0,0,0,0,0,0,0,0,0,0,0,0,0,0,0,0,0,0,0,0,0,0,0,0,0,0,0,0,
0,0,0,0,0,0,0,0,0,0,0,0,0,0,0,0,0,0,0,0,0,0,0,0,0,0,0,0,0,0,0,0,0,0,0,0,0,0,0,0,0,0,0,0,0,46593,46594,46595,46596,46597,46598,46599,46600,46601,46602,46603,46604,46605,46606,46607,46608,46609,46610,46611,46612,46613,46614,46615,46616,46617,46618,46619,0,0,0,0,0,0,0,0,0,0,0,0,0,0,0,0,0,0,0,0,0,0,0,0,0,0,0,0,0,0,0,0,0,0,0,0,0,0,0,0,0,0,0,0,0,0,0,0,0,0,0,0,0,0,46081,46082,46083,46084,46085,46086,46087,46088,46089,46090,46091,46092,46093,46094,46095,46096,46097,46098,46099,46100,46101,46102,46103,46104,46105,46106,46107,0,0,0,0,0,0,0,0,0,0,0,0,0,0,0,0,0,0,0,0,0,0,0,0,0,0,0,0,0,0,0,0,0,0,0,0,0,0,0,0,0,0,0,0,0,0,0,
0,0,0,0,0,0,0,0,0,0,0,0,0,0,0,0,0,0,0,0,0,0,0,0,0,0,0,0,0,0,0,0,0,0,0,0,0,0,0,0,0,0,0,0,0,46849,46850,46851,46852,46853,46854,46855,46856,46857,46858,46859,46860,46861,46862,46863,46864,46865,46866,46867,46868,46869,46870,46871,46872,46873,46874,46875,0,0,0,0,0,0,0,0,0,0,0,0,0,0,0,0,0,0,0,0,0,0,0,0,0,0,0,0,0,0,0,0,0,0,0,0,0,0,0,0,0,0,0,0,0,0,0,0,0,0,0,0,0,0,46337,46338,46339,46340,46341,46342,46343,46344,46345,46346,46347,46348,46349,46350,46351,46352,46353,46354,46355,46356,46357,46358,46359,46360,46361,46362,46363,0,0,0,0,0,0,0,0,0,0,0,0,0,0,0,0,0,0,0,0,0,0,0,0,0,0,0,0,0,0,0,0,0,0,0,0,0,0,0,0,0,0,0,0,0,0,0,
0,0,0,0,0,0,0,0,0,0,0,0,0,0,0,0,0,0,0,0,0,0,0,0,0,0,0,0,0,0,0,0,0,0,0,0,0,0,0,0,0,0,0,0,0,47105,47106,47107,47108,47109,47110,47111,47112,47113,47114,47115,47116,47117,47118,47119,47120,47121,47122,47123,47124,47125,47126,47127,47128,47129,47130,47131,0,0,0,0,0,0,0,0,0,0,0,0,0,0,0,0,0,0,0,0,0,0,0,0,0,0,0,0,0,0,0,0,0,0,0,0,0,0,0,0,0,0,0,0,0,0,0,0,0,0,0,0,0,0,46593,46594,46595,46596,46597,46598,46599,46600,46601,46602,46603,46604,46605,46606,46607,46608,46609,46610,46611,46612,46613,46614,46615,46616,46617,46618,46619,0,0,0,0,0,0,0,0,0,0,0,0,0,0,0,0,0,0,0,0,0,0,0,0,0,0,0,0,0,0,0,0,0,0,0,0,0,0,0,0,0,0,0,0,0,0,0,
0,0,0,0,0,0,0,0,0,0,0,0,0,0,0,0,0,0,0,0,0,0,0,0,0,0,0,0,0,0,0,0,0,0,0,0,0,0,0,0,0,0,0,0,0,47361,47362,47363,47364,47365,47366,47367,47368,47369,47370,47371,47372,47373,47374,47375,47376,47377,47378,47379,47380,47381,47382,47383,47384,47385,47386,47387,0,0,0,0,0,0,0,0,0,0,0,0,0,0,0,0,0,0,0,0,0,0,0,0,0,0,0,0,0,0,0,0,0,0,0,0,0,0,0,0,0,0,0,0,0,0,0,0,0,0,0,0,0,0,46849,46850,46851,46852,46853,46854,46855,46856,46857,46858,46859,46860,46861,46862,46863,46864,46865,46866,46867,46868,46869,46870,46871,46872,46873,46874,46875,0,0,0,0,0,0,0,0,0,0,0,0,0,0,0,0,0,0,0,0,0,0,0,0,0,0,0,0,0,0,0,0,0,0,0,0,0,0,0,0,0,0,0,0,0,0,0,
0,0,0,0,0,0,0,0,0,0,0,0,0,0,0,0,0,0,0,0,0,0,0,0,0,0,0,0,0,0,0,0,0,0,0,0,0,0,0,0,0,0,0,0,0,47617,47618,47619,47620,47621,47622,47623,47624,47625,47626,47627,47628,47629,47630,47631,47632,47633,47634,47635,47636,47637,47638,47639,47640,47641,47642,47643,0,0,0,0,0,0,0,0,0,0,0,0,0,0,0,0,0,0,0,0,0,0,0,0,0,0,0,0,0,0,0,0,0,0,0,0,0,0,0,0,0,0,0,0,0,0,0,0,0,0,0,0,0,0,47105,47106,47107,47108,47109,47110,47111,47112,47113,47114,47115,47116,47117,47118,47119,47120,47121,47122,47123,47124,47125,47126,47127,47128,47129,47130,47131,0,0,0,0,0,0,0,0,0,0,0,0,0,0,0,0,0,0,0,0,0,0,0,0,0,0,0,0,0,0,0,0,0,0,0,0,0,0,0,0,0,0,0,0,0,0,0,
0,0,0,0,0,0,0,0,0,0,0,0,0,0,0,0,0,0,0,0,0,0,0,0,0,0,0,0,0,0,0,0,0,0,0,0,0,0,0,0,0,0,0,0,0,47873,47874,47875,47876,47877,47878,47879,47880,47881,47882,47883,47884,47885,47886,47887,47888,47889,47890,47891,47892,47893,47894,47895,47896,47897,47898,47899,0,0,0,0,0,0,0,0,0,0,0,0,0,0,0,0,0,0,0,0,0,0,0,0,0,0,0,0,0,0,0,0,0,0,0,0,0,0,0,0,0,0,0,0,0,0,0,0,0,0,0,0,0,0,47361,47362,47363,47364,47365,47366,47367,47368,47369,47370,47371,47372,47373,47374,47375,47376,47377,47378,47379,47380,47381,47382,47383,47384,47385,47386,47387,0,0,0,0,0,0,0,0,0,0,0,0,0,0,0,0,0,0,0,0,0,0,0,0,0,0,0,0,0,0,0,0,0,0,0,0,0,0,0,0,0,0,0,0,0,0,0,
0,0,0,0,0,0,0,0,0,0,0,0,0,0,0,0,0,0,0,0,0,0,0,0,0,0,0,0,0,0,0,0,0,0,0,0,0,0,0,0,0,0,0,0,0,48129,48130,48131,48132,48133,48134,48135,48136,48137,48138,48139,48140,48141,48142,48143,48144,48145,48146,48147,48148,48149,48150,48151,48152,48153,48154,48155,0,0,0,0,0,0,0,0,0,0,0,0,0,0,0,0,0,0,0,0,0,0,0,0,0,0,0,0,0,0,0,0,0,0,0,0,0,0,0,0,0,0,0,0,0,0,0,0,0,0,0,0,0,0,47617,47618,47619,47620,47621,47622,47623,47624,47625,47626,47627,47628,47629,47630,47631,47632,47633,47634,47635,47636,47637,47638,47639,47640,47641,47642,47643,0,0,0,0,0,0,0,0,0,0,0,0,0,0,0,0,0,0,0,0,0,0,0,0,0,0,0,0,0,0,0,0,0,0,0,0,0,0,0,0,0,0,0,0,0,0,0,
0,0,0,0,0,0,0,0,0,0,0,0,0,0,0,0,0,0,0,0,0,0,0,0,0,0,0,0,0,0,0,0,0,0,0,0,0,0,0,0,0,0,0,0,0,48385,48386,48387,48388,48389,48390,48391,48392,48393,48394,48395,48396,48397,48398,48399,48400,48401,48402,48403,48404,48405,48406,48407,48408,48409,48410,48411,0,0,0,0,0,0,0,0,0,0,0,0,0,0,0,0,0,0,0,0,0,0,0,0,0,0,0,0,0,0,0,0,0,0,0,0,0,0,0,0,0,0,0,0,0,0,0,0,0,0,0,0,0,0,47873,47874,47875,47876,47877,47878,47879,47880,47881,47882,47883,47884,47885,47886,47887,47888,47889,47890,47891,47892,47893,47894,47895,47896,47897,47898,47899,0,0,0,0,0,0,0,0,0,0,0,0,0,0,0,0,0,0,0,0,0,0,0,0,0,0,0,0,0,0,0,0,0,0,0,0,0,0,0,0,0,0,0,0,0,0,0,
0,0,0,0,0,0,0,0,0,0,0,0,0,0,0,0,0,0,0,0,0,0,0,0,0,0,0,0,0,0,0,0,0,0,0,0,0,0,0,0,0,0,0,0,0,48641,48642,48643,48644,48645,48646,48647,48648,48649,48650,48651,48652,48653,48654,48655,48656,48657,48658,48659,48660,48661,48662,48663,48664,48665,48666,48667,0,0,0,0,0,0,0,0,0,0,0,0,0,0,0,0,0,0,0,0,0,0,0,0,0,0,0,0,0,0,0,0,0,0,0,0,0,0,0,0,0,0,0,0,0,0,0,0,0,0,0,0,0,0,48129,48130,48131,48132,48133,48134,48135,48136,48137,48138,48139,48140,48141,48142,48143,48144,48145,48146,48147,48148,48149,48150,48151,48152,48153,48154,48155,0,0,0,0,0,0,0,0,0,0,0,0,0,0,0,0,0,0,0,0,0,0,0,0,0,0,0,0,0,0,0,0,0,0,0,0,0,0,0,0,0,0,0,0,0,0,0,
0,0,0,0,0,0,0,0,0,0,0,0,0,0,0,0,0,0,0,0,0,0,0,0,0,0,0,0,0,0,0,0,0,0,0,0,0,0,0,0,0,0,0,0,0,48897,48898,48899,48900,48901,48902,48903,48904,48905,48906,48907,48908,48909,48910,48911,48912,48913,48914,48915,48916,48917,48918,48919,48920,48921,48922,48923,0,0,0,0,0,0,0,0,0,0,0,0,0,0,0,0,0,0,0,0,0,0,0,0,0,0,0,0,0,0,0,0,0,0,0,0,0,0,0,0,0,0,0,0,0,0,0,0,0,0,0,0,0,0,48385,48386,48387,48388,48389,48390,48391,48392,48393,48394,48395,48396,48397,48398,48399,48400,48401,48402,48403,48404,48405,48406,48407,48408,48409,48410,48411,0,0,0,0,0,0,0,0,0,0,0,0,0,0,0,0,0,0,0,0,0,0,0,0,0,0,0,0,0,0,0,0,0,0,0,0,0,0,0,0,0,0,0,0,0,0,0,
0,0,0,0,0,0,0,0,0,0,0,0,0,0,0,0,0,0,0,0,0,0,0,0,0,0,0,0,0,0,0,0,0,0,0,0,0,0,0,0,0,0,0,0,0,49153,49154,49155,49156,49157,49158,49159,49160,49161,49162,49163,49164,49165,49166,49167,49168,49169,49170,49171,49172,49173,49174,49175,49176,49177,49178,49179,0,0,0,0,0,0,0,0,0,0,0,0,0,0,0,0,0,0,0,0,0,0,0,0,0,0,0,0,0,0,0,0,0,0,0,0,0,0,0,0,0,0,0,0,0,0,0,0,0,0,0,0,0,0,48641,48642,48643,48644,48645,48646,48647,48648,48649,48650,48651,48652,48653,48654,48655,48656,48657,48658,48659,48660,48661,48662,48663,48664,48665,48666,48667,0,0,0,0,0,0,0,0,0,0,0,0,0,0,0,0,0,0,0,0,0,0,0,0,0,0,0,0,0,0,0,0,0,0,0,0,0,0,0,0,0,0,0,0,0,0,0,
0,0,0,0,0,0,0,0,0,0,0,0,0,0,0,0,0,0,0,0,0,0,0,0,0,0,0,0,0,0,0,0,0,0,0,0,0,0,0,0,0,0,0,0,0,49409,49410,49411,49412,49413,49414,49415,49416,49417,49418,49419,49420,49421,49422,49423,49424,49425,49426,49427,49428,49429,49430,49431,49432,49433,49434,49435,0,0,0,0,0,0,0,0,0,0,0,0,0,0,0,0,0,0,0,0,0,0,0,0,0,0,0,0,0,0,0,0,0,0,0,0,0,0,0,0,0,0,0,0,0,0,0,0,0,0,0,0,0,0,48897,48898,48899,48900,48901,48902,48903,48904,48905,48906,48907,48908,48909,48910,48911,48912,48913,48914,48915,48916,48917,48918,48919,48920,48921,48922,48923,0,0,0,0,0,0,0,0,0,0,0,0,0,0,0,0,0,0,0,0,0,0,0,0,0,0,0,0,0,0,0,0,0,0,0,0,0,0,0,0,0,0,0,0,0,0,0,
0,0,0,0,0,0,0,0,0,0,0,0,0,0,0,0,0,0,0,0,0,0,0,0,0,0,0,0,0,0,0,0,0,0,0,0,0,0,0,0,0,0,0,0,0,49665,49666,49667,49668,49669,49670,49671,49672,49673,49674,49675,49676,49677,49678,49679,49680,49681,49682,49683,49684,49685,49686,49687,49688,49689,49690,49691,0,0,0,0,0,0,0,0,0,0,0,0,0,0,0,0,0,0,0,0,0,0,0,0,0,0,0,0,0,0,0,0,0,0,0,0,0,0,0,0,0,0,0,0,0,0,0,0,0,0,0,0,0,0,49153,49154,49155,49156,49157,49158,49159,49160,49161,49162,49163,49164,49165,49166,49167,49168,49169,49170,49171,49172,49173,49174,49175,49176,49177,49178,49179,0,0,0,0,0,0,0,0,0,0,0,0,0,0,0,0,0,0,0,0,0,0,0,0,0,0,0,0,0,0,0,0,0,0,0,0,0,0,0,0,0,0,0,0,0,0,0,
0,0,0,0,0,0,0,0,0,0,0,0,0,0,0,0,0,0,0,0,0,0,0,0,0,0,0,0,0,0,0,0,0,0,0,0,0,0,0,0,0,0,0,0,0,49921,49922,49923,49924,49925,49926,49927,49928,49929,49930,49931,49932,49933,49934,49935,49936,49937,49938,49939,49940,49941,49942,49943,49944,49945,49946,49947,0,0,0,0,0,0,0,0,0,0,0,0,0,0,0,0,0,0,0,0,0,0,0,0,0,0,0,0,0,0,0,0,0,0,0,0,0,0,0,0,0,0,0,0,0,0,0,0,0,0,0,0,0,0,49409,49410,49411,49412,49413,49414,49415,49416,49417,49418,49419,49420,49421,49422,49423,49424,49425,49426,49427,49428,49429,49430,49431,49432,49433,49434,49435,0,0,0,0,0,0,0,0,0,0,0,0,0,0,0,0,0,0,0,0,0,0,0,0,0,0,0,0,0,0,0,0,0,0,0,0,0,0,0,0,0,0,0,0,0,0,0,
0,0,0,0,0,0,0,0,0,0,0,0,0,0,0,0,0,0,0,0,0,0,0,0,0,0,0,0,0,0,0,0,0,0,0,0,0,0,0,0,0,0,0,0,0,50177,50178,50179,50180,50181,50182,50183,50184,50185,50186,50187,50188,50189,50190,50191,50192,50193,50194,50195,50196,50197,50198,50199,50200,50201,50202,50203,0,0,0,0,0,0,0,0,0,0,0,0,0,0,0,0,0,0,0,0,0,0,0,0,0,0,0,0,0,0,0,0,0,0,0,0,0,0,0,0,0,0,0,0,0,0,0,0,0,0,0,0,0,0,49665,49666,49667,49668,49669,49670,49671,49672,49673,49674,49675,49676,49677,49678,49679,49680,49681,49682,49683,49684,49685,49686,49687,49688,49689,49690,49691,0,0,0,0,0,0,0,0,0,0,0,0,0,0,0,0,0,0,0,0,0,0,0,0,0,0,0,0,0,0,0,0,0,0,0,0,0,0,0,0,0,0,0,0,0,0,0,
0,0,0,0,0,0,0,0,0,0,0,0,0,0,0,0,0,0,0,0,0,0,0,0,0,0,0,0,0,0,0,0,0,0,0,0,0,0,0,0,0,0,0,0,0,50433,50434,50435,50436,50437,50438,50439,50440,50441,50442,50443,50444,50445,50446,50447,50448,50449,50450,50451,50452,50453,50454,50455,50456,50457,50458,50459,0,0,0,0,0,0,0,0,0,0,0,0,0,0,0,0,0,0,0,0,0,0,0,0,0,0,0,0,0,0,0,0,0,0,0,0,0,0,0,0,0,0,0,0,0,0,0,0,0,0,0,0,0,0,49921,49922,49923,49924,49925,49926,49927,49928,49929,49930,49931,49932,49933,49934,49935,49936,49937,49938,49939,49940,49941,49942,49943,49944,49945,49946,49947,0,0,0,0,0,0,0,0,0,0,0,0,0,0,0,0,0,0,0,0,0,0,0,0,0,0,0,0,0,0,0,0,0,0,0,0,0,0,0,0,0,0,0,0,0,0,0,
0,0,0,0,0,0,0,0,0,0,0,0,0,0,0,0,0,0,0,0,0,0,0,0,0,0,0,0,0,0,0,0,0,0,0,0,0,0,0,0,0,0,0,0,0,50689,50690,50691,50692,50693,50694,50695,50696,50697,50698,50699,50700,50701,50702,50703,50704,50705,50706,50707,50708,50709,50710,50711,50712,50713,50714,50715,0,0,0,0,0,0,0,0,0,0,0,0,0,0,0,0,0,0,0,0,0,0,0,0,0,0,0,0,0,0,0,0,0,0,0,0,0,0,0,0,0,0,0,0,0,0,0,0,0,0,0,0,0,0,50177,50178,50179,50180,50181,50182,50183,50184,50185,50186,50187,50188,50189,50190,50191,50192,50193,50194,50195,50196,50197,50198,50199,50200,50201,50202,50203,0,0,0,0,0,0,0,0,0,0,0,0,0,0,0,0,0,0,0,0,0,0,0,0,0,0,0,0,0,0,0,0,0,0,0,0,0,0,0,0,0,0,0,0,0,0,0,
0,0,0,0,0,0,0,0,0,0,0,0,0,0,0,0,0,0,0,0,0,0,0,0,0,0,0,0,0,0,0,0,0,0,0,0,0,0,0,0,0,0,0,0,0,50945,50946,50947,50948,50949,50950,50951,50952,50953,50954,50955,50956,50957,50958,50959,50960,50961,50962,50963,50964,50965,50966,50967,50968,50969,50970,50971,0,0,0,0,0,0,0,0,0,0,0,0,0,0,0,0,0,0,0,0,0,0,0,0,0,0,0,0,0,0,0,0,0,0,0,0,0,0,0,0,0,0,0,0,0,0,0,0,0,0,0,0,0,0,50433,50434,50435,50436,50437,50438,50439,50440,50441,50442,50443,50444,50445,50446,50447,50448,50449,50450,50451,50452,50453,50454,50455,50456,50457,50458,50459,0,0,0,0,0,0,0,0,0,0,0,0,0,0,0,0,0,0,0,0,0,0,0,0,0,0,0,0,0,0,0,0,0,0,0,0,0,0,0,0,0,0,0,0,0,0,0,
0,0,0,0,0,0,0,0,0,0,0,0,0,0,0,0,0,0,0,0,0,0,0,0,0,0,0,0,0,0,0,0,0,0,0,0,0,0,0,0,0,0,0,0,0,51201,51202,51203,51204,51205,51206,51207,51208,51209,51210,51211,51212,51213,51214,51215,51216,51217,51218,51219,51220,51221,51222,51223,51224,51225,51226,51227,0,0,0,0,0,0,0,0,0,0,0,0,0,0,0,0,0,0,0,0,0,0,0,0,0,0,0,0,0,0,0,0,0,0,0,0,0,0,0,0,0,0,0,0,0,0,0,0,0,0,0,0,0,0,50689,50690,50691,50692,50693,50694,50695,50696,50697,50698,50699,50700,50701,50702,50703,50704,50705,50706,50707,50708,50709,50710,50711,50712,50713,50714,50715,0,0,0,0,0,0,0,0,0,0,0,0,0,0,0,0,0,0,0,0,0,0,0,0,0,0,0,0,0,0,0,0,0,0,0,0,0,0,0,0,0,0,0,0,0,0,0,
0,0,0,0,0,0,0,0,0,0,0,0,0,0,0,0,0,0,0,0,0,0,0,0,0,0,0,0,0,0,0,0,0,0,0,0,0,0,0,0,0,0,0,0,0,51457,51458,51459,51460,51461,51462,51463,51464,51465,51466,51467,51468,51469,51470,51471,51472,51473,51474,51475,51476,51477,51478,51479,51480,51481,51482,51483,0,0,0,0,0,0,0,0,0,0,0,0,0,0,0,0,0,0,0,0,0,0,0,0,0,0,0,0,0,0,0,0,0,0,0,0,0,0,0,0,0,0,0,0,0,0,0,0,0,0,0,0,0,0,50945,50946,50947,50948,50949,50950,50951,50952,50953,50954,50955,50956,50957,50958,50959,50960,50961,50962,50963,50964,50965,50966,50967,50968,50969,50970,50971,0,0,0,0,0,0,0,0,0,0,0,0,0,0,0,0,0,0,0,0,0,0,0,0,0,0,0,0,0,0,0,0,0,0,0,0,0,0,0,0,0,0,0,0,0,0,0,
0,0,0,0,0,0,0,0,0,0,0,0,0,0,0,0,0,0,0,0,0,0,0,0,0,0,0,0,0,0,0,0,0,0,0,0,0,0,0,0,0,0,0,0,0,51713,51714,51715,51716,51717,51718,51719,51720,51721,51722,51723,51724,51725,51726,51727,51728,51729,51730,51731,51732,51733,51734,51735,51736,51737,51738,51739,0,0,0,0,0,0,0,0,0,0,0,0,0,0,0,0,0,0,0,0,0,0,0,0,0,0,0,0,0,0,0,0,0,0,0,0,0,0,0,0,0,0,0,0,0,0,0,0,0,0,0,0,0,0,51201,51202,51203,51204,51205,51206,51207,51208,51209,51210,51211,51212,51213,51214,51215,51216,51217,51218,51219,51220,51221,51222,51223,51224,51225,51226,51227,0,0,0,0,0,0,0,0,0,0,0,0,0,0,0,0,0,0,0,0,0,0,0,0,0,0,0,0,0,0,0,0,0,0,0,0,0,0,0,0,0,0,0,0,0,0,0,
0,0,0,0,0,0,0,0,0,0,0,0,0,0,0,0,0,0,0,0,0,0,0,0,0,0,0,0,0,0,0,0,0,0,0,0,0,0,0,0,0,0,0,0,0,51969,51970,51971,51972,51973,51974,51975,51976,51977,51978,51979,51980,51981,51982,51983,51984,51985,51986,51987,51988,51989,51990,51991,51992,51993,51994,51995,0,0,0,0,0,0,0,0,0,0,0,0,0,0,0,0,0,0,0,0,0,0,0,0,0,0,0,0,0,0,0,0,0,0,0,0,0,0,0,0,0,0,0,0,0,0,0,0,0,0,0,0,0,0,51457,51458,51459,51460,51461,51462,51463,51464,51465,51466,51467,51468,51469,51470,51471,51472,51473,51474,51475,51476,51477,51478,51479,51480,51481,51482,51483,0,0,0,0,0,0,0,0,0,0,0,0,0,0,0,0,0,0,0,0,0,0,0,0,0,0,0,0,0,0,0,0,0,0,0,0,0,0,0,0,0,0,0,0,0,0,0,
0,0,0,0,0,0,0,0,0,0,0,0,0,0,0,0,0,0,0,0,0,0,0,0,0,0,0,0,0,0,0,0,0,0,0,0,0,0,0,0,0,0,0,0,0,52225,52226,52227,52228,52229,52230,52231,52232,52233,52234,52235,52236,52237,52238,52239,52240,52241,52242,52243,52244,52245,52246,52247,52248,52249,52250,52251,0,0,0,0,0,0,0,0,0,0,0,0,0,0,0,0,0,0,0,0,0,0,0,0,0,0,0,0,0,0,0,0,0,0,0,0,0,0,0,0,0,0,0,0,0,0,0,0,0,0,0,0,0,0,51713,51714,51715,51716,51717,51718,51719,51720,51721,51722,51723,51724,51725,51726,51727,51728,51729,51730,51731,51732,51733,51734,51735,51736,51737,51738,51739,0,0,0,0,0,0,0,0,0,0,0,0,0,0,0,0,0,0,0,0,0,0,0,0,0,0,0,0,0,0,0,0,0,0,0,0,0,0,0,0,0,0,0,0,0,0,0,
0,0,0,0,0,0,0,0,0,0,0,0,0,0,0,0,0,0,0,0,0,0,0,0,0,0,0,0,0,0,0,0,0,0,0,0,0,0,0,0,0,0,0,0,0,52481,52482,52483,52484,52485,52486,52487,52488,52489,52490,52491,52492,52493,52494,52495,52496,52497,52498,52499,52500,52501,52502,52503,52504,52505,52506,52507,0,0,0,0,0,0,0,0,0,0,0,0,0,0,0,0,0,0,0,0,0,0,0,0,0,0,0,0,0,0,0,0,0,0,0,0,0,0,0,0,0,0,0,0,0,0,0,0,0,0,0,0,0,0,51969,51970,51971,51972,51973,51974,51975,51976,51977,51978,51979,51980,51981,51982,51983,51984,51985,51986,51987,51988,51989,51990,51991,51992,51993,51994,51995,0,0,0,0,0,0,0,0,0,0,0,0,0,0,0,0,0,0,0,0,0,0,0,0,0,0,0,0,0,0,0,0,0,0,0,0,0,0,0,0,0,0,0,0,0,0,0,
0,0,0,0,0,0,0,0,0,0,0,0,0,0,0,0,0,0,0,0,0,0,0,0,0,0,0,0,0,0,0,0,0,0,0,0,0,0,0,0,0,0,0,0,0,52737,52738,52739,52740,52741,52742,52743,52744,52745,52746,52747,52748,52749,52750,52751,52752,52753,52754,52755,52756,52757,52758,52759,52760,52761,52762,52763,0,0,0,0,0,0,0,0,0,0,0,0,0,0,0,0,0,0,0,0,0,0,0,0,0,0,0,0,0,0,0,0,0,0,0,0,0,0,0,0,0,0,0,0,0,0,0,0,0,0,0,0,0,0,52225,52226,52227,52228,52229,52230,52231,52232,52233,52234,52235,52236,52237,52238,52239,52240,52241,52242,52243,52244,52245,52246,52247,52248,52249,52250,52251,0,0,0,0,0,0,0,0,0,0,0,0,0,0,0,0,0,0,0,0,0,0,0,0,0,0,0,0,0,0,0,0,0,0,0,0,0,0,0,0,0,0,0,0,0,0,0,
0,0,0,0,0,0,0,0,0,0,0,0,0,0,0,0,0,0,0,0,0,0,0,0,0,0,0,0,0,0,0,0,0,0,0,0,0,0,0,0,0,0,0,0,0,52993,52994,52995,52996,52997,52998,52999,53000,53001,53002,53003,53004,53005,53006,53007,53008,53009,53010,53011,53012,53013,53014,53015,53016,53017,53018,53019,0,0,0,0,0,0,0,0,0,0,0,0,0,0,0,0,0,0,0,0,0,0,0,0,0,0,0,0,0,0,0,0,0,0,0,0,0,0,0,0,0,0,0,0,0,0,0,0,0,0,0,0,0,0,52481,52482,52483,52484,52485,52486,52487,52488,52489,52490,52491,52492,52493,52494,52495,52496,52497,52498,52499,52500,52501,52502,52503,52504,52505,52506,52507,0,0,0,0,0,0,0,0,0,0,0,0,0,0,0,0,0,0,0,0,0,0,0,0,0,0,0,0,0,0,0,0,0,0,0,0,0,0,0,0,0,0,0,0,0,0,0,
0,0,0,0,0,0,0,0,0,0,0,0,0,0,0,0,0,0,0,0,0,0,0,0,0,0,0,0,0,0,0,0,0,0,0,0,0,0,0,0,0,0,0,0,0,53249,53250,53251,53252,53253,53254,53255,53256,53257,53258,53259,53260,53261,53262,53263,53264,53265,53266,53267,53268,53269,53270,53271,53272,53273,53274,53275,0,0,0,0,0,0,0,0,0,0,0,0,0,0,0,0,0,0,0,0,0,0,0,0,0,0,0,0,0,0,0,0,0,0,0,0,0,0,0,0,0,0,0,0,0,0,0,0,0,0,0,0,0,0,52737,52738,52739,52740,52741,52742,52743,52744,52745,52746,52747,52748,52749,52750,52751,52752,52753,52754,52755,52756,52757,52758,52759,52760,52761,52762,52763,0,0,0,0,0,0,0,0,0,0,0,0,0,0,0,0,0,0,0,0,0,0,0,0,0,0,0,0,0,0,0,0,0,0,0,0,0,0,0,0,0,0,0,0,0,0,0,
0,0,0,0,0,0,0,0,0,0,0,0,0,0,0,0,0,0,0,0,0,0,0,0,0,0,0,0,0,0,0,0,0,0,0,0,0,0,0,0,0,0,0,0,0,53505,53506,53507,53508,53509,53510,53511,53512,53513,53514,53515,53516,53517,53518,53519,53520,53521,53522,53523,53524,53525,53526,53527,53528,53529,53530,53531,0,0,0,0,0,0,0,0,0,0,0,0,0,0,0,0,0,0,0,0,0,0,0,0,0,0,0,0,0,0,0,0,0,0,0,0,0,0,0,0,0,0,0,0,0,0,0,0,0,0,0,0,0,0,52993,52994,52995,52996,52997,52998,52999,53000,53001,53002,53003,53004,53005,53006,53007,53008,53009,53010,53011,53012,53013,53014,53015,53016,53017,53018,53019,0,0,0,0,0,0,0,0,0,0,0,0,0,0,0,0,0,0,0,0,0,0,0,0,0,0,0,0,0,0,0,0,0,0,0,0,0,0,0,0,0,0,0,0,0,0,0,
0,0,0,0,0,0,0,0,0,0,0,0,0,0,0,0,0,0,0,0,0,0,0,0,0,0,0,0,0,0,0,0,0,0,0,0,0,0,0,0,0,0,0,0,0,53761,53762,53763,53764,53765,53766,53767,53768,53769,53770,53771,53772,53773,53774,53775,53776,53777,53778,53779,53780,53781,53782,53783,53784,53785,53786,53787,0,0,0,0,0,0,0,0,0,0,0,0,0,0,0,0,0,0,0,0,0,0,0,0,0,0,0,0,0,0,0,0,0,0,0,0,0,0,0,0,0,0,0,0,0,0,0,0,0,0,0,0,0,0,53249,53250,53251,53252,53253,53254,53255,53256,53257,53258,53259,53260,53261,53262,53263,53264,53265,53266,53267,53268,53269,53270,53271,53272,53273,53274,53275,0,0,0,0,0,0,0,0,0,0,0,0,0,0,0,0,0,0,0,0,0,0,0,0,0,0,0,0,0,0,0,0,0,0,0,0,0,0,0,0,0,0,0,0,0,0,0,
0,0,0,0,0,0,0,0,0,0,0,0,0,0,0,0,0,0,0,0,0,0,0,0,0,0,0,0,0,0,0,0,0,0,0,0,0,0,0,0,0,0,0,0,0,54017,54018,54019,54020,54021,54022,54023,54024,54025,54026,54027,54028,54029,54030,54031,54032,54033,54034,54035,54036,54037,54038,54039,54040,54041,54042,54043,0,0,0,0,0,0,0,0,0,0,0,0,0,0,0,0,0,0,0,0,0,0,0,0,0,0,0,0,0,0,0,0,0,0,0,0,0,0,0,0,0,0,0,0,0,0,0,0,0,0,0,0,0,0,53505,53506,53507,53508,53509,53510,53511,53512,53513,53514,53515,53516,53517,53518,53519,53520,53521,53522,53523,53524,53525,53526,53527,53528,53529,53530,53531,0,0,0,0,0,0,0,0,0,0,0,0,0,0,0,0,0,0,0,0,0,0,0,0,0,0,0,0,0,0,0,0,0,0,0,0,0,0,0,0,0,0,0,0,0,0,0,
0,0,0,0,0,0,0,0,0,0,0,0,0,0,0,0,0,0,0,0,0,0,0,0,0,0,0,0,0,0,0,0,0,0,0,0,0,0,0,0,0,0,0,0,0,54273,54274,54275,54276,54277,54278,54279,54280,54281,54282,54283,54284,54285,54286,54287,54288,54289,54290,54291,54292,54293,54294,54295,54296,54297,54298,54299,0,0,0,0,0,0,0,0,0,0,0,0,0,0,0,0,0,0,0,0,0,0,0,0,0,0,0,0,0,0,0,0,0,0,0,0,0,0,0,0,0,0,0,0,0,0,0,0,0,0,0,0,0,0,53761,53762,53763,53764,53765,53766,53767,53768,53769,53770,53771,53772,53773,53774,53775,53776,53777,53778,53779,53780,53781,53782,53783,53784,53785,53786,53787,0,0,0,0,0,0,0,0,0,0,0,0,0,0,0,0,0,0,0,0,0,0,0,0,0,0,0,0,0,0,0,0,0,0,0,0,0,0,0,0,0,0,0,0,0,0,0,
0,0,0,0,0,0,0,0,0,0,0,0,0,0,0,0,0,0,0,0,0,0,0,0,0,0,0,0,0,0,0,0,0,0,0,0,0,0,0,0,0,0,0,0,0,54529,54530,54531,54532,54533,54534,54535,54536,54537,54538,54539,54540,54541,54542,54543,54544,54545,54546,54547,54548,54549,54550,54551,54552,54553,54554,54555,0,0,0,0,0,0,0,0,0,0,0,0,0,0,0,0,0,0,0,0,0,0,0,0,0,0,0,0,0,0,0,0,0,0,0,0,0,0,0,0,0,0,0,0,0,0,0,0,0,0,0,0,0,0,54017,54018,54019,54020,54021,54022,54023,54024,54025,54026,54027,54028,54029,54030,54031,54032,54033,54034,54035,54036,54037,54038,54039,54040,54041,54042,54043,0,0,0,0,0,0,0,0,0,0,0,0,0,0,0,0,0,0,0,0,0,0,0,0,0,0,0,0,0,0,0,0,0,0,0,0,0,0,0,0,0,0,0,0,0,0,0,
0,0,0,0,0,0,0,0,0,0,0,0,0,0,0,0,0,0,0,0,0,0,0,0,0,0,0,0,0,0,0,0,0,0,0,0,0,0,0,0,0,0,0,0,0,54785,54786,54787,54788,54789,54790,54791,54792,54793,54794,54795,54796,54797,54798,54799,54800,54801,54802,54803,54804,54805,54806,54807,54808,54809,54810,54811,0,0,0,0,0,0,0,0,0,0,0,0,0,0,0,0,0,0,0,0,0,0,0,0,0,0,0,0,0,0,0,0,0,0,0,0,0,0,0,0,0,0,0,0,0,0,0,0,0,0,0,0,0,0,54273,54274,54275,54276,54277,54278,54279,54280,54281,54282,54283,54284,54285,54286,54287,54288,54289,54290,54291,54292,54293,54294,54295,54296,54297,54298,54299,0,0,0,0,0,0,0,0,0,0,0,0,0,0,0,0,0,0,0,0,0,0,0,0,0,0,0,0,0,0,0,0,0,0,0,0,0,0,0,0,0,0,0,0,0,0,0,
0,0,0,0,0,0,0,0,0,0,0,0,0,0,0,0,0,0,0,0,0,0,0,0,0,0,0,0,0,0,0,0,0,0,0,0,0,0,0,0,0,0,0,0,0,55041,55042,55043,55044,55045,55046,55047,55048,55049,55050,55051,55052,55053,55054,55055,55056,55057,55058,55059,55060,55061,55062,55063,55064,55065,55066,55067,0,0,0,0,0,0,0,0,0,0,0,0,0,0,0,0,0,0,0,0,0,0,0,0,0,0,0,0,0,0,0,0,0,0,0,0,0,0,0,0,0,0,0,0,0,0,0,0,0,0,0,0,0,0,54529,54530,54531,54532,54533,54534,54535,54536,54537,54538,54539,54540,54541,54542,54543,54544,54545,54546,54547,54548,54549,54550,54551,54552,54553,54554,54555,0,0,0,0,0,0,0,0,0,0,0,0,0,0,0,0,0,0,0,0,0,0,0,0,0,0,0,0,0,0,0,0,0,0,0,0,0,0,0,0,0,0,0,0,0,0,0,
0,0,0,0,0,0,0,0,0,0,0,0,0,0,0,0,0,0,0,0,0,0,0,0,0,0,0,0,0,0,0,0,0,0,0,0,0,0,0,0,0,0,0,0,0,55297,55298,55299,55300,55301,55302,55303,55304,55305,55306,55307,55308,55309,55310,55311,55312,55313,55314,55315,55316,55317,55318,55319,55320,55321,55322,55323,0,0,0,0,0,0,0,0,0,0,0,0,0,0,0,0,0,0,0,0,0,0,0,0,0,0,0,0,0,0,0,0,0,0,0,0,0,0,0,0,0,0,0,0,0,0,0,0,0,0,0,0,0,0,54785,54786,54787,54788,54789,54790,54791,54792,54793,54794,54795,54796,54797,54798,54799,54800,54801,54802,54803,54804,54805,54806,54807,54808,54809,54810,54811,0,0,0,0,0,0,0,0,0,0,0,0,0,0,0,0,0,0,0,0,0,0,0,0,0,0,0,0,0,0,0,0,0,0,0,0,0,0,0,0,0,0,0,0,0,0,0,
0,0,0,0,0,0,0,0,0,0,0,0,0,0,0,0,0,0,0,0,0,0,0,0,0,0,0,0,0,0,0,0,0,0,0,0,0,0,0,0,0,0,0,0,0,55553,55554,55555,55556,55557,55558,55559,55560,55561,55562,55563,55564,55565,55566,55567,55568,55569,55570,55571,55572,55573,55574,55575,55576,55577,55578,55579,0,0,0,0,0,0,0,0,0,0,0,0,0,0,0,0,0,0,0,0,0,0,0,0,0,0,0,0,0,0,0,0,0,0,0,0,0,0,0,0,0,0,0,0,0,0,0,0,0,0,0,0,0,0,55041,55042,55043,55044,55045,55046,55047,55048,55049,55050,55051,55052,55053,55054,55055,55056,55057,55058,55059,55060,55061,55062,55063,55064,55065,55066,55067,0,0,0,0,0,0,0,0,0,0,0,0,0,0,0,0,0,0,0,0,0,0,0,0,0,0,0,0,0,0,0,0,0,0,0,0,0,0,0,0,0,0,0,0,0,0,0,
0,0,0,0,0,0,0,0,0,0,0,0,0,0,0,0,0,0,0,0,0,0,0,0,0,0,0,0,0,0,0,0,0,0,0,0,0,0,0,0,0,0,0,0,0,55809,55810,55811,55812,55813,55814,55815,55816,55817,55818,55819,55820,55821,55822,55823,55824,55825,55826,55827,55828,55829,55830,55831,55832,55833,55834,55835,0,0,0,0,0,0,0,0,0,0,0,0,0,0,0,0,0,0,0,0,0,0,0,0,0,0,0,0,0,0,0,0,0,0,0,0,0,0,0,0,0,0,0,0,0,0,0,0,0,0,0,0,0,0,55297,55298,55299,55300,55301,55302,55303,55304,55305,55306,55307,55308,55309,55310,55311,55312,55313,55314,55315,55316,55317,55318,55319,55320,55321,55322,55323,0,0,0,0,0,0,0,0,0,0,0,0,0,0,0,0,0,0,0,0,0,0,0,0,0,0,0,0,0,0,0,0,0,0,0,0,0,0,0,0,0,0,0,0,0,0,0,
0,0,0,0,0,0,0,0,0,0,0,0,0,0,0,0,0,0,0,0,0,0,0,0,0,0,0,0,0,0,0,0,0,0,0,0,0,0,0,0,0,0,0,0,0,0,0,0,0,0,0,0,0,0,0,0,0,0,0,0,0,0,0,0,0,0,0,0,0,0,0,0,0,0,0,0,0,0,0,0,0,0,0,0,0,0,0,0,0,0,0,0,0,0,0,0,0,0,0,0,0,0,0,0,0,0,0,0,0,0,0,0,0,0,0,0,0,0,0,0,0,0,0,0,0,0,55553,55554,55555,55556,55557,55558,55559,55560,55561,55562,55563,55564,55565,55566,55567,55568,55569,55570,55571,55572,55573,55574,55575,55576,55577,55578,55579,0,0,0,0,0,0,0,0,0,0,0,0,0,0,0,0,0,0,0,0,0,0,0,0,0,0,0,0,0,0,0,0,0,0,0,0,0,0,0,0,0,0,0,0,0,0,0,
0,0,0,0,0,0,0,0,0,0,0,0,0,0,0,0,0,0,0,0,0,0,0,0,0,0,0,0,0,0,0,0,0,0,0,0,0,0,0,0,0,0,0,0,0,0,0,0,0,0,0,0,0,0,0,0,0,0,0,0,0,0,0,0,0,0,0,0,0,0,0,0,0,0,0,0,0,0,0,0,0,0,0,0,0,0,0,0,0,0,0,0,0,0,0,0,0,0,0,0,0,0,0,0,0,0,0,0,0,0,0,0,0,0,0,0,0,0,0,0,0,0,0,0,0,0,55809,55810,55811,55812,55813,55814,55815,55816,55817,55818,55819,55820,55821,55822,55823,55824,55825,55826,55827,55828,55829,55830,55831,55832,55833,55834,55835,0,0,0,0,0,0,0,0,0,0,0,0,0,0,0,0,0,0,0,0,0,0,0,0,0,0,0,0,0,0,0,0,0,0,0,0,0,0,0,0,0,0,0,0,0,0,0,
0,0,0,0,0,0,0,0,0,0,0,0,0,0,0,0,0,0,0,0,0,0,0,0,0,0,0,0,0,0,0,0,0,0,0,0,0,0,0,0,0,0,0,0,0,0,0,0,0,0,0,0,0,0,0,0,0,0,0,0,0,0,0,0,0,0,0,0,0,0,0,0,0,0,0,0,0,0,0,0,0,0,0,0,0,0,0,0,0,0,0,0,0,0,0,0,0,0,0,0,0,0,0,0,0,0,0,0,0,0,0,0,0,0,0,0,0,0,0,0,0,0,0,0,0,0,0,0,0,0,0,0,0,0,0,0,0,0,0,0,0,0,0,0,0,0,0,0,0,0,0,0,0,0,0,0,0,0,0,0,0,0,0,0,0,0,0,0,0,0,0,0,0,0,0,0,0,0,0,0,0,0,0,0,0,0,0,0,0,0,0,0,0,0,0,0,0,0,0,0,
0,0,0,0,0,0,0,0,0,0,0,0,0,0,0,0,0,0,0,0,0,0,0,0,0,0,0,0,0,0,0,0,0,0,0,0,0,0,0,0,0,0,0,0,0,0,0,0,0,0,0,0,0,0,0,0,0,0,0,0,0,0,0,0,0,0,0,0,0,0,0,0,0,0,0,0,0,0,0,0,0,0,0,0,0,0,0,0,0,0,0,0,0,0,0,0,0,0,0,0,0,0,0,0,0,0,0,0,0,0,0,0,0,0,0,0,0,0,0,0,0,0,0,0,0,0,0,0,0,0,0,0,0,0,0,0,0,0,0,0,0,0,0,0,0,0,0,0,0,0,0,0,0,0,0,0,0,0,0,0,0,0,0,0,0,0,0,0,0,0,0,0,0,0,0,0,0,0,0,0,0,0,0,0,0,0,0,0,0,0,0,0,0,0,0,0,0,0,0,0,
0,0,0,0,0,0,0,0,0,0,0,0,0,0,0,0,0,0,0,0,0,0,0,0,0,0,0,0,0,0,0,0,0,0,0,0,0,0,0,0,0,0,0,0,0,0,0,0,0,0,0,0,0,0,0,0,0,0,0,0,0,0,0,0,0,0,0,0,0,0,0,0,0,0,0,0,0,0,0,0,0,0,0,0,0,0,0,0,0,0,0,0,0,0,0,0,0,0,0,0,0,0,0,0,0,0,0,0,0,0,0,0,0,0,0,0,0,0,0,0,0,0,0,0,0,0,0,0,0,0,0,0,0,0,0,0,0,0,0,0,0,0,0,0,0,0,0,0,0,0,0,0,0,0,0,0,0,0,0,0,0,0,0,0,0,0,0,0,0,0,0,0,0,0,0,0,0,0,0,0,0,0,0,0,0,0,0,0,0,0,0,0,0,0,0,0,0,0,0,0,
0,0,0,0,0,0,0,0,0,0,0,0,0,0,0,0,0,0,0,0,0,0,0,0,0,0,0,0,0,0,0,0,0,0,0,0,0,0,0,0,0,0,0,0,0,0,0,0,0,0,0,0,0,0,0,0,0,0,0,0,0,0,0,0,0,0,0,0,0,0,0,0,0,0,0,0,0,0,0,0,0,0,0,0,0,0,0,0,0,0,0,0,0,0,0,0,0,0,0,0,0,0,0,0,0,0,0,0,0,0,0,0,0,0,0,0,0,0,0,0,0,0,0,0,0,0,0,0,0,0,0,0,0,0,0,0,0,0,0,0,0,0,0,0,0,0,0,0,0,0,0,0,0,0,0,0,0,0,0,0,0,0,0,0,0,0,0,0,0,0,0,0,0,0,0,0,0,0,0,0,0,0,0,0,0,0,0,0,0,0,0,0,0,0,0,0,0,0,0,0,
0,0,0,0,0,0,0,0,0,0,0,0,0,0,0,0,0,0,0,0,0,0,0,0,0,0,0,0,0,0,0,0,0,0,0,0,0,0,0,0,0,0,0,0,0,0,0,0,0,0,0,0,0,0,0,0,0,0,0,0,0,0,0,0,0,0,0,0,0,0,0,0,0,0,0,0,0,0,0,0,0,0,0,0,0,0,0,0,0,0,0,0,0,0,0,0,0,0,0,0,0,0,0,0,0,0,0,0,0,0,0,0,0,0,0,0,0,0,0,0,0,0,0,0,0,0,0,0,0,0,0,0,0,0,0,0,0,0,0,0,0,0,0,0,0,0,0,0,0,0,0,0,0,0,0,0,0,0,0,0,0,0,0,0,0,0,0,0,0,0,0,0,0,0,0,0,0,0,0,0,0,0,0,0,0,0,0,0,0,0,0,0,0,0,0,0,0,0,0,0,
0,0,0,0,0,0,0,0,0,0,0,0,0,0,0,0,0,0,0,0,0,0,0,0,0,0,0,0,0,0,0,0,0,0,0,0,0,0,0,0,0,0,0,0,0,0,0,0,0,0,0,0,0,0,0,0,0,0,0,0,0,0,0,0,0,0,0,0,0,0,0,0,0,0,0,0,0,0,0,0,0,0,0,0,0,0,0,0,0,0,0,0,0,0,0,0,0,0,0,0,0,0,0,0,0,0,0,0,0,0,0,0,0,0,0,0,0,0,0,0,0,0,0,0,0,0,0,0,0,0,0,0,0,0,0,0,0,0,0,0,0,0,0,0,0,0,0,0,0,0,0,0,0,0,0,0,0,0,0,0,0,0,0,0,0,0,0,0,0,0,0,0,0,0,0,0,0,0,0,0,0,0,0,0,0,0,0,0,0,0,0,0,0,0,0,0,0,0,0,0,
0,0,0,0,0,0,0,0,0,0,0,0,0,0,0,0,0,0,0,0,0,0,0,0,0,0,0,0,0,0,0,0,0,0,0,0,0,0,0,0,0,0,0,0,0,0,0,0,0,0,0,0,0,0,0,0,0,0,0,0,0,0,0,0,0,0,0,0,0,0,0,0,0,0,0,0,0,0,0,0,0,0,0,0,0,0,0,0,0,0,0,0,0,0,0,0,0,0,0,0,0,0,0,0,0,0,0,0,0,0,0,0,0,0,0,0,0,0,0,0,0,0,0,0,0,0,0,0,0,0,0,0,0,0,0,0,0,0,0,0,0,0,0,0,0,0,0,0,0,0,0,0,0,0,0,0,0,0,0,0,0,0,0,0,0,0,0,0,0,0,0,0,0,0,0,0,0,0,0,0,0,0,0,0,0,0,0,0,0,0,0,0,0,0,0,0,0,0,0,0,
0,0,0,0,0,0,0,0,0,0,0,0,0,0,0,0,0,0,0,0,0,0,0,0,0,0,0,0,0,0,0,0,0,0,0,0,0,0,0,0,0,0,0,0,0,0,0,0,0,0,0,0,0,0,0,0,0,0,0,0,0,0,0,0,0,0,0,0,0,0,0,0,0,0,0,0,0,0,0,0,0,0,0,0,0,0,0,0,0,0,0,0,0,0,0,0,0,0,0,0,0,0,0,0,0,0,0,0,0,0,0,0,0,0,0,0,0,0,0,0,0,0,0,0,0,0,0,0,0,0,0,0,0,0,0,0,0,0,0,0,0,0,0,0,0,0,0,0,0,0,0,0,0,0,0,0,0,0,0,0,0,0,0,0,0,0,0,0,0,0,0,0,0,0,0,0,0,0,0,0,0,0,0,0,0,0,0,0,0,0,0,0,0,0,0,0,0,0,0,0,
0,0,0,0,0,0,0,0,0,0,0,0,0,0,0,0,0,0,0,0,0,0,0,0,0,0,0,0,0,0,0,0,0,0,0,0,0,0,0,0,0,0,0,0,0,0,0,0,0,0,0,0,0,0,0,0,0,0,0,0,0,0,0,0,0,0,0,0,0,0,0,0,0,0,0,0,0,0,0,0,0,0,0,0,0,0,0,0,0,0,0,0,0,0,0,0,0,0,0,0,0,0,0,0,0,0,0,0,0,0,0,0,0,0,0,0,0,0,0,0,0,0,0,0,0,0,0,0,0,0,0,0,0,0,0,0,0,0,0,0,0,0,0,0,0,0,0,0,0,0,0,0,0,0,0,0,0,0,0,0,0,0,0,0,0,0,0,0,0,0,0,0,0,0,0,0,0,0,0,0,0,0,0,0,0,0,0,0,0,0,0,0,0,0,0,0,0,0,0,0,
0,0,0,0,0,0,0,0,0,0,0,0,0,0,0,0,0,0,0,0,0,0,0,0,0,0,0,0,0,0,0,0,0,0,0,0,0,0,0,0,0,0,0,0,0,0,0,0,0,0,0,0,0,0,0,0,0,0,0,0,0,0,0,0,0,0,0,0,0,0,0,0,0,0,0,0,0,0,0,0,0,0,0,0,0,0,0,0,0,0,0,0,0,0,0,0,0,0,0,0,0,0,0,0,0,0,0,0,0,0,0,0,0,0,0,0,0,0,0,0,0,0,0,0,0,0,0,0,0,0,0,0,0,0,0,0,0,0,0,0,0,0,0,0,0,0,0,0,0,0,0,0,0,0,0,0,0,0,0,0,0,0,0,0,0,0,0,0,0,0,0,0,0,0,0,0,0,0,0,0,0,0,0,0,0,0,0,0,0,0,0,0,0,0,0,0,0,0,0,0,
0,0,0,0,0,0,0,0,0,0,0,0,0,0,0,0,0,0,0,0,0,0,0,0,0,0,0,0,0,0,0,0,0,0,0,0,0,0,0,0,0,0,0,0,0,0,0,0,0,0,0,0,0,0,0,0,0,0,0,0,0,0,0,0,0,0,0,0,0,0,0,0,0,0,0,0,0,0,0,0,0,0,0,0,0,0,0,0,0,0,0,0,0,0,0,0,0,0,0,0,0,0,0,0,0,0,0,0,0,0,0,0,0,0,0,0,0,0,0,0,0,0,0,0,0,0,0,0,0,0,0,0,0,0,0,0,0,0,0,0,0,0,0,0,0,0,0,0,0,0,0,0,0,0,0,0,0,0,0,0,0,0,0,0,0,0,0,0,0,0,0,0,0,0,0,0,0,0,0,0,0,0,0,0,0,0,0,0,0,0,0,0,0,0,0,0,0,0,0,0,
0,0,0,0,0,0,0,0,0,0,0,0,0,0,0,0,0,0,0,0,0,0,0,0,0,0,0,0,0,0,0,0,0,0,0,0,0,0,0,0,0,0,0,0,0,0,0,0,0,0,0,0,0,0,0,0,0,0,0,0,0,0,0,0,0,0,0,0,0,0,0,0,0,0,0,0,0,0,0,0,0,0,0,0,0,0,0,0,0,0,0,0,0,0,0,0,0,0,0,0,0,0,0,0,0,0,0,0,0,0,0,0,0,0,0,0,0,0,0,0,0,0,0,0,0,0,0,0,0,0,0,0,0,0,0,0,0,0,0,0,0,0,0,0,0,0,0,0,0,0,0,0,0,0,0,0,0,0,0,0,0,0,0,0,0,0,0,0,0,0,0,0,0,0,0,0,0,0,0,0,0,0,0,0,0,0,0,0,0,0,0,0,0,0,0,0,0,0,0,0
</data>
 </layer>
 <objectgroup id="7" name="collision">
  <object id="7" x="1717" y="2861">
   <polygon points="0,0 61,26 59,41 73,72 136,93 200,84 226,48 280,59 283,2 217,-14 222,-110 98,-118 77,-20 18,-46"/>
  </object>
  <object id="9" x="757.576" y="1322.67">
   <polygon points="0,0 61,26 59,41 73,72 136,93 200,84 226,48 280,59 283,2 217,-14 222,-110 98,-118 77,-20 18,-46"/>
  </object>
  <object id="10" x="3121.21" y="1122.73">
   <polygon points="0,0 61,26 59,41 73,72 136,93 200,84 226,48 280,59 283,2 217,-14 222,-110 98,-118 77,-20 18,-46"/>
  </object>
  <object id="11" x="4306.06" y="2917.61">
   <polygon points="0,0 61,26 59,41 73,72 136,93 200,84 226,48 280,59 283,2 217,-14 222,-110 98,-118 77,-20 18,-46"/>
  </object>
  <object id="12" x="5234" y="1377">
   <polygon points="0,0 61,26 59,41 73,72 136,93 200,84 226,48 280,59 283,2 217,-14 222,-110 98,-118 77,-20 18,-46"/>
  </object>
 </objectgroup>
</map>
